%
O1005
( POST FILE   : haas_ngc.py )
( POST VERSION: 1.217.722 )
( CAM SYSTEM  : CamStudio, Version 1.217.3100.4d4104d9a )
( CAM FILE    : Job )
( MACHINE     : 3AxGenericVertical-default )
( CREATED ON  : 2026-06-30T16:28:58 )
( CREATED BY  : MW PPFramework v2.15.0 )

( --- TOOL LIST BEGIN --- )
( --- Tooling parameters generated in 'Imperial' unit --- )
( T1 D0.5 in End mill, TL=4.325, CL=1.75, FL=1.0 )
( T2 D0.25 in End mill, TL=4.325, CL=1.75, FL=1.0 )
( T3 D0.25 in Ball mill, TL=4.325, CL=1.75, FL=1.0 )
( T4 D0.5 in Ball mill, TL=4.325, CL=1.75, FL=1.0 )
( --- TOOL LIST END --- )

N1 G20
N2 G17 G40 G49 G80 G90
( Operation: Face )
N3 T1 M6 (D0.5 in End mill)
N4 S3060 M3
N5 G0 G90 G54 G94 ( Work plane )
N6 G0 X-0.11 Y-6.1385
N7 G43 Z0.5906 H01
N8 M8
N9 Z0.34
N10 G1 Z-0.06 F10.
N11 G2 X0.015 Y-6.0135 I0.125 J0. F24.
N12 G1 X6.015
N13 X6.0267 Y-6.0131
N14 X6.0377 Y-6.012
N15 X6.0479 Y-6.0101
N16 X6.0573 Y-6.0075
N17 X6.066 Y-6.004
N18 X6.074 Y-5.9999
N19 X6.0812 Y-5.995
N20 X6.0876 Y-5.9893
N21 X6.0933 Y-5.9829
N22 X6.0982 Y-5.9757
N23 X6.1023 Y-5.9678
N24 X6.1057 Y-5.9591
N25 X6.1084 Y-5.9496
N26 X6.1103 Y-5.9394
N27 X6.1114 Y-5.9284
N28 X6.1118 Y-5.9167
N29 X6.1114 Y-5.905
N30 X6.1103 Y-5.894
N31 X6.1084 Y-5.8838
N32 X6.1057 Y-5.8744
N33 X6.1023 Y-5.8657
N34 X6.0982 Y-5.8578
N35 X6.0933 Y-5.8506
N36 X6.0876 Y-5.8441
N37 X6.0812 Y-5.8385
N38 X6.074 Y-5.8336
N39 X6.066 Y-5.8294
N40 X6.0573 Y-5.826
N41 X6.0479 Y-5.8234
N42 X6.0377 Y-5.8215
N43 X6.0267 Y-5.8203
N44 X6.015 Y-5.82
N45 X0.015
N46 X0.0033 Y-5.8196
N47 X-0.0077 Y-5.8184
N48 X-0.0179 Y-5.8165
N49 X-0.0273 Y-5.8139
N50 X-0.036 Y-5.8105
N51 X-0.044 Y-5.8063
N52 X-0.0512 Y-5.8014
N53 X-0.0576 Y-5.7958
N54 X-0.0633 Y-5.7893
N55 X-0.0682 Y-5.7821
N56 X-0.0723 Y-5.7742
N57 X-0.0757 Y-5.7655
N58 X-0.0784 Y-5.7561
N59 X-0.0803 Y-5.7459
N60 X-0.0814 Y-5.7349
N61 X-0.0818 Y-5.7232
N62 X-0.0814 Y-5.7115
N63 X-0.0803 Y-5.7005
N64 X-0.0784 Y-5.6903
N65 X-0.0757 Y-5.6808
N66 X-0.0723 Y-5.6721
N67 X-0.0682 Y-5.6642
N68 X-0.0633 Y-5.657
N69 X-0.0576 Y-5.6506
N70 X-0.0512 Y-5.6449
N71 X-0.044 Y-5.64
N72 X-0.036 Y-5.6359
N73 X-0.0273 Y-5.6325
N74 X-0.0179 Y-5.6298
N75 X-0.0077 Y-5.6279
N76 X0.0033 Y-5.6268
N77 X0.015 Y-5.6264
N78 X6.015
N79 X6.0267 Y-5.626
N80 X6.0377 Y-5.6249
N81 X6.0479 Y-5.623
N82 X6.0573 Y-5.6204
N83 X6.066 Y-5.617
N84 X6.074 Y-5.6128
N85 X6.0812 Y-5.6079
N86 X6.0876 Y-5.6022
N87 X6.0933 Y-5.5958
N88 X6.0982 Y-5.5886
N89 X6.1023 Y-5.5807
N90 X6.1057 Y-5.572
N91 X6.1084 Y-5.5625
N92 X6.1103 Y-5.5523
N93 X6.1114 Y-5.5413
N94 X6.1118 Y-5.5296
N95 X6.1114 Y-5.5179
N96 X6.1103 Y-5.5069
N97 X6.1084 Y-5.4967
N98 X6.1057 Y-5.4873
N99 X6.1023 Y-5.4786
N100 X6.0982 Y-5.4707
N101 X6.0933 Y-5.4635
N102 X6.0876 Y-5.457
N103 X6.0812 Y-5.4514
N104 X6.074 Y-5.4465
N105 X6.066 Y-5.4423
N106 X6.0573 Y-5.4389
N107 X6.0479 Y-5.4363
N108 X6.0377 Y-5.4344
N109 X6.0267 Y-5.4332
N110 X6.015 Y-5.4329
N111 X0.015
N112 X0.0033 Y-5.4325
N113 X-0.0077 Y-5.4313
N114 X-0.0179 Y-5.4295
N115 X-0.0273 Y-5.4268
N116 X-0.036 Y-5.4234
N117 X-0.044 Y-5.4192
N118 X-0.0512 Y-5.4143
N119 X-0.0576 Y-5.4087
N120 X-0.0633 Y-5.4022
N121 X-0.0682 Y-5.3951
N122 X-0.0723 Y-5.3871
N123 X-0.0757 Y-5.3784
N124 X-0.0784 Y-5.369
N125 X-0.0803 Y-5.3588
N126 X-0.0814 Y-5.3478
N127 X-0.0818 Y-5.3361
N128 X-0.0814 Y-5.3244
N129 X-0.0803 Y-5.3134
N130 X-0.0784 Y-5.3032
N131 X-0.0757 Y-5.2937
N132 X-0.0723 Y-5.285
N133 X-0.0682 Y-5.2771
N134 X-0.0633 Y-5.2699
N135 X-0.0576 Y-5.2635
N136 X-0.0512 Y-5.2578
N137 X-0.044 Y-5.2529
N138 X-0.036 Y-5.2488
N139 X-0.0273 Y-5.2454
N140 X-0.0179 Y-5.2427
N141 X-0.0077 Y-5.2408
N142 X0.0033 Y-5.2397
N143 X0.015 Y-5.2393
N144 X6.015
N145 X6.0267 Y-5.2389
N146 X6.0377 Y-5.2378
N147 X6.0479 Y-5.2359
N148 X6.0573 Y-5.2333
N149 X6.066 Y-5.2299
N150 X6.074 Y-5.2257
N151 X6.0812 Y-5.2208
N152 X6.0876 Y-5.2151
N153 X6.0933 Y-5.2087
N154 X6.0982 Y-5.2015
N155 X6.1023 Y-5.1936
N156 X6.1057 Y-5.1849
N157 X6.1084 Y-5.1754
N158 X6.1103 Y-5.1652
N159 X6.1114 Y-5.1543
N160 X6.1118 Y-5.1425
N161 X6.1114 Y-5.1308
N162 X6.1103 Y-5.1199
N163 X6.1084 Y-5.1096
N164 X6.1057 Y-5.1002
N165 X6.1023 Y-5.0915
N166 X6.0982 Y-5.0836
N167 X6.0933 Y-5.0764
N168 X6.0876 Y-5.07
N169 X6.0812 Y-5.0643
N170 X6.074 Y-5.0594
N171 X6.066 Y-5.0552
N172 X6.0573 Y-5.0518
N173 X6.0479 Y-5.0492
N174 X6.0377 Y-5.0473
N175 X6.0267 Y-5.0461
N176 X6.015 Y-5.0458
N177 X0.015
N178 X0.0033 Y-5.0454
N179 X-0.0077 Y-5.0442
N180 X-0.0179 Y-5.0424
N181 X-0.0273 Y-5.0397
N182 X-0.036 Y-5.0363
N183 X-0.044 Y-5.0321
N184 X-0.0512 Y-5.0272
N185 X-0.0576 Y-5.0216
N186 X-0.0633 Y-5.0151
N187 X-0.0682 Y-5.008
N188 X-0.0723 Y-5.
N189 X-0.0757 Y-4.9913
N190 X-0.0784 Y-4.9819
N191 X-0.0803 Y-4.9717
N192 X-0.0814 Y-4.9607
N193 X-0.0818 Y-4.949
N194 X-0.0814 Y-4.9373
N195 X-0.0803 Y-4.9263
N196 X-0.0784 Y-4.9161
N197 X-0.0757 Y-4.9066
N198 X-0.0723 Y-4.898
N199 X-0.0682 Y-4.89
N200 X-0.0633 Y-4.8828
N201 X-0.0576 Y-4.8764
N202 X-0.0512 Y-4.8707
N203 X-0.044 Y-4.8658
N204 X-0.036 Y-4.8617
N205 X-0.0273 Y-4.8583
N206 X-0.0179 Y-4.8556
N207 X-0.0077 Y-4.8537
N208 X0.0033 Y-4.8526
N209 X0.015 Y-4.8522
N210 X6.015
N211 X6.0267 Y-4.8518
N212 X6.0377 Y-4.8507
N213 X6.0479 Y-4.8488
N214 X6.0573 Y-4.8462
N215 X6.066 Y-4.8428
N216 X6.074 Y-4.8386
N217 X6.0812 Y-4.8337
N218 X6.0876 Y-4.828
N219 X6.0933 Y-4.8216
N220 X6.0982 Y-4.8144
N221 X6.1023 Y-4.8065
N222 X6.1057 Y-4.7978
N223 X6.1084 Y-4.7883
N224 X6.1103 Y-4.7781
N225 X6.1114 Y-4.7672
N226 X6.1118 Y-4.7554
N227 X6.1114 Y-4.7437
N228 X6.1103 Y-4.7328
N229 X6.1084 Y-4.7225
N230 X6.1057 Y-4.7131
N231 X6.1023 Y-4.7044
N232 X6.0982 Y-4.6965
N233 X6.0933 Y-4.6893
N234 X6.0876 Y-4.6829
N235 X6.0812 Y-4.6772
N236 X6.074 Y-4.6723
N237 X6.066 Y-4.6681
N238 X6.0573 Y-4.6647
N239 X6.0479 Y-4.6621
N240 X6.0377 Y-4.6602
N241 X6.0267 Y-4.659
N242 X6.015 Y-4.6587
N243 X0.015
N244 X0.0033 Y-4.6583
N245 X-0.0077 Y-4.6571
N246 X-0.0179 Y-4.6553
N247 X-0.0273 Y-4.6526
N248 X-0.036 Y-4.6492
N249 X-0.044 Y-4.6451
N250 X-0.0512 Y-4.6401
N251 X-0.0576 Y-4.6345
N252 X-0.0633 Y-4.628
N253 X-0.0682 Y-4.6209
N254 X-0.0723 Y-4.6129
N255 X-0.0757 Y-4.6042
N256 X-0.0784 Y-4.5948
N257 X-0.0803 Y-4.5846
N258 X-0.0814 Y-4.5736
N259 X-0.0818 Y-4.5619
N260 X-0.0814 Y-4.5502
N261 X-0.0803 Y-4.5392
N262 X-0.0784 Y-4.529
N263 X-0.0757 Y-4.5195
N264 X-0.0723 Y-4.5109
N265 X-0.0682 Y-4.5029
N266 X-0.0633 Y-4.4957
N267 X-0.0576 Y-4.4893
N268 X-0.0512 Y-4.4836
N269 X-0.044 Y-4.4787
N270 X-0.036 Y-4.4746
N271 X-0.0273 Y-4.4712
N272 X-0.0179 Y-4.4685
N273 X-0.0077 Y-4.4666
N274 X0.0033 Y-4.4655
N275 X0.015 Y-4.4651
N276 X6.015
N277 X6.0267 Y-4.4647
N278 X6.0377 Y-4.4636
N279 X6.0479 Y-4.4617
N280 X6.0573 Y-4.4591
N281 X6.066 Y-4.4557
N282 X6.074 Y-4.4515
N283 X6.0812 Y-4.4466
N284 X6.0876 Y-4.4409
N285 X6.0933 Y-4.4345
N286 X6.0982 Y-4.4273
N287 X6.1023 Y-4.4194
N288 X6.1057 Y-4.4107
N289 X6.1084 Y-4.4012
N290 X6.1103 Y-4.391
N291 X6.1114 Y-4.3801
N292 X6.1118 Y-4.3683
N293 X6.1114 Y-4.3566
N294 X6.1103 Y-4.3457
N295 X6.1084 Y-4.3355
N296 X6.1057 Y-4.326
N297 X6.1023 Y-4.3173
N298 X6.0982 Y-4.3094
N299 X6.0933 Y-4.3022
N300 X6.0876 Y-4.2958
N301 X6.0812 Y-4.2901
N302 X6.074 Y-4.2852
N303 X6.066 Y-4.281
N304 X6.0573 Y-4.2776
N305 X6.0479 Y-4.275
N306 X6.0377 Y-4.2731
N307 X6.0267 Y-4.2719
N308 X6.015 Y-4.2716
N309 X0.015
N310 X0.0033 Y-4.2712
N311 X-0.0077 Y-4.2701
N312 X-0.0179 Y-4.2682
N313 X-0.0273 Y-4.2655
N314 X-0.036 Y-4.2621
N315 X-0.044 Y-4.258
N316 X-0.0512 Y-4.253
N317 X-0.0576 Y-4.2474
N318 X-0.0633 Y-4.2409
N319 X-0.0682 Y-4.2338
N320 X-0.0723 Y-4.2258
N321 X-0.0757 Y-4.2171
N322 X-0.0784 Y-4.2077
N323 X-0.0803 Y-4.1975
N324 X-0.0814 Y-4.1865
N325 X-0.0818 Y-4.1748
N326 X-0.0814 Y-4.1631
N327 X-0.0803 Y-4.1521
N328 X-0.0784 Y-4.1419
N329 X-0.0757 Y-4.1325
N330 X-0.0723 Y-4.1238
N331 X-0.0682 Y-4.1158
N332 X-0.0633 Y-4.1086
N333 X-0.0576 Y-4.1022
N334 X-0.0512 Y-4.0965
N335 X-0.044 Y-4.0916
N336 X-0.036 Y-4.0875
N337 X-0.0273 Y-4.0841
N338 X-0.0179 Y-4.0814
N339 X-0.0077 Y-4.0795
N340 X0.0033 Y-4.0784
N341 X0.015 Y-4.078
N342 X6.015
N343 X6.0267 Y-4.0776
N344 X6.0377 Y-4.0765
N345 X6.0479 Y-4.0746
N346 X6.0573 Y-4.072
N347 X6.066 Y-4.0686
N348 X6.074 Y-4.0644
N349 X6.0812 Y-4.0595
N350 X6.0876 Y-4.0538
N351 X6.0933 Y-4.0474
N352 X6.0982 Y-4.0402
N353 X6.1023 Y-4.0323
N354 X6.1057 Y-4.0236
N355 X6.1084 Y-4.0141
N356 X6.1103 Y-4.0039
N357 X6.1114 Y-3.993
N358 X6.1118 Y-3.9812
N359 X6.1114 Y-3.9695
N360 X6.1103 Y-3.9586
N361 X6.1084 Y-3.9484
N362 X6.1057 Y-3.9389
N363 X6.1023 Y-3.9302
N364 X6.0982 Y-3.9223
N365 X6.0933 Y-3.9151
N366 X6.0876 Y-3.9087
N367 X6.0812 Y-3.903
N368 X6.074 Y-3.8981
N369 X6.066 Y-3.8939
N370 X6.0573 Y-3.8905
N371 X6.0479 Y-3.8879
N372 X6.0377 Y-3.886
N373 X6.0267 Y-3.8848
N374 X6.015 Y-3.8845
N375 X0.015
N376 X0.0033 Y-3.8841
N377 X-0.0077 Y-3.883
N378 X-0.0179 Y-3.8811
N379 X-0.0273 Y-3.8784
N380 X-0.036 Y-3.875
N381 X-0.044 Y-3.8709
N382 X-0.0512 Y-3.8659
N383 X-0.0576 Y-3.8603
N384 X-0.0633 Y-3.8538
N385 X-0.0682 Y-3.8467
N386 X-0.0723 Y-3.8387
N387 X-0.0757 Y-3.83
N388 X-0.0784 Y-3.8206
N389 X-0.0803 Y-3.8104
N390 X-0.0814 Y-3.7994
N391 X-0.0818 Y-3.7877
N392 X-0.0814 Y-3.776
N393 X-0.0803 Y-3.765
N394 X-0.0784 Y-3.7548
N395 X-0.0757 Y-3.7454
N396 X-0.0723 Y-3.7367
N397 X-0.0682 Y-3.7287
N398 X-0.0633 Y-3.7215
N399 X-0.0576 Y-3.7151
N400 X-0.0512 Y-3.7094
N401 X-0.044 Y-3.7045
N402 X-0.036 Y-3.7004
N403 X-0.0273 Y-3.697
N404 X-0.0179 Y-3.6943
N405 X-0.0077 Y-3.6924
N406 X0.0033 Y-3.6913
N407 X0.015 Y-3.6909
N408 X6.015
N409 X6.0267 Y-3.6905
N410 X6.0377 Y-3.6894
N411 X6.0479 Y-3.6875
N412 X6.0573 Y-3.6849
N413 X6.066 Y-3.6815
N414 X6.074 Y-3.6773
N415 X6.0812 Y-3.6724
N416 X6.0876 Y-3.6667
N417 X6.0933 Y-3.6603
N418 X6.0982 Y-3.6531
N419 X6.1023 Y-3.6452
N420 X6.1057 Y-3.6365
N421 X6.1084 Y-3.627
N422 X6.1103 Y-3.6168
N423 X6.1114 Y-3.6059
N424 X6.1118 Y-3.5941
N425 X6.1114 Y-3.5824
N426 X6.1103 Y-3.5715
N427 X6.1084 Y-3.5613
N428 X6.1057 Y-3.5518
N429 X6.1023 Y-3.5431
N430 X6.0982 Y-3.5352
N431 X6.0933 Y-3.528
N432 X6.0876 Y-3.5216
N433 X6.0812 Y-3.5159
N434 X6.074 Y-3.511
N435 X6.066 Y-3.5068
N436 X6.0573 Y-3.5034
N437 X6.0479 Y-3.5008
N438 X6.0377 Y-3.4989
N439 X6.0267 Y-3.4977
N440 X6.015 Y-3.4974
N441 X0.015
N442 X0.0033 Y-3.497
N443 X-0.0077 Y-3.4959
N444 X-0.0179 Y-3.494
N445 X-0.0273 Y-3.4913
N446 X-0.036 Y-3.4879
N447 X-0.044 Y-3.4838
N448 X-0.0512 Y-3.4788
N449 X-0.0576 Y-3.4732
N450 X-0.0633 Y-3.4668
N451 X-0.0682 Y-3.4596
N452 X-0.0723 Y-3.4516
N453 X-0.0757 Y-3.4429
N454 X-0.0784 Y-3.4335
N455 X-0.0803 Y-3.4233
N456 X-0.0814 Y-3.4123
N457 X-0.0818 Y-3.4006
N458 X-0.0814 Y-3.3889
N459 X-0.0803 Y-3.3779
N460 X-0.0784 Y-3.3677
N461 X-0.0757 Y-3.3583
N462 X-0.0723 Y-3.3496
N463 X-0.0682 Y-3.3416
N464 X-0.0633 Y-3.3344
N465 X-0.0576 Y-3.328
N466 X-0.0512 Y-3.3223
N467 X-0.044 Y-3.3174
N468 X-0.036 Y-3.3133
N469 X-0.0273 Y-3.3099
N470 X-0.0179 Y-3.3072
N471 X-0.0077 Y-3.3053
N472 X0.0033 Y-3.3042
N473 X0.015 Y-3.3038
N474 X6.015
N475 X6.0267 Y-3.3034
N476 X6.0377 Y-3.3023
N477 X6.0479 Y-3.3004
N478 X6.0573 Y-3.2978
N479 X6.066 Y-3.2944
N480 X6.074 Y-3.2902
N481 X6.0812 Y-3.2853
N482 X6.0876 Y-3.2796
N483 X6.0933 Y-3.2732
N484 X6.0982 Y-3.266
N485 X6.1023 Y-3.2581
N486 X6.1057 Y-3.2494
N487 X6.1084 Y-3.2399
N488 X6.1103 Y-3.2297
N489 X6.1114 Y-3.2188
N490 X6.1118 Y-3.207
N491 X6.1114 Y-3.1953
N492 X6.1103 Y-3.1844
N493 X6.1084 Y-3.1742
N494 X6.1057 Y-3.1647
N495 X6.1023 Y-3.156
N496 X6.0982 Y-3.1481
N497 X6.0933 Y-3.1409
N498 X6.0876 Y-3.1345
N499 X6.0812 Y-3.1288
N500 X6.074 Y-3.1239
N501 X6.066 Y-3.1197
N502 X6.0573 Y-3.1163
N503 X6.0479 Y-3.1137
N504 X6.0377 Y-3.1118
N505 X6.0267 Y-3.1107
N506 X6.015 Y-3.1103
N507 X0.015
N508 X0.0033 Y-3.1099
N509 X-0.0077 Y-3.1088
N510 X-0.0179 Y-3.1069
N511 X-0.0273 Y-3.1042
N512 X-0.036 Y-3.1008
N513 X-0.044 Y-3.0967
N514 X-0.0512 Y-3.0918
N515 X-0.0576 Y-3.0861
N516 X-0.0633 Y-3.0797
N517 X-0.0682 Y-3.0725
N518 X-0.0723 Y-3.0645
N519 X-0.0757 Y-3.0558
N520 X-0.0784 Y-3.0464
N521 X-0.0803 Y-3.0362
N522 X-0.0814 Y-3.0252
N523 X-0.0818 Y-3.0135
N524 X-0.0814 Y-3.0018
N525 X-0.0803 Y-2.9908
N526 X-0.0784 Y-2.9806
N527 X-0.0757 Y-2.9712
N528 X-0.0723 Y-2.9625
N529 X-0.0682 Y-2.9545
N530 X-0.0633 Y-2.9473
N531 X-0.0576 Y-2.9409
N532 X-0.0512 Y-2.9352
N533 X-0.044 Y-2.9303
N534 X-0.036 Y-2.9262
N535 X-0.0273 Y-2.9228
N536 X-0.0179 Y-2.9201
N537 X-0.0077 Y-2.9182
N538 X0.0033 Y-2.9171
N539 X0.015 Y-2.9167
N540 X6.015
N541 X6.0267 Y-2.9163
N542 X6.0377 Y-2.9152
N543 X6.0479 Y-2.9133
N544 X6.0573 Y-2.9107
N545 X6.066 Y-2.9073
N546 X6.074 Y-2.9031
N547 X6.0812 Y-2.8982
N548 X6.0876 Y-2.8925
N549 X6.0933 Y-2.8861
N550 X6.0982 Y-2.8789
N551 X6.1023 Y-2.871
N552 X6.1057 Y-2.8623
N553 X6.1084 Y-2.8528
N554 X6.1103 Y-2.8426
N555 X6.1114 Y-2.8317
N556 X6.1118 Y-2.82
N557 X6.1114 Y-2.8082
N558 X6.1103 Y-2.7973
N559 X6.1084 Y-2.7871
N560 X6.1057 Y-2.7776
N561 X6.1023 Y-2.7689
N562 X6.0982 Y-2.761
N563 X6.0933 Y-2.7538
N564 X6.0876 Y-2.7474
N565 X6.0812 Y-2.7417
N566 X6.074 Y-2.7368
N567 X6.066 Y-2.7326
N568 X6.0573 Y-2.7292
N569 X6.0479 Y-2.7266
N570 X6.0377 Y-2.7247
N571 X6.0267 Y-2.7236
N572 X6.015 Y-2.7232
N573 X0.015
N574 X0.0033 Y-2.7228
N575 X-0.0077 Y-2.7217
N576 X-0.0179 Y-2.7198
N577 X-0.0273 Y-2.7171
N578 X-0.036 Y-2.7137
N579 X-0.044 Y-2.7096
N580 X-0.0512 Y-2.7047
N581 X-0.0576 Y-2.699
N582 X-0.0633 Y-2.6926
N583 X-0.0682 Y-2.6854
N584 X-0.0723 Y-2.6774
N585 X-0.0757 Y-2.6687
N586 X-0.0784 Y-2.6593
N587 X-0.0803 Y-2.6491
N588 X-0.0814 Y-2.6381
N589 X-0.0818 Y-2.6264
N590 X-0.0814 Y-2.6147
N591 X-0.0803 Y-2.6037
N592 X-0.0784 Y-2.5935
N593 X-0.0757 Y-2.5841
N594 X-0.0723 Y-2.5754
N595 X-0.0682 Y-2.5674
N596 X-0.0633 Y-2.5602
N597 X-0.0576 Y-2.5538
N598 X-0.0512 Y-2.5482
N599 X-0.044 Y-2.5432
N600 X-0.036 Y-2.5391
N601 X-0.0273 Y-2.5357
N602 X-0.0179 Y-2.533
N603 X-0.0077 Y-2.5311
N604 X0.0033 Y-2.53
N605 X0.015 Y-2.5296
N606 X6.015
N607 X6.0267 Y-2.5293
N608 X6.0377 Y-2.5281
N609 X6.0479 Y-2.5262
N610 X6.0573 Y-2.5236
N611 X6.066 Y-2.5202
N612 X6.074 Y-2.516
N613 X6.0812 Y-2.5111
N614 X6.0876 Y-2.5054
N615 X6.0933 Y-2.499
N616 X6.0982 Y-2.4918
N617 X6.1023 Y-2.4839
N618 X6.1057 Y-2.4752
N619 X6.1084 Y-2.4657
N620 X6.1103 Y-2.4555
N621 X6.1114 Y-2.4446
N622 X6.1118 Y-2.4329
N623 X6.1114 Y-2.4211
N624 X6.1103 Y-2.4102
N625 X6.1084 Y-2.4
N626 X6.1057 Y-2.3905
N627 X6.1023 Y-2.3818
N628 X6.0982 Y-2.3739
N629 X6.0933 Y-2.3667
N630 X6.0876 Y-2.3603
N631 X6.0812 Y-2.3546
N632 X6.074 Y-2.3497
N633 X6.066 Y-2.3455
N634 X6.0573 Y-2.3421
N635 X6.0479 Y-2.3395
N636 X6.0377 Y-2.3376
N637 X6.0267 Y-2.3365
N638 X6.015 Y-2.3361
N639 X0.015
N640 X0.0033 Y-2.3357
N641 X-0.0077 Y-2.3346
N642 X-0.0179 Y-2.3327
N643 X-0.0273 Y-2.33
N644 X-0.036 Y-2.3266
N645 X-0.044 Y-2.3225
N646 X-0.0512 Y-2.3176
N647 X-0.0576 Y-2.3119
N648 X-0.0633 Y-2.3055
N649 X-0.0682 Y-2.2983
N650 X-0.0723 Y-2.2903
N651 X-0.0757 Y-2.2816
N652 X-0.0784 Y-2.2722
N653 X-0.0803 Y-2.262
N654 X-0.0814 Y-2.251
N655 X-0.0818 Y-2.2393
N656 X-0.0814 Y-2.2276
N657 X-0.0803 Y-2.2166
N658 X-0.0784 Y-2.2064
N659 X-0.0757 Y-2.197
N660 X-0.0723 Y-2.1883
N661 X-0.0682 Y-2.1803
N662 X-0.0633 Y-2.1732
N663 X-0.0576 Y-2.1667
N664 X-0.0512 Y-2.1611
N665 X-0.044 Y-2.1561
N666 X-0.036 Y-2.152
N667 X-0.0273 Y-2.1486
N668 X-0.0179 Y-2.1459
N669 X-0.0077 Y-2.144
N670 X0.0033 Y-2.1429
N671 X0.015 Y-2.1425
N672 X6.015
N673 X6.0267 Y-2.1422
N674 X6.0377 Y-2.141
N675 X6.0479 Y-2.1391
N676 X6.0573 Y-2.1365
N677 X6.066 Y-2.1331
N678 X6.074 Y-2.1289
N679 X6.0812 Y-2.124
N680 X6.0876 Y-2.1183
N681 X6.0933 Y-2.1119
N682 X6.0982 Y-2.1047
N683 X6.1023 Y-2.0968
N684 X6.1057 Y-2.0881
N685 X6.1084 Y-2.0786
N686 X6.1103 Y-2.0684
N687 X6.1114 Y-2.0575
N688 X6.1118 Y-2.0458
N689 X6.1114 Y-2.034
N690 X6.1103 Y-2.0231
N691 X6.1084 Y-2.0129
N692 X6.1057 Y-2.0034
N693 X6.1023 Y-1.9947
N694 X6.0982 Y-1.9868
N695 X6.0933 Y-1.9796
N696 X6.0876 Y-1.9732
N697 X6.0812 Y-1.9675
N698 X6.074 Y-1.9626
N699 X6.066 Y-1.9584
N700 X6.0573 Y-1.955
N701 X6.0479 Y-1.9524
N702 X6.0377 Y-1.9505
N703 X6.0267 Y-1.9494
N704 X6.015 Y-1.949
N705 X0.015
N706 X0.0033 Y-1.9486
N707 X-0.0077 Y-1.9475
N708 X-0.0179 Y-1.9456
N709 X-0.0273 Y-1.9429
N710 X-0.036 Y-1.9395
N711 X-0.044 Y-1.9354
N712 X-0.0512 Y-1.9305
N713 X-0.0576 Y-1.9248
N714 X-0.0633 Y-1.9184
N715 X-0.0682 Y-1.9112
N716 X-0.0723 Y-1.9032
N717 X-0.0757 Y-1.8945
N718 X-0.0784 Y-1.8851
N719 X-0.0803 Y-1.8749
N720 X-0.0814 Y-1.8639
N721 X-0.0818 Y-1.8522
N722 X-0.0814 Y-1.8405
N723 X-0.0803 Y-1.8295
N724 X-0.0784 Y-1.8193
N725 X-0.0757 Y-1.8099
N726 X-0.0723 Y-1.8012
N727 X-0.0682 Y-1.7932
N728 X-0.0633 Y-1.7861
N729 X-0.0576 Y-1.7796
N730 X-0.0512 Y-1.774
N731 X-0.044 Y-1.769
N732 X-0.036 Y-1.7649
N733 X-0.0273 Y-1.7615
N734 X-0.0179 Y-1.7588
N735 X-0.0077 Y-1.7569
N736 X0.0033 Y-1.7558
N737 X0.015 Y-1.7554
N738 X6.015
N739 X6.0267 Y-1.7551
N740 X6.0377 Y-1.7539
N741 X6.0479 Y-1.752
N742 X6.0573 Y-1.7494
N743 X6.066 Y-1.746
N744 X6.074 Y-1.7418
N745 X6.0812 Y-1.7369
N746 X6.0876 Y-1.7312
N747 X6.0933 Y-1.7248
N748 X6.0982 Y-1.7176
N749 X6.1023 Y-1.7097
N750 X6.1057 Y-1.701
N751 X6.1084 Y-1.6915
N752 X6.1103 Y-1.6813
N753 X6.1114 Y-1.6704
N754 X6.1118 Y-1.6587
N755 X6.1114 Y-1.6469
N756 X6.1103 Y-1.636
N757 X6.1084 Y-1.6258
N758 X6.1057 Y-1.6163
N759 X6.1023 Y-1.6076
N760 X6.0982 Y-1.5997
N761 X6.0933 Y-1.5925
N762 X6.0876 Y-1.5861
N763 X6.0812 Y-1.5804
N764 X6.074 Y-1.5755
N765 X6.066 Y-1.5713
N766 X6.0573 Y-1.5679
N767 X6.0479 Y-1.5653
N768 X6.0377 Y-1.5634
N769 X6.0267 Y-1.5623
N770 X6.015 Y-1.5619
N771 X0.015
N772 X0.0033 Y-1.5615
N773 X-0.0077 Y-1.5604
N774 X-0.0179 Y-1.5585
N775 X-0.0273 Y-1.5558
N776 X-0.036 Y-1.5524
N777 X-0.044 Y-1.5483
N778 X-0.0512 Y-1.5434
N779 X-0.0576 Y-1.5377
N780 X-0.0633 Y-1.5313
N781 X-0.0682 Y-1.5241
N782 X-0.0723 Y-1.5161
N783 X-0.0757 Y-1.5075
N784 X-0.0784 Y-1.498
N785 X-0.0803 Y-1.4878
N786 X-0.0814 Y-1.4768
N787 X-0.0818 Y-1.4651
N788 X-0.0814 Y-1.4534
N789 X-0.0803 Y-1.4424
N790 X-0.0784 Y-1.4322
N791 X-0.0757 Y-1.4228
N792 X-0.0723 Y-1.4141
N793 X-0.0682 Y-1.4061
N794 X-0.0633 Y-1.399
N795 X-0.0576 Y-1.3925
N796 X-0.0512 Y-1.3869
N797 X-0.044 Y-1.3819
N798 X-0.036 Y-1.3778
N799 X-0.0273 Y-1.3744
N800 X-0.0179 Y-1.3717
N801 X-0.0077 Y-1.3699
N802 X0.0033 Y-1.3687
N803 X0.015 Y-1.3683
N804 X6.015
N805 X6.0267 Y-1.368
N806 X6.0377 Y-1.3668
N807 X6.0479 Y-1.3649
N808 X6.0573 Y-1.3623
N809 X6.066 Y-1.3589
N810 X6.074 Y-1.3547
N811 X6.0812 Y-1.3498
N812 X6.0876 Y-1.3441
N813 X6.0933 Y-1.3377
N814 X6.0982 Y-1.3305
N815 X6.1023 Y-1.3226
N816 X6.1057 Y-1.3139
N817 X6.1084 Y-1.3045
N818 X6.1103 Y-1.2942
N819 X6.1114 Y-1.2833
N820 X6.1118 Y-1.2716
N821 X6.1114 Y-1.2598
N822 X6.1103 Y-1.2489
N823 X6.1084 Y-1.2387
N824 X6.1057 Y-1.2292
N825 X6.1023 Y-1.2205
N826 X6.0982 Y-1.2126
N827 X6.0933 Y-1.2054
N828 X6.0876 Y-1.199
N829 X6.0812 Y-1.1933
N830 X6.074 Y-1.1884
N831 X6.066 Y-1.1842
N832 X6.0573 Y-1.1808
N833 X6.0479 Y-1.1782
N834 X6.0377 Y-1.1763
N835 X6.0267 Y-1.1752
N836 X6.015 Y-1.1748
N837 X0.015
N838 X0.0033 Y-1.1744
N839 X-0.0077 Y-1.1733
N840 X-0.0179 Y-1.1714
N841 X-0.0273 Y-1.1687
N842 X-0.036 Y-1.1653
N843 X-0.044 Y-1.1612
N844 X-0.0512 Y-1.1563
N845 X-0.0576 Y-1.1506
N846 X-0.0633 Y-1.1442
N847 X-0.0682 Y-1.137
N848 X-0.0723 Y-1.129
N849 X-0.0757 Y-1.1204
N850 X-0.0784 Y-1.1109
N851 X-0.0803 Y-1.1007
N852 X-0.0814 Y-1.0897
N853 X-0.0818 Y-1.078
N854 X-0.0814 Y-1.0663
N855 X-0.0803 Y-1.0553
N856 X-0.0784 Y-1.0451
N857 X-0.0757 Y-1.0357
N858 X-0.0723 Y-1.027
N859 X-0.0682 Y-1.019
N860 X-0.0633 Y-1.0119
N861 X-0.0576 Y-1.0054
N862 X-0.0512 Y-0.9998
N863 X-0.044 Y-0.9949
N864 X-0.036 Y-0.9907
N865 X-0.0273 Y-0.9873
N866 X-0.0179 Y-0.9846
N867 X-0.0077 Y-0.9828
N868 X0.0033 Y-0.9816
N869 X0.015 Y-0.9812
N870 X6.015
N871 X6.0267 Y-0.9809
N872 X6.0377 Y-0.9797
N873 X6.0479 Y-0.9778
N874 X6.0573 Y-0.9752
N875 X6.066 Y-0.9718
N876 X6.074 Y-0.9676
N877 X6.0812 Y-0.9627
N878 X6.0876 Y-0.957
N879 X6.0933 Y-0.9506
N880 X6.0982 Y-0.9434
N881 X6.1023 Y-0.9355
N882 X6.1057 Y-0.9268
N883 X6.1084 Y-0.9174
N884 X6.1103 Y-0.9071
N885 X6.1114 Y-0.8962
N886 X6.1118 Y-0.8845
N887 X6.1114 Y-0.8727
N888 X6.1103 Y-0.8618
N889 X6.1084 Y-0.8516
N890 X6.1057 Y-0.8421
N891 X6.1023 Y-0.8334
N892 X6.0982 Y-0.8255
N893 X6.0933 Y-0.8183
N894 X6.0876 Y-0.8119
N895 X6.0812 Y-0.8062
N896 X6.074 Y-0.8013
N897 X6.066 Y-0.7971
N898 X6.0573 Y-0.7937
N899 X6.0479 Y-0.7911
N900 X6.0377 Y-0.7892
N901 X6.0267 Y-0.7881
N902 X6.015 Y-0.7877
N903 X0.015
N904 X0.0033 Y-0.7873
N905 X-0.0077 Y-0.7862
N906 X-0.0179 Y-0.7843
N907 X-0.0273 Y-0.7816
N908 X-0.036 Y-0.7782
N909 X-0.044 Y-0.7741
N910 X-0.0512 Y-0.7692
N911 X-0.0576 Y-0.7635
N912 X-0.0633 Y-0.7571
N913 X-0.0682 Y-0.7499
N914 X-0.0723 Y-0.742
N915 X-0.0757 Y-0.7333
N916 X-0.0784 Y-0.7238
N917 X-0.0803 Y-0.7136
N918 X-0.0814 Y-0.7026
N919 X-0.0818 Y-0.6909
N920 X-0.0814 Y-0.6792
N921 X-0.0803 Y-0.6682
N922 X-0.0784 Y-0.658
N923 X-0.0757 Y-0.6486
N924 X-0.0723 Y-0.6399
N925 X-0.0682 Y-0.6319
N926 X-0.0633 Y-0.6248
N927 X-0.0576 Y-0.6183
N928 X-0.0512 Y-0.6127
N929 X-0.044 Y-0.6078
N930 X-0.036 Y-0.6036
N931 X-0.0273 Y-0.6002
N932 X-0.0179 Y-0.5975
N933 X-0.0077 Y-0.5957
N934 X0.0033 Y-0.5945
N935 X0.015 Y-0.5941
N936 X6.015
N937 X6.0267 Y-0.5938
N938 X6.0377 Y-0.5926
N939 X6.0479 Y-0.5907
N940 X6.0573 Y-0.5881
N941 X6.066 Y-0.5847
N942 X6.074 Y-0.5805
N943 X6.0812 Y-0.5756
N944 X6.0876 Y-0.57
N945 X6.0933 Y-0.5635
N946 X6.0982 Y-0.5563
N947 X6.1023 Y-0.5484
N948 X6.1057 Y-0.5397
N949 X6.1084 Y-0.5303
N950 X6.1103 Y-0.5201
N951 X6.1114 Y-0.5091
N952 X6.1118 Y-0.4974
N953 X6.1114 Y-0.4857
N954 X6.1103 Y-0.4747
N955 X6.1084 Y-0.4645
N956 X6.1057 Y-0.455
N957 X6.1023 Y-0.4463
N958 X6.0982 Y-0.4384
N959 X6.0933 Y-0.4312
N960 X6.0876 Y-0.4248
N961 X6.0812 Y-0.4191
N962 X6.074 Y-0.4142
N963 X6.066 Y-0.41
N964 X6.0573 Y-0.4066
N965 X6.0479 Y-0.404
N966 X6.0377 Y-0.4021
N967 X6.0267 Y-0.401
N968 X6.015 Y-0.4006
N969 X0.015
N970 X0.0033 Y-0.4002
N971 X-0.0077 Y-0.3991
N972 X-0.0179 Y-0.3972
N973 X-0.0273 Y-0.3945
N974 X-0.036 Y-0.3911
N975 X-0.044 Y-0.387
N976 X-0.0512 Y-0.3821
N977 X-0.0576 Y-0.3764
N978 X-0.0633 Y-0.37
N979 X-0.0682 Y-0.3628
N980 X-0.0723 Y-0.3549
N981 X-0.0757 Y-0.3462
N982 X-0.0784 Y-0.3367
N983 X-0.0803 Y-0.3265
N984 X-0.0814 Y-0.3155
N985 X-0.0818 Y-0.3038
N986 X-0.0814 Y-0.2921
N987 X-0.0803 Y-0.2811
N988 X-0.0784 Y-0.2709
N989 X-0.0757 Y-0.2615
N990 X-0.0723 Y-0.2528
N991 X-0.0682 Y-0.2449
N992 X-0.0633 Y-0.2377
N993 X-0.0576 Y-0.2312
N994 X-0.0512 Y-0.2256
N995 X-0.044 Y-0.2207
N996 X-0.036 Y-0.2165
N997 X-0.0273 Y-0.2131
N998 X-0.0179 Y-0.2105
N999 X-0.0077 Y-0.2086
N1000 X0.0033 Y-0.2074
N1001 X0.015 Y-0.207
N1002 X6.015
N1003 G3 X6.14 Y-0.082 I0. J0.125
N1004 G0 Z0.5906
( Operation: Center Rough )
N1005 X2.8879 Y-3.3711 Z0.6056
N1006 Z0.355
N1007 G3 X2.881 Y-3.3694 Z0.2457 I0.0435 J0.1953 F10.
N1008 X2.8673 Y-3.3653 Z0.137 I0.0504 J0.1936
N1009 X2.854 Y-3.3603 Z0.0283 I0.0641 J0.1895
N1010 X2.8411 Y-3.3543 Z-0.0804 I0.0774 J0.1845
N1011 X2.8286 Y-3.3474 Z-0.1891 I0.0903 J0.1785
N1012 X3.0248 Y-2.999 Z-0.245 I0.1028 J0.1716
N1013 X3.015 Y-2.996 I-0.0098 J-0.0145 F24.
N1014 G1 X3.0083 Y-2.9973
N1015 G3 X2.9988 Y-3.0068 I0.0067 J-0.0162
N1016 G1 X2.9975 Y-3.0135
N1017 G3 X3.0083 Y-3.0297 I0.0175 J0.
N1018 G1 X3.015 Y-3.031
N1019 G3 X3.0325 Y-3.0135 I0. J0.0175
N1020 G1 X3.0312 Y-3.0068
N1021 G3 X3.0248 Y-2.999 I-0.0162 J-0.0067
N1022 G1 X3.0225 Y-2.9969
N1023 X3.0205 Y-2.9947
N1024 X3.0172 Y-2.9898
N1025 X3.015 Y-2.9845
N1026 X3.0136 Y-2.9786
N1027 X3.013 Y-2.9724
N1028 X3.0132 Y-2.9657
N1029 X3.0141 Y-2.9588
N1030 X3.0157 Y-2.9515
N1031 X3.0177 Y-2.9439
N1032 X3.0202 Y-2.9362
N1033 X3.0264 Y-2.9202
N1034 X3.0336 Y-2.9039
N1035 X3.0411 Y-2.8877
N1036 X3.0485 Y-2.8717
N1037 X3.0552 Y-2.8565
N1038 X3.0605 Y-2.8422
N1039 X3.0625 Y-2.8356
N1040 X3.064 Y-2.8294
N1041 X3.0648 Y-2.8236
N1042 Y-2.8183
N1043 X3.0642 Y-2.8134
N1044 X3.0627 Y-2.8092
N1045 X3.0603 Y-2.8055
N1046 X3.0588 Y-2.8039
N1047 X3.0569 Y-2.8025
N1048 X3.0525 Y-2.8002
N1049 X3.0469 Y-2.7986
N1050 X3.0434 Y-2.7979
N1051 X3.015 Y-2.796
N1052 G3 X2.7994 Y-2.9851 I0. J-0.2175
N1053 G1 X2.7975 Y-3.0135
N1054 G3 X2.9866 Y-3.2291 I0.2175 J0.
N1055 G1 X3.015 Y-3.231
N1056 G3 X3.2306 Y-3.0419 I0. J0.2175
N1057 G1 X3.2325 Y-3.0135
N1058 G3 X3.1391 Y-2.8349 I-0.2175 J0.
N1059 G1 X3.1366 Y-2.8329
N1060 X3.1344 Y-2.8307
N1061 X3.1324 Y-2.8284
N1062 X3.1307 Y-2.826
N1063 X3.1281 Y-2.8207
N1064 X3.1265 Y-2.815
N1065 X3.1258 Y-2.8089
N1066 Y-2.8024
N1067 X3.1267 Y-2.7955
N1068 X3.1282 Y-2.7883
N1069 X3.1303 Y-2.7809
N1070 X3.1329 Y-2.7732
N1071 X3.1394 Y-2.7573
N1072 X3.147 Y-2.741
N1073 X3.1551 Y-2.7245
N1074 X3.1631 Y-2.7081
N1075 X3.1704 Y-2.6923
N1076 X3.1736 Y-2.6846
N1077 X3.1764 Y-2.6772
N1078 X3.1788 Y-2.67
N1079 X3.1805 Y-2.6631
N1080 X3.1817 Y-2.6566
N1081 X3.1821 Y-2.6505
N1082 X3.1817 Y-2.6448
N1083 X3.1805 Y-2.6396
N1084 X3.1783 Y-2.6348
N1085 X3.1768 Y-2.6327
N1086 X3.1751 Y-2.6306
N1087 X3.1731 Y-2.6288
N1088 X3.1708 Y-2.627
N1089 X3.1653 Y-2.624
N1090 X3.1287 Y-2.6118
N1091 X3.0912 Y-2.603
N1092 X3.053 Y-2.5978
N1093 X3.015 Y-2.596
N1094 X3.0144
N1095 G3 X2.5992 Y-2.9755 I0.0006 J-0.4175
N1096 G1 X2.5975 Y-3.0135
N1097 Y-3.0141
N1098 G3 X2.977 Y-3.4293 I0.4175 J0.0006
N1099 G1 X3.015 Y-3.431
N1100 X3.0156
N1101 G3 X3.4308 Y-3.0515 I-0.0006 J0.4175
N1102 G1 X3.4325 Y-3.0135
N1103 Y-3.0129
N1104 X3.4306 Y-2.9744
N1105 X3.4253 Y-2.9362
N1106 X3.4164 Y-2.8987
N1107 X3.4041 Y-2.8622
N1108 X3.3885 Y-2.8269
N1109 X3.3696 Y-2.7932
N1110 X3.3478 Y-2.7615
N1111 X3.3231 Y-2.7318
N1112 X3.2958 Y-2.7046
N1113 X3.2661 Y-2.68
N1114 X3.2532 Y-2.6712
N1115 X3.2506 Y-2.6692
N1116 X3.2483 Y-2.667
N1117 X3.2462 Y-2.6648
N1118 X3.2445 Y-2.6624
N1119 X3.2417 Y-2.6572
N1120 X3.24 Y-2.6515
N1121 X3.2393 Y-2.6454
N1122 Y-2.6388
N1123 X3.2402 Y-2.632
N1124 X3.2417 Y-2.6247
N1125 X3.2439 Y-2.6172
N1126 X3.2466 Y-2.6095
N1127 X3.2497 Y-2.6015
N1128 X3.2532 Y-2.5934
N1129 X3.2611 Y-2.5768
N1130 X3.2695 Y-2.56
N1131 X3.2778 Y-2.5434
N1132 X3.2855 Y-2.5272
N1133 X3.2888 Y-2.5193
N1134 X3.2918 Y-2.5117
N1135 X3.2942 Y-2.5043
N1136 X3.2961 Y-2.4973
N1137 X3.2974 Y-2.4906
N1138 X3.2979 Y-2.4843
N1139 X3.2976 Y-2.4784
N1140 X3.2964 Y-2.473
N1141 X3.2943 Y-2.4681
N1142 X3.2928 Y-2.4659
N1143 X3.2911 Y-2.4637
N1144 X3.2891 Y-2.4618
N1145 X3.2868 Y-2.46
N1146 X3.2842 Y-2.4583
N1147 X3.2813 Y-2.4568
N1148 X3.2513 Y-2.443
N1149 G3 X3.015 Y-2.396 I-0.2363 J-0.5705
N1150 G1 X2.9666 Y-2.3979
N1151 G3 X2.3994 Y-2.9651 I0.0484 J-0.6156
N1152 G1 X2.3975 Y-3.0135
N1153 G3 X2.9666 Y-3.6291 I0.6175 J0.
N1154 G1 X3.015 Y-3.631
N1155 G3 X3.6325 Y-3.0135 I0. J0.6175
N1156 G1 X3.6306 Y-2.9651
N1157 G3 X3.3678 Y-2.5067 I-0.6156 J-0.0484
N1158 G1 X3.3652 Y-2.5047
N1159 X3.3629 Y-2.5025
N1160 X3.3608 Y-2.5002
N1161 X3.3591 Y-2.4977
N1162 X3.3564 Y-2.4925
N1163 X3.3546 Y-2.4868
N1164 X3.3539 Y-2.4807
N1165 Y-2.4742
N1166 X3.3547 Y-2.4674
N1167 X3.3562 Y-2.4602
N1168 X3.3584 Y-2.4528
N1169 X3.361 Y-2.4451
N1170 X3.3641 Y-2.4373
N1171 X3.3676 Y-2.4293
N1172 X3.3754 Y-2.4129
N1173 X3.3838 Y-2.3963
N1174 X3.3921 Y-2.3798
N1175 X3.3997 Y-2.3636
N1176 X3.4031 Y-2.3558
N1177 X3.4061 Y-2.3482
N1178 X3.4086 Y-2.3407
N1179 X3.4105 Y-2.3336
N1180 X3.4118 Y-2.3268
N1181 X3.4124 Y-2.3203
N1182 X3.4122 Y-2.3142
N1183 X3.4112 Y-2.3085
N1184 X3.4092 Y-2.3033
N1185 X3.4078 Y-2.3009
N1186 X3.4061 Y-2.2986
N1187 X3.4042 Y-2.2964
N1188 X3.402 Y-2.2944
N1189 X3.3995 Y-2.2925
N1190 X3.3967 Y-2.2908
N1191 X3.3911 Y-2.2877
N1192 G3 X3.015 Y-2.196 I-0.3761 J-0.7258
N1193 G1 X2.9592 Y-2.1979
N1194 G3 X2.1994 Y-2.9577 I0.0558 J-0.8156
N1195 G1 X2.1975 Y-3.0135
N1196 G3 X2.9592 Y-3.8291 I0.8175 J0.
N1197 G1 X3.015 Y-3.831
N1198 G3 X3.8306 Y-3.0693 I0. J0.8175
N1199 G1 X3.8325 Y-3.0135
N1200 G3 X3.4821 Y-2.3426 I-0.8175 J0.
N1201 G1 X3.4795 Y-2.3406
N1202 X3.4771 Y-2.3384
N1203 X3.4751 Y-2.3361
N1204 X3.4733 Y-2.3337
N1205 X3.4706 Y-2.3284
N1206 X3.4689 Y-2.3227
N1207 X3.4681 Y-2.3166
N1208 Y-2.3101
N1209 X3.4689 Y-2.3033
N1210 X3.4705 Y-2.2961
N1211 X3.4726 Y-2.2887
N1212 X3.4753 Y-2.281
N1213 X3.4784 Y-2.2731
N1214 X3.4819 Y-2.2651
N1215 X3.4898 Y-2.2486
N1216 X3.4982 Y-2.232
N1217 X3.5066 Y-2.2154
N1218 X3.5144 Y-2.1992
N1219 X3.5178 Y-2.1913
N1220 X3.5208 Y-2.1836
N1221 X3.5233 Y-2.1761
N1222 X3.5253 Y-2.169
N1223 X3.5266 Y-2.1621
N1224 X3.5272 Y-2.1556
N1225 X3.5271 Y-2.1495
N1226 X3.526 Y-2.1437
N1227 X3.524 Y-2.1385
N1228 X3.5226 Y-2.1361
N1229 X3.521 Y-2.1337
N1230 X3.519 Y-2.1316
N1231 X3.5168 Y-2.1295
N1232 X3.5143 Y-2.1276
N1233 X3.5115 Y-2.1259
N1234 X3.4879 Y-2.1125
N1235 G3 X3.0764 Y-1.9979 I-0.4729 J-0.901
N1236 G1 X3.015 Y-1.996
N1237 G3 X1.9994 Y-2.9521 I0. J-1.0175
N1238 G1 X1.9975 Y-3.0135
N1239 G3 X3.015 Y-4.031 I1.0175 J0.
N1240 G1 X3.0764 Y-4.0291
N1241 G3 X4.0325 Y-3.0135 I-0.0614 J1.0156
N1242 G1 X4.0306 Y-2.9521
N1243 G3 X3.5965 Y-2.1785 I-1.0156 J-0.0614
N1244 G1 X3.5938 Y-2.1764
N1245 X3.5915 Y-2.1742
N1246 X3.5895 Y-2.1718
N1247 X3.5878 Y-2.1693
N1248 X3.5851 Y-2.164
N1249 X3.5834 Y-2.1582
N1250 X3.5826 Y-2.1521
N1251 Y-2.1455
N1252 X3.5835 Y-2.1387
N1253 X3.585 Y-2.1315
N1254 X3.5872 Y-2.1241
N1255 X3.5899 Y-2.1164
N1256 X3.593 Y-2.1086
N1257 X3.5965 Y-2.1006
N1258 X3.6043 Y-2.0843
N1259 X3.6127 Y-2.0677
N1260 X3.6211 Y-2.0512
N1261 X3.6288 Y-2.0351
N1262 X3.6322 Y-2.0272
N1263 X3.6352 Y-2.0195
N1264 X3.6378 Y-2.0121
N1265 X3.6398 Y-2.0049
N1266 X3.6411 Y-1.998
N1267 X3.6418 Y-1.9914
N1268 X3.6416 Y-1.9852
N1269 X3.6406 Y-1.9794
N1270 X3.6387 Y-1.974
N1271 X3.6357 Y-1.9691
N1272 X3.6338 Y-1.9668
N1273 X3.6316 Y-1.9646
N1274 X3.6264 Y-1.9608
N1275 X3.6238 Y-1.9591
N1276 X3.5631 Y-1.9264
N1277 X3.5007 Y-1.8971
N1278 X3.4368 Y-1.8714
N1279 X3.3715 Y-1.8494
N1280 X3.3051 Y-1.8311
N1281 X3.2377 Y-1.8165
N1282 X3.1696 Y-1.8059
N1283 X3.1011 Y-1.799
N1284 X3.0322 Y-1.7961
N1285 X2.9633 Y-1.7971
N1286 X2.8946 Y-1.802
N1287 X2.8262 Y-1.8107
N1288 X2.7585 Y-1.8233
N1289 X2.6916 Y-1.8397
N1290 X2.6257 Y-1.8599
N1291 X2.561 Y-1.8838
N1292 X2.4979 Y-1.9113
N1293 X2.4363 Y-1.9423
N1294 X2.3767 Y-1.9768
N1295 X2.319 Y-2.0145
N1296 X2.2636 Y-2.0555
N1297 X2.2106 Y-2.0996
N1298 X2.1602 Y-2.1465
N1299 X2.1125 Y-2.1963
N1300 X2.0677 Y-2.2486
N1301 X2.026 Y-2.3035
N1302 X1.9874 Y-2.3605
N1303 X1.9521 Y-2.4197
N1304 X1.9202 Y-2.4808
N1305 X1.8918 Y-2.5436
N1306 X1.867 Y-2.6079
N1307 X1.8459 Y-2.6735
N1308 X1.8286 Y-2.7402
N1309 X1.815 Y-2.8077
N1310 X1.8053 Y-2.876
N1311 G3 X1.7975 Y-3.0135 I1.2097 J-0.1375
N1312 G1 X1.7995 Y-3.0824
N1313 G3 X4.232 Y-3.048 I1.2155 J0.0689
N1314 G1 X4.2325 Y-3.0135
N1315 X4.232 Y-2.979
N1316 G3 X3.6824 Y-1.9952 I-1.217 J-0.0345
N1317 G1 X3.6264 Y-1.9608
N1318 G3 X3.4888 Y-1.9935 I-0.0524 J-0.0851
N1319 G0 Z0.155
N1320 X2.8879 Y-3.3711
N1321 G3 X2.881 Y-3.3694 Z0.0457 I0.0435 J0.1953 F10.
N1322 X2.8673 Y-3.3653 Z-0.063 I0.0504 J0.1936
N1323 X2.854 Y-3.3603 Z-0.1717 I0.0641 J0.1895
N1324 X2.8411 Y-3.3543 Z-0.2804 I0.0774 J0.1845
N1325 X2.8286 Y-3.3474 Z-0.3891 I0.0903 J0.1785
N1326 X3.0248 Y-2.999 Z-0.445 I0.1028 J0.1716
N1327 X3.015 Y-2.996 I-0.0098 J-0.0145 F24.
N1328 G1 X3.0083 Y-2.9973
N1329 G3 X2.9988 Y-3.0068 I0.0067 J-0.0162
N1330 G1 X2.9975 Y-3.0135
N1331 G3 X3.0083 Y-3.0297 I0.0175 J0.
N1332 G1 X3.015 Y-3.031
N1333 G3 X3.0325 Y-3.0135 I0. J0.0175
N1334 G1 X3.0312 Y-3.0068
N1335 G3 X3.0248 Y-2.999 I-0.0162 J-0.0067
N1336 G1 X3.0225 Y-2.9969
N1337 X3.0205 Y-2.9947
N1338 X3.0172 Y-2.9898
N1339 X3.015 Y-2.9845
N1340 X3.0136 Y-2.9786
N1341 X3.013 Y-2.9724
N1342 X3.0132 Y-2.9657
N1343 X3.0141 Y-2.9588
N1344 X3.0157 Y-2.9515
N1345 X3.0177 Y-2.9439
N1346 X3.0202 Y-2.9362
N1347 X3.0264 Y-2.9202
N1348 X3.0336 Y-2.9039
N1349 X3.0411 Y-2.8877
N1350 X3.0485 Y-2.8717
N1351 X3.0552 Y-2.8565
N1352 X3.0605 Y-2.8422
N1353 X3.0625 Y-2.8356
N1354 X3.064 Y-2.8294
N1355 X3.0648 Y-2.8236
N1356 Y-2.8183
N1357 X3.0642 Y-2.8134
N1358 X3.0627 Y-2.8092
N1359 X3.0603 Y-2.8055
N1360 X3.0588 Y-2.8039
N1361 X3.0569 Y-2.8025
N1362 X3.0525 Y-2.8002
N1363 X3.0469 Y-2.7986
N1364 X3.0434 Y-2.7979
N1365 X3.015 Y-2.796
N1366 G3 X2.7994 Y-2.9851 I0. J-0.2175
N1367 G1 X2.7975 Y-3.0135
N1368 G3 X2.9866 Y-3.2291 I0.2175 J0.
N1369 G1 X3.015 Y-3.231
N1370 G3 X3.2306 Y-3.0419 I0. J0.2175
N1371 G1 X3.2325 Y-3.0135
N1372 G3 X3.1391 Y-2.8349 I-0.2175 J0.
N1373 G1 X3.1366 Y-2.8329
N1374 X3.1344 Y-2.8307
N1375 X3.1324 Y-2.8284
N1376 X3.1307 Y-2.826
N1377 X3.1281 Y-2.8207
N1378 X3.1265 Y-2.815
N1379 X3.1258 Y-2.8089
N1380 Y-2.8024
N1381 X3.1267 Y-2.7955
N1382 X3.1282 Y-2.7883
N1383 X3.1303 Y-2.7809
N1384 X3.1329 Y-2.7732
N1385 X3.1394 Y-2.7573
N1386 X3.147 Y-2.741
N1387 X3.1551 Y-2.7245
N1388 X3.1631 Y-2.7081
N1389 X3.1704 Y-2.6923
N1390 X3.1736 Y-2.6846
N1391 X3.1764 Y-2.6772
N1392 X3.1788 Y-2.67
N1393 X3.1805 Y-2.6631
N1394 X3.1817 Y-2.6566
N1395 X3.1821 Y-2.6505
N1396 X3.1817 Y-2.6448
N1397 X3.1805 Y-2.6396
N1398 X3.1783 Y-2.6348
N1399 X3.1768 Y-2.6327
N1400 X3.1751 Y-2.6306
N1401 X3.1731 Y-2.6288
N1402 X3.1708 Y-2.627
N1403 X3.1653 Y-2.624
N1404 X3.1287 Y-2.6118
N1405 X3.0912 Y-2.603
N1406 X3.053 Y-2.5978
N1407 X3.015 Y-2.596
N1408 X3.0144
N1409 G3 X2.5992 Y-2.9755 I0.0006 J-0.4175
N1410 G1 X2.5975 Y-3.0135
N1411 Y-3.0141
N1412 G3 X2.977 Y-3.4293 I0.4175 J0.0006
N1413 G1 X3.015 Y-3.431
N1414 X3.0156
N1415 G3 X3.4308 Y-3.0515 I-0.0006 J0.4175
N1416 G1 X3.4325 Y-3.0135
N1417 Y-3.0129
N1418 X3.4306 Y-2.9744
N1419 X3.4253 Y-2.9362
N1420 X3.4164 Y-2.8987
N1421 X3.4041 Y-2.8622
N1422 X3.3885 Y-2.8269
N1423 X3.3696 Y-2.7932
N1424 X3.3478 Y-2.7615
N1425 X3.3231 Y-2.7318
N1426 X3.2958 Y-2.7046
N1427 X3.2661 Y-2.68
N1428 X3.2532 Y-2.6712
N1429 X3.2506 Y-2.6692
N1430 X3.2483 Y-2.667
N1431 X3.2462 Y-2.6648
N1432 X3.2445 Y-2.6624
N1433 X3.2417 Y-2.6572
N1434 X3.24 Y-2.6515
N1435 X3.2393 Y-2.6454
N1436 Y-2.6388
N1437 X3.2402 Y-2.632
N1438 X3.2417 Y-2.6247
N1439 X3.2439 Y-2.6172
N1440 X3.2466 Y-2.6095
N1441 X3.2497 Y-2.6015
N1442 X3.2532 Y-2.5934
N1443 X3.2611 Y-2.5768
N1444 X3.2695 Y-2.56
N1445 X3.2778 Y-2.5434
N1446 X3.2855 Y-2.5272
N1447 X3.2888 Y-2.5193
N1448 X3.2918 Y-2.5117
N1449 X3.2942 Y-2.5043
N1450 X3.2961 Y-2.4973
N1451 X3.2974 Y-2.4906
N1452 X3.2979 Y-2.4843
N1453 X3.2976 Y-2.4784
N1454 X3.2964 Y-2.473
N1455 X3.2943 Y-2.4681
N1456 X3.2928 Y-2.4659
N1457 X3.2911 Y-2.4637
N1458 X3.2891 Y-2.4618
N1459 X3.2868 Y-2.46
N1460 X3.2842 Y-2.4583
N1461 X3.2813 Y-2.4568
N1462 X3.2513 Y-2.443
N1463 G3 X3.015 Y-2.396 I-0.2363 J-0.5705
N1464 G1 X2.9666 Y-2.3979
N1465 G3 X2.3994 Y-2.9651 I0.0484 J-0.6156
N1466 G1 X2.3975 Y-3.0135
N1467 G3 X2.9666 Y-3.6291 I0.6175 J0.
N1468 G1 X3.015 Y-3.631
N1469 G3 X3.6325 Y-3.0135 I0. J0.6175
N1470 G1 X3.6306 Y-2.9651
N1471 G3 X3.3678 Y-2.5067 I-0.6156 J-0.0484
N1472 G1 X3.3652 Y-2.5047
N1473 X3.3629 Y-2.5025
N1474 X3.3608 Y-2.5002
N1475 X3.3591 Y-2.4977
N1476 X3.3564 Y-2.4925
N1477 X3.3546 Y-2.4868
N1478 X3.3539 Y-2.4807
N1479 Y-2.4742
N1480 X3.3547 Y-2.4674
N1481 X3.3562 Y-2.4602
N1482 X3.3584 Y-2.4528
N1483 X3.361 Y-2.4451
N1484 X3.3641 Y-2.4373
N1485 X3.3676 Y-2.4293
N1486 X3.3754 Y-2.4129
N1487 X3.3838 Y-2.3963
N1488 X3.3921 Y-2.3798
N1489 X3.3997 Y-2.3636
N1490 X3.4031 Y-2.3558
N1491 X3.4061 Y-2.3482
N1492 X3.4086 Y-2.3407
N1493 X3.4105 Y-2.3336
N1494 X3.4118 Y-2.3268
N1495 X3.4124 Y-2.3203
N1496 X3.4122 Y-2.3142
N1497 X3.4112 Y-2.3085
N1498 X3.4092 Y-2.3033
N1499 X3.4078 Y-2.3009
N1500 X3.4061 Y-2.2986
N1501 X3.4042 Y-2.2964
N1502 X3.402 Y-2.2944
N1503 X3.3995 Y-2.2925
N1504 X3.3967 Y-2.2908
N1505 X3.3911 Y-2.2877
N1506 G3 X3.015 Y-2.196 I-0.3761 J-0.7258
N1507 G1 X2.9592 Y-2.1979
N1508 G3 X2.1994 Y-2.9577 I0.0558 J-0.8156
N1509 G1 X2.1975 Y-3.0135
N1510 G3 X2.9592 Y-3.8291 I0.8175 J0.
N1511 G1 X3.015 Y-3.831
N1512 G3 X3.8306 Y-3.0693 I0. J0.8175
N1513 G1 X3.8325 Y-3.0135
N1514 G3 X3.4821 Y-2.3426 I-0.8175 J0.
N1515 G1 X3.4795 Y-2.3406
N1516 X3.4771 Y-2.3384
N1517 X3.4751 Y-2.3361
N1518 X3.4733 Y-2.3337
N1519 X3.4706 Y-2.3284
N1520 X3.4689 Y-2.3227
N1521 X3.4681 Y-2.3166
N1522 Y-2.3101
N1523 X3.4689 Y-2.3033
N1524 X3.4705 Y-2.2961
N1525 X3.4726 Y-2.2887
N1526 X3.4753 Y-2.281
N1527 X3.4784 Y-2.2731
N1528 X3.4819 Y-2.2651
N1529 X3.4898 Y-2.2486
N1530 X3.4982 Y-2.232
N1531 X3.5066 Y-2.2154
N1532 X3.5144 Y-2.1992
N1533 X3.5178 Y-2.1913
N1534 X3.5208 Y-2.1836
N1535 X3.5233 Y-2.1761
N1536 X3.5253 Y-2.169
N1537 X3.5266 Y-2.1621
N1538 X3.5272 Y-2.1556
N1539 X3.5271 Y-2.1495
N1540 X3.526 Y-2.1437
N1541 X3.524 Y-2.1385
N1542 X3.5226 Y-2.1361
N1543 X3.521 Y-2.1337
N1544 X3.519 Y-2.1316
N1545 X3.5168 Y-2.1295
N1546 X3.5143 Y-2.1276
N1547 X3.5115 Y-2.1259
N1548 X3.4879 Y-2.1125
N1549 G3 X3.0764 Y-1.9979 I-0.4729 J-0.901
N1550 G1 X3.015 Y-1.996
N1551 G3 X1.9994 Y-2.9521 I0. J-1.0175
N1552 G1 X1.9975 Y-3.0135
N1553 G3 X3.015 Y-4.031 I1.0175 J0.
N1554 G1 X3.0764 Y-4.0291
N1555 G3 X4.0325 Y-3.0135 I-0.0614 J1.0156
N1556 G1 X4.0306 Y-2.9521
N1557 G3 X3.5965 Y-2.1785 I-1.0156 J-0.0614
N1558 G1 X3.5938 Y-2.1764
N1559 X3.5915 Y-2.1742
N1560 X3.5895 Y-2.1718
N1561 X3.5878 Y-2.1693
N1562 X3.5851 Y-2.164
N1563 X3.5834 Y-2.1582
N1564 X3.5826 Y-2.1521
N1565 Y-2.1455
N1566 X3.5835 Y-2.1387
N1567 X3.585 Y-2.1315
N1568 X3.5872 Y-2.1241
N1569 X3.5899 Y-2.1164
N1570 X3.593 Y-2.1086
N1571 X3.5965 Y-2.1006
N1572 X3.6043 Y-2.0843
N1573 X3.6127 Y-2.0677
N1574 X3.6211 Y-2.0512
N1575 X3.6288 Y-2.0351
N1576 X3.6322 Y-2.0272
N1577 X3.6352 Y-2.0195
N1578 X3.6378 Y-2.0121
N1579 X3.6398 Y-2.0049
N1580 X3.6411 Y-1.998
N1581 X3.6418 Y-1.9914
N1582 X3.6416 Y-1.9852
N1583 X3.6406 Y-1.9794
N1584 X3.6387 Y-1.974
N1585 X3.6357 Y-1.9691
N1586 X3.6338 Y-1.9668
N1587 X3.6316 Y-1.9646
N1588 X3.6264 Y-1.9608
N1589 X3.6238 Y-1.9591
N1590 X3.5631 Y-1.9264
N1591 X3.5007 Y-1.8971
N1592 X3.4368 Y-1.8714
N1593 X3.3715 Y-1.8494
N1594 X3.3051 Y-1.8311
N1595 X3.2377 Y-1.8165
N1596 X3.1696 Y-1.8059
N1597 X3.1011 Y-1.799
N1598 X3.0322 Y-1.7961
N1599 X2.9633 Y-1.7971
N1600 X2.8946 Y-1.802
N1601 X2.8262 Y-1.8107
N1602 X2.7585 Y-1.8233
N1603 X2.6916 Y-1.8397
N1604 X2.6257 Y-1.8599
N1605 X2.561 Y-1.8838
N1606 X2.4979 Y-1.9113
N1607 X2.4363 Y-1.9423
N1608 X2.3767 Y-1.9768
N1609 X2.319 Y-2.0145
N1610 X2.2636 Y-2.0555
N1611 X2.2106 Y-2.0996
N1612 X2.1602 Y-2.1465
N1613 X2.1125 Y-2.1963
N1614 X2.0677 Y-2.2486
N1615 X2.026 Y-2.3035
N1616 X1.9874 Y-2.3605
N1617 X1.9521 Y-2.4197
N1618 X1.9202 Y-2.4808
N1619 X1.8918 Y-2.5436
N1620 X1.867 Y-2.6079
N1621 X1.8459 Y-2.6735
N1622 X1.8286 Y-2.7402
N1623 X1.815 Y-2.8077
N1624 X1.8053 Y-2.876
N1625 G3 X1.7975 Y-3.0135 I1.2097 J-0.1375
N1626 G1 X1.7995 Y-3.0824
N1627 G3 X4.232 Y-3.048 I1.2155 J0.0689
N1628 G1 X4.2325 Y-3.0135
N1629 X4.232 Y-2.979
N1630 G3 X3.6824 Y-1.9952 I-1.217 J-0.0345
N1631 G1 X3.6264 Y-1.9608
N1632 G3 X3.4888 Y-1.9935 I-0.0524 J-0.0851
N1633 G0 Z-0.045
N1634 X2.8879 Y-3.3711
N1635 G3 X2.881 Y-3.3694 Z-0.1543 I0.0435 J0.1953 F10.
N1636 X2.8673 Y-3.3653 Z-0.263 I0.0504 J0.1936
N1637 X2.854 Y-3.3603 Z-0.3717 I0.0641 J0.1895
N1638 X2.8411 Y-3.3543 Z-0.4804 I0.0774 J0.1845
N1639 X2.8286 Y-3.3474 Z-0.5891 I0.0903 J0.1785
N1640 X3.0248 Y-2.999 Z-0.645 I0.1028 J0.1716
N1641 X3.015 Y-2.996 I-0.0098 J-0.0145 F24.
N1642 G1 X3.0083 Y-2.9973
N1643 G3 X2.9988 Y-3.0068 I0.0067 J-0.0162
N1644 G1 X2.9975 Y-3.0135
N1645 G3 X3.0083 Y-3.0297 I0.0175 J0.
N1646 G1 X3.015 Y-3.031
N1647 G3 X3.0325 Y-3.0135 I0. J0.0175
N1648 G1 X3.0312 Y-3.0068
N1649 G3 X3.0248 Y-2.999 I-0.0162 J-0.0067
N1650 G1 X3.0225 Y-2.9969
N1651 X3.0205 Y-2.9947
N1652 X3.0172 Y-2.9898
N1653 X3.015 Y-2.9845
N1654 X3.0136 Y-2.9786
N1655 X3.013 Y-2.9724
N1656 X3.0132 Y-2.9657
N1657 X3.0141 Y-2.9588
N1658 X3.0157 Y-2.9515
N1659 X3.0177 Y-2.9439
N1660 X3.0202 Y-2.9362
N1661 X3.0264 Y-2.9202
N1662 X3.0336 Y-2.9039
N1663 X3.0411 Y-2.8877
N1664 X3.0485 Y-2.8717
N1665 X3.0552 Y-2.8565
N1666 X3.0605 Y-2.8422
N1667 X3.0625 Y-2.8356
N1668 X3.064 Y-2.8294
N1669 X3.0648 Y-2.8236
N1670 Y-2.8183
N1671 X3.0642 Y-2.8134
N1672 X3.0627 Y-2.8092
N1673 X3.0603 Y-2.8055
N1674 X3.0588 Y-2.8039
N1675 X3.0569 Y-2.8025
N1676 X3.0525 Y-2.8002
N1677 X3.0469 Y-2.7986
N1678 X3.0434 Y-2.7979
N1679 X3.015 Y-2.796
N1680 G3 X2.7994 Y-2.9851 I0. J-0.2175
N1681 G1 X2.7975 Y-3.0135
N1682 G3 X2.9866 Y-3.2291 I0.2175 J0.
N1683 G1 X3.015 Y-3.231
N1684 G3 X3.2306 Y-3.0419 I0. J0.2175
N1685 G1 X3.2325 Y-3.0135
N1686 G3 X3.1391 Y-2.8349 I-0.2175 J0.
N1687 G1 X3.1366 Y-2.8329
N1688 X3.1344 Y-2.8307
N1689 X3.1324 Y-2.8284
N1690 X3.1307 Y-2.826
N1691 X3.1281 Y-2.8207
N1692 X3.1265 Y-2.815
N1693 X3.1258 Y-2.8089
N1694 Y-2.8024
N1695 X3.1267 Y-2.7955
N1696 X3.1282 Y-2.7883
N1697 X3.1303 Y-2.7809
N1698 X3.1329 Y-2.7732
N1699 X3.1394 Y-2.7573
N1700 X3.147 Y-2.741
N1701 X3.1551 Y-2.7245
N1702 X3.1631 Y-2.7081
N1703 X3.1704 Y-2.6923
N1704 X3.1736 Y-2.6846
N1705 X3.1764 Y-2.6772
N1706 X3.1788 Y-2.67
N1707 X3.1805 Y-2.6631
N1708 X3.1817 Y-2.6566
N1709 X3.1821 Y-2.6505
N1710 X3.1817 Y-2.6448
N1711 X3.1805 Y-2.6396
N1712 X3.1783 Y-2.6348
N1713 X3.1768 Y-2.6327
N1714 X3.1751 Y-2.6306
N1715 X3.1731 Y-2.6288
N1716 X3.1708 Y-2.627
N1717 X3.1653 Y-2.624
N1718 X3.1287 Y-2.6118
N1719 X3.0912 Y-2.603
N1720 X3.053 Y-2.5978
N1721 X3.015 Y-2.596
N1722 X3.0144
N1723 G3 X2.5992 Y-2.9755 I0.0006 J-0.4175
N1724 G1 X2.5975 Y-3.0135
N1725 Y-3.0141
N1726 G3 X2.977 Y-3.4293 I0.4175 J0.0006
N1727 G1 X3.015 Y-3.431
N1728 X3.0156
N1729 G3 X3.4308 Y-3.0515 I-0.0006 J0.4175
N1730 G1 X3.4325 Y-3.0135
N1731 Y-3.0129
N1732 X3.4306 Y-2.9744
N1733 X3.4253 Y-2.9362
N1734 X3.4164 Y-2.8987
N1735 X3.4041 Y-2.8622
N1736 X3.3885 Y-2.8269
N1737 X3.3696 Y-2.7932
N1738 X3.3478 Y-2.7615
N1739 X3.3231 Y-2.7318
N1740 X3.2958 Y-2.7046
N1741 X3.2661 Y-2.68
N1742 X3.2532 Y-2.6712
N1743 X3.2506 Y-2.6692
N1744 X3.2483 Y-2.667
N1745 X3.2462 Y-2.6648
N1746 X3.2445 Y-2.6624
N1747 X3.2417 Y-2.6572
N1748 X3.24 Y-2.6515
N1749 X3.2393 Y-2.6454
N1750 Y-2.6388
N1751 X3.2402 Y-2.632
N1752 X3.2417 Y-2.6247
N1753 X3.2439 Y-2.6172
N1754 X3.2466 Y-2.6095
N1755 X3.2497 Y-2.6015
N1756 X3.2532 Y-2.5934
N1757 X3.2611 Y-2.5768
N1758 X3.2695 Y-2.56
N1759 X3.2778 Y-2.5434
N1760 X3.2855 Y-2.5272
N1761 X3.2888 Y-2.5193
N1762 X3.2918 Y-2.5117
N1763 X3.2942 Y-2.5043
N1764 X3.2961 Y-2.4973
N1765 X3.2974 Y-2.4906
N1766 X3.2979 Y-2.4843
N1767 X3.2976 Y-2.4784
N1768 X3.2964 Y-2.473
N1769 X3.2943 Y-2.4681
N1770 X3.2928 Y-2.4659
N1771 X3.2911 Y-2.4637
N1772 X3.2891 Y-2.4618
N1773 X3.2868 Y-2.46
N1774 X3.2842 Y-2.4583
N1775 X3.2813 Y-2.4568
N1776 X3.2513 Y-2.443
N1777 G3 X3.015 Y-2.396 I-0.2363 J-0.5705
N1778 G1 X2.9666 Y-2.3979
N1779 G3 X2.3994 Y-2.9651 I0.0484 J-0.6156
N1780 G1 X2.3975 Y-3.0135
N1781 G3 X2.9666 Y-3.6291 I0.6175 J0.
N1782 G1 X3.015 Y-3.631
N1783 G3 X3.6325 Y-3.0135 I0. J0.6175
N1784 G1 X3.6306 Y-2.9651
N1785 G3 X3.3678 Y-2.5067 I-0.6156 J-0.0484
N1786 G1 X3.3652 Y-2.5047
N1787 X3.3629 Y-2.5025
N1788 X3.3608 Y-2.5002
N1789 X3.3591 Y-2.4977
N1790 X3.3564 Y-2.4925
N1791 X3.3546 Y-2.4868
N1792 X3.3539 Y-2.4807
N1793 Y-2.4742
N1794 X3.3547 Y-2.4674
N1795 X3.3562 Y-2.4602
N1796 X3.3584 Y-2.4528
N1797 X3.361 Y-2.4451
N1798 X3.3641 Y-2.4373
N1799 X3.3676 Y-2.4293
N1800 X3.3754 Y-2.4129
N1801 X3.3838 Y-2.3963
N1802 X3.3921 Y-2.3798
N1803 X3.3997 Y-2.3636
N1804 X3.4031 Y-2.3558
N1805 X3.4061 Y-2.3482
N1806 X3.4086 Y-2.3407
N1807 X3.4105 Y-2.3336
N1808 X3.4118 Y-2.3268
N1809 X3.4124 Y-2.3203
N1810 X3.4122 Y-2.3142
N1811 X3.4112 Y-2.3085
N1812 X3.4092 Y-2.3033
N1813 X3.4078 Y-2.3009
N1814 X3.4061 Y-2.2986
N1815 X3.4042 Y-2.2964
N1816 X3.402 Y-2.2944
N1817 X3.3995 Y-2.2925
N1818 X3.3967 Y-2.2908
N1819 X3.3911 Y-2.2877
N1820 G3 X3.015 Y-2.196 I-0.3761 J-0.7258
N1821 G1 X2.9592 Y-2.1979
N1822 G3 X2.1994 Y-2.9577 I0.0558 J-0.8156
N1823 G1 X2.1975 Y-3.0135
N1824 G3 X2.9592 Y-3.8291 I0.8175 J0.
N1825 G1 X3.015 Y-3.831
N1826 G3 X3.8306 Y-3.0693 I0. J0.8175
N1827 G1 X3.8325 Y-3.0135
N1828 G3 X3.4821 Y-2.3426 I-0.8175 J0.
N1829 G1 X3.4795 Y-2.3406
N1830 X3.4771 Y-2.3384
N1831 X3.4751 Y-2.3361
N1832 X3.4733 Y-2.3337
N1833 X3.4706 Y-2.3284
N1834 X3.4689 Y-2.3227
N1835 X3.4681 Y-2.3166
N1836 Y-2.3101
N1837 X3.4689 Y-2.3033
N1838 X3.4705 Y-2.2961
N1839 X3.4726 Y-2.2887
N1840 X3.4753 Y-2.281
N1841 X3.4784 Y-2.2731
N1842 X3.4819 Y-2.2651
N1843 X3.4898 Y-2.2486
N1844 X3.4982 Y-2.232
N1845 X3.5066 Y-2.2154
N1846 X3.5144 Y-2.1992
N1847 X3.5178 Y-2.1913
N1848 X3.5208 Y-2.1836
N1849 X3.5233 Y-2.1761
N1850 X3.5253 Y-2.169
N1851 X3.5266 Y-2.1621
N1852 X3.5272 Y-2.1556
N1853 X3.5271 Y-2.1495
N1854 X3.526 Y-2.1437
N1855 X3.524 Y-2.1385
N1856 X3.5226 Y-2.1361
N1857 X3.521 Y-2.1337
N1858 X3.519 Y-2.1316
N1859 X3.5168 Y-2.1295
N1860 X3.5143 Y-2.1276
N1861 X3.5115 Y-2.1259
N1862 X3.4879 Y-2.1125
N1863 G3 X3.0764 Y-1.9979 I-0.4729 J-0.901
N1864 G1 X3.015 Y-1.996
N1865 G3 X1.9994 Y-2.9521 I0. J-1.0175
N1866 G1 X1.9975 Y-3.0135
N1867 G3 X3.015 Y-4.031 I1.0175 J0.
N1868 G1 X3.0764 Y-4.0291
N1869 G3 X4.0325 Y-3.0135 I-0.0614 J1.0156
N1870 G1 X4.0306 Y-2.9521
N1871 G3 X3.5965 Y-2.1785 I-1.0156 J-0.0614
N1872 G1 X3.5938 Y-2.1764
N1873 X3.5915 Y-2.1742
N1874 X3.5895 Y-2.1718
N1875 X3.5878 Y-2.1693
N1876 X3.5851 Y-2.164
N1877 X3.5834 Y-2.1582
N1878 X3.5826 Y-2.1521
N1879 Y-2.1455
N1880 X3.5835 Y-2.1387
N1881 X3.585 Y-2.1315
N1882 X3.5872 Y-2.1241
N1883 X3.5899 Y-2.1164
N1884 X3.593 Y-2.1086
N1885 X3.5965 Y-2.1006
N1886 X3.6043 Y-2.0843
N1887 X3.6127 Y-2.0677
N1888 X3.6211 Y-2.0512
N1889 X3.6288 Y-2.0351
N1890 X3.6322 Y-2.0272
N1891 X3.6352 Y-2.0195
N1892 X3.6378 Y-2.0121
N1893 X3.6398 Y-2.0049
N1894 X3.6411 Y-1.998
N1895 X3.6418 Y-1.9914
N1896 X3.6416 Y-1.9852
N1897 X3.6406 Y-1.9794
N1898 X3.6387 Y-1.974
N1899 X3.6357 Y-1.9691
N1900 X3.6338 Y-1.9668
N1901 X3.6316 Y-1.9646
N1902 X3.6264 Y-1.9608
N1903 X3.6238 Y-1.9591
N1904 X3.5631 Y-1.9264
N1905 X3.5007 Y-1.8971
N1906 X3.4368 Y-1.8714
N1907 X3.3715 Y-1.8494
N1908 X3.3051 Y-1.8311
N1909 X3.2377 Y-1.8165
N1910 X3.1696 Y-1.8059
N1911 X3.1011 Y-1.799
N1912 X3.0322 Y-1.7961
N1913 X2.9633 Y-1.7971
N1914 X2.8946 Y-1.802
N1915 X2.8262 Y-1.8107
N1916 X2.7585 Y-1.8233
N1917 X2.6916 Y-1.8397
N1918 X2.6257 Y-1.8599
N1919 X2.561 Y-1.8838
N1920 X2.4979 Y-1.9113
N1921 X2.4363 Y-1.9423
N1922 X2.3767 Y-1.9768
N1923 X2.319 Y-2.0145
N1924 X2.2636 Y-2.0555
N1925 X2.2106 Y-2.0996
N1926 X2.1602 Y-2.1465
N1927 X2.1125 Y-2.1963
N1928 X2.0677 Y-2.2486
N1929 X2.026 Y-2.3035
N1930 X1.9874 Y-2.3605
N1931 X1.9521 Y-2.4197
N1932 X1.9202 Y-2.4808
N1933 X1.8918 Y-2.5436
N1934 X1.867 Y-2.6079
N1935 X1.8459 Y-2.6735
N1936 X1.8286 Y-2.7402
N1937 X1.815 Y-2.8077
N1938 X1.8053 Y-2.876
N1939 G3 X1.7975 Y-3.0135 I1.2097 J-0.1375
N1940 G1 X1.7995 Y-3.0824
N1941 G3 X4.232 Y-3.048 I1.2155 J0.0689
N1942 G1 X4.2325 Y-3.0135
N1943 X4.232 Y-2.979
N1944 G3 X3.6824 Y-1.9952 I-1.217 J-0.0345
N1945 G1 X3.6264 Y-1.9608
N1946 G3 X3.4888 Y-1.9935 I-0.0524 J-0.0851
N1947 G0 Z-0.245
N1948 X2.8879 Y-3.3711
N1949 G3 X2.881 Y-3.3694 Z-0.3543 I0.0435 J0.1953 F10.
N1950 X2.8673 Y-3.3653 Z-0.463 I0.0504 J0.1936
N1951 X2.854 Y-3.3603 Z-0.5717 I0.0641 J0.1895
N1952 X2.8411 Y-3.3543 Z-0.6804 I0.0774 J0.1845
N1953 X2.8286 Y-3.3474 Z-0.7891 I0.0903 J0.1785
N1954 X3.0248 Y-2.999 Z-0.845 I0.1028 J0.1716
N1955 X3.015 Y-2.996 I-0.0098 J-0.0145 F24.
N1956 G1 X3.0083 Y-2.9973
N1957 G3 X2.9988 Y-3.0068 I0.0067 J-0.0162
N1958 G1 X2.9975 Y-3.0135
N1959 G3 X3.0083 Y-3.0297 I0.0175 J0.
N1960 G1 X3.015 Y-3.031
N1961 G3 X3.0325 Y-3.0135 I0. J0.0175
N1962 G1 X3.0312 Y-3.0068
N1963 G3 X3.0248 Y-2.999 I-0.0162 J-0.0067
N1964 G1 X3.0225 Y-2.9969
N1965 X3.0205 Y-2.9947
N1966 X3.0172 Y-2.9898
N1967 X3.015 Y-2.9845
N1968 X3.0136 Y-2.9786
N1969 X3.013 Y-2.9724
N1970 X3.0132 Y-2.9657
N1971 X3.0141 Y-2.9588
N1972 X3.0157 Y-2.9515
N1973 X3.0177 Y-2.9439
N1974 X3.0202 Y-2.9362
N1975 X3.0264 Y-2.9202
N1976 X3.0336 Y-2.9039
N1977 X3.0411 Y-2.8877
N1978 X3.0485 Y-2.8717
N1979 X3.0552 Y-2.8565
N1980 X3.0605 Y-2.8422
N1981 X3.0625 Y-2.8356
N1982 X3.064 Y-2.8294
N1983 X3.0648 Y-2.8236
N1984 Y-2.8183
N1985 X3.0642 Y-2.8134
N1986 X3.0627 Y-2.8092
N1987 X3.0603 Y-2.8055
N1988 X3.0588 Y-2.8039
N1989 X3.0569 Y-2.8025
N1990 X3.0525 Y-2.8002
N1991 X3.0469 Y-2.7986
N1992 X3.0434 Y-2.7979
N1993 X3.015 Y-2.796
N1994 G3 X2.7994 Y-2.9851 I0. J-0.2175
N1995 G1 X2.7975 Y-3.0135
N1996 G3 X2.9866 Y-3.2291 I0.2175 J0.
N1997 G1 X3.015 Y-3.231
N1998 G3 X3.2306 Y-3.0419 I0. J0.2175
N1999 G1 X3.2325 Y-3.0135
N2000 G3 X3.1391 Y-2.8349 I-0.2175 J0.
N2001 G1 X3.1366 Y-2.8329
N2002 X3.1344 Y-2.8307
N2003 X3.1324 Y-2.8284
N2004 X3.1307 Y-2.826
N2005 X3.1281 Y-2.8207
N2006 X3.1265 Y-2.815
N2007 X3.1258 Y-2.8089
N2008 Y-2.8024
N2009 X3.1267 Y-2.7955
N2010 X3.1282 Y-2.7883
N2011 X3.1303 Y-2.7809
N2012 X3.1329 Y-2.7732
N2013 X3.1394 Y-2.7573
N2014 X3.147 Y-2.741
N2015 X3.1551 Y-2.7245
N2016 X3.1631 Y-2.7081
N2017 X3.1704 Y-2.6923
N2018 X3.1736 Y-2.6846
N2019 X3.1764 Y-2.6772
N2020 X3.1788 Y-2.67
N2021 X3.1805 Y-2.6631
N2022 X3.1817 Y-2.6566
N2023 X3.1821 Y-2.6505
N2024 X3.1817 Y-2.6448
N2025 X3.1805 Y-2.6396
N2026 X3.1783 Y-2.6348
N2027 X3.1768 Y-2.6327
N2028 X3.1751 Y-2.6306
N2029 X3.1731 Y-2.6288
N2030 X3.1708 Y-2.627
N2031 X3.1653 Y-2.624
N2032 X3.1287 Y-2.6118
N2033 X3.0912 Y-2.603
N2034 X3.053 Y-2.5978
N2035 X3.015 Y-2.596
N2036 X3.0144
N2037 G3 X2.5992 Y-2.9755 I0.0006 J-0.4175
N2038 G1 X2.5975 Y-3.0135
N2039 Y-3.0141
N2040 G3 X2.977 Y-3.4293 I0.4175 J0.0006
N2041 G1 X3.015 Y-3.431
N2042 X3.0156
N2043 G3 X3.4308 Y-3.0515 I-0.0006 J0.4175
N2044 G1 X3.4325 Y-3.0135
N2045 Y-3.0129
N2046 X3.4306 Y-2.9744
N2047 X3.4253 Y-2.9362
N2048 X3.4164 Y-2.8987
N2049 X3.4041 Y-2.8622
N2050 X3.3885 Y-2.8269
N2051 X3.3696 Y-2.7932
N2052 X3.3478 Y-2.7615
N2053 X3.3231 Y-2.7318
N2054 X3.2958 Y-2.7046
N2055 X3.2661 Y-2.68
N2056 X3.2532 Y-2.6712
N2057 X3.2506 Y-2.6692
N2058 X3.2483 Y-2.667
N2059 X3.2462 Y-2.6648
N2060 X3.2445 Y-2.6624
N2061 X3.2417 Y-2.6572
N2062 X3.24 Y-2.6515
N2063 X3.2393 Y-2.6454
N2064 Y-2.6388
N2065 X3.2402 Y-2.632
N2066 X3.2417 Y-2.6247
N2067 X3.2439 Y-2.6172
N2068 X3.2466 Y-2.6095
N2069 X3.2497 Y-2.6015
N2070 X3.2532 Y-2.5934
N2071 X3.2611 Y-2.5768
N2072 X3.2695 Y-2.56
N2073 X3.2778 Y-2.5434
N2074 X3.2855 Y-2.5272
N2075 X3.2888 Y-2.5193
N2076 X3.2918 Y-2.5117
N2077 X3.2942 Y-2.5043
N2078 X3.2961 Y-2.4973
N2079 X3.2974 Y-2.4906
N2080 X3.2979 Y-2.4843
N2081 X3.2976 Y-2.4784
N2082 X3.2964 Y-2.473
N2083 X3.2943 Y-2.4681
N2084 X3.2928 Y-2.4659
N2085 X3.2911 Y-2.4637
N2086 X3.2891 Y-2.4618
N2087 X3.2868 Y-2.46
N2088 X3.2842 Y-2.4583
N2089 X3.2813 Y-2.4568
N2090 X3.2513 Y-2.443
N2091 G3 X3.015 Y-2.396 I-0.2363 J-0.5705
N2092 G1 X2.9666 Y-2.3979
N2093 G3 X2.3994 Y-2.9651 I0.0484 J-0.6156
N2094 G1 X2.3975 Y-3.0135
N2095 G3 X2.9666 Y-3.6291 I0.6175 J0.
N2096 G1 X3.015 Y-3.631
N2097 G3 X3.6325 Y-3.0135 I0. J0.6175
N2098 G1 X3.6306 Y-2.9651
N2099 G3 X3.3678 Y-2.5067 I-0.6156 J-0.0484
N2100 G1 X3.3652 Y-2.5047
N2101 X3.3629 Y-2.5025
N2102 X3.3608 Y-2.5002
N2103 X3.3591 Y-2.4977
N2104 X3.3564 Y-2.4925
N2105 X3.3546 Y-2.4868
N2106 X3.3539 Y-2.4807
N2107 Y-2.4742
N2108 X3.3547 Y-2.4674
N2109 X3.3562 Y-2.4602
N2110 X3.3584 Y-2.4528
N2111 X3.361 Y-2.4451
N2112 X3.3641 Y-2.4373
N2113 X3.3676 Y-2.4293
N2114 X3.3754 Y-2.4129
N2115 X3.3838 Y-2.3963
N2116 X3.3921 Y-2.3798
N2117 X3.3997 Y-2.3636
N2118 X3.4031 Y-2.3558
N2119 X3.4061 Y-2.3482
N2120 X3.4086 Y-2.3407
N2121 X3.4105 Y-2.3336
N2122 X3.4118 Y-2.3268
N2123 X3.4124 Y-2.3203
N2124 X3.4122 Y-2.3142
N2125 X3.4112 Y-2.3085
N2126 X3.4092 Y-2.3033
N2127 X3.4078 Y-2.3009
N2128 X3.4061 Y-2.2986
N2129 X3.4042 Y-2.2964
N2130 X3.402 Y-2.2944
N2131 X3.3995 Y-2.2925
N2132 X3.3967 Y-2.2908
N2133 X3.3911 Y-2.2877
N2134 G3 X3.015 Y-2.196 I-0.3761 J-0.7258
N2135 G1 X2.9592 Y-2.1979
N2136 G3 X2.1994 Y-2.9577 I0.0558 J-0.8156
N2137 G1 X2.1975 Y-3.0135
N2138 G3 X2.9592 Y-3.8291 I0.8175 J0.
N2139 G1 X3.015 Y-3.831
N2140 G3 X3.8306 Y-3.0693 I0. J0.8175
N2141 G1 X3.8325 Y-3.0135
N2142 G3 X3.4821 Y-2.3426 I-0.8175 J0.
N2143 G1 X3.4795 Y-2.3406
N2144 X3.4771 Y-2.3384
N2145 X3.4751 Y-2.3361
N2146 X3.4733 Y-2.3337
N2147 X3.4706 Y-2.3284
N2148 X3.4689 Y-2.3227
N2149 X3.4681 Y-2.3166
N2150 Y-2.3101
N2151 X3.4689 Y-2.3033
N2152 X3.4705 Y-2.2961
N2153 X3.4726 Y-2.2887
N2154 X3.4753 Y-2.281
N2155 X3.4784 Y-2.2731
N2156 X3.4819 Y-2.2651
N2157 X3.4898 Y-2.2486
N2158 X3.4982 Y-2.232
N2159 X3.5066 Y-2.2154
N2160 X3.5144 Y-2.1992
N2161 X3.5178 Y-2.1913
N2162 X3.5208 Y-2.1836
N2163 X3.5233 Y-2.1761
N2164 X3.5253 Y-2.169
N2165 X3.5266 Y-2.1621
N2166 X3.5272 Y-2.1556
N2167 X3.5271 Y-2.1495
N2168 X3.526 Y-2.1437
N2169 X3.524 Y-2.1385
N2170 X3.5226 Y-2.1361
N2171 X3.521 Y-2.1337
N2172 X3.519 Y-2.1316
N2173 X3.5168 Y-2.1295
N2174 X3.5143 Y-2.1276
N2175 X3.5115 Y-2.1259
N2176 X3.4879 Y-2.1125
N2177 G3 X3.0764 Y-1.9979 I-0.4729 J-0.901
N2178 G1 X3.015 Y-1.996
N2179 G3 X1.9994 Y-2.9521 I0. J-1.0175
N2180 G1 X1.9975 Y-3.0135
N2181 G3 X3.015 Y-4.031 I1.0175 J0.
N2182 G1 X3.0764 Y-4.0291
N2183 G3 X4.0325 Y-3.0135 I-0.0614 J1.0156
N2184 G1 X4.0306 Y-2.9521
N2185 G3 X3.5965 Y-2.1785 I-1.0156 J-0.0614
N2186 G1 X3.5938 Y-2.1764
N2187 X3.5915 Y-2.1742
N2188 X3.5895 Y-2.1718
N2189 X3.5878 Y-2.1693
N2190 X3.5851 Y-2.164
N2191 X3.5834 Y-2.1582
N2192 X3.5826 Y-2.1521
N2193 Y-2.1455
N2194 X3.5835 Y-2.1387
N2195 X3.585 Y-2.1315
N2196 X3.5872 Y-2.1241
N2197 X3.5899 Y-2.1164
N2198 X3.593 Y-2.1086
N2199 X3.5965 Y-2.1006
N2200 X3.6043 Y-2.0843
N2201 X3.6127 Y-2.0677
N2202 X3.6211 Y-2.0512
N2203 X3.6288 Y-2.0351
N2204 X3.6322 Y-2.0272
N2205 X3.6352 Y-2.0195
N2206 X3.6378 Y-2.0121
N2207 X3.6398 Y-2.0049
N2208 X3.6411 Y-1.998
N2209 X3.6418 Y-1.9914
N2210 X3.6416 Y-1.9852
N2211 X3.6406 Y-1.9794
N2212 X3.6387 Y-1.974
N2213 X3.6357 Y-1.9691
N2214 X3.6338 Y-1.9668
N2215 X3.6316 Y-1.9646
N2216 X3.6264 Y-1.9608
N2217 X3.6238 Y-1.9591
N2218 X3.5631 Y-1.9264
N2219 X3.5007 Y-1.8971
N2220 X3.4368 Y-1.8714
N2221 X3.3715 Y-1.8494
N2222 X3.3051 Y-1.8311
N2223 X3.2377 Y-1.8165
N2224 X3.1696 Y-1.8059
N2225 X3.1011 Y-1.799
N2226 X3.0322 Y-1.7961
N2227 X2.9633 Y-1.7971
N2228 X2.8946 Y-1.802
N2229 X2.8262 Y-1.8107
N2230 X2.7585 Y-1.8233
N2231 X2.6916 Y-1.8397
N2232 X2.6257 Y-1.8599
N2233 X2.561 Y-1.8838
N2234 X2.4979 Y-1.9113
N2235 X2.4363 Y-1.9423
N2236 X2.3767 Y-1.9768
N2237 X2.319 Y-2.0145
N2238 X2.2636 Y-2.0555
N2239 X2.2106 Y-2.0996
N2240 X2.1602 Y-2.1465
N2241 X2.1125 Y-2.1963
N2242 X2.0677 Y-2.2486
N2243 X2.026 Y-2.3035
N2244 X1.9874 Y-2.3605
N2245 X1.9521 Y-2.4197
N2246 X1.9202 Y-2.4808
N2247 X1.8918 Y-2.5436
N2248 X1.867 Y-2.6079
N2249 X1.8459 Y-2.6735
N2250 X1.8286 Y-2.7402
N2251 X1.815 Y-2.8077
N2252 X1.8053 Y-2.876
N2253 G3 X1.7975 Y-3.0135 I1.2097 J-0.1375
N2254 G1 X1.7995 Y-3.0824
N2255 G3 X4.232 Y-3.048 I1.2155 J0.0689
N2256 G1 X4.2325 Y-3.0135
N2257 X4.232 Y-2.979
N2258 G3 X3.6824 Y-1.9952 I-1.217 J-0.0345
N2259 G1 X3.6264 Y-1.9608
N2260 G3 X3.4888 Y-1.9935 I-0.0524 J-0.0851
N2261 G0 Z-0.445
N2262 X3.091 Y-3.2963
N2263 G3 X3.0879 Y-3.3003 Z-0.5545 I-0.1596 J0.1205 F10.
N2264 X3.0787 Y-3.3111 Z-0.6632 I-0.1565 J0.1245
N2265 X3.0687 Y-3.3213 Z-0.7719 I-0.1473 J0.1353
N2266 X3.058 Y-3.3306 Z-0.8806 I-0.1373 J0.1455
N2267 X3.0466 Y-3.3393 Z-0.9893 I-0.1266 J0.1548
N2268 X3.0248 Y-2.999 Z-1.025 I-0.1152 J0.1635
N2269 X3.015 Y-2.996 I-0.0098 J-0.0145 F24.
N2270 G1 X3.0083 Y-2.9973
N2271 G3 X2.9988 Y-3.0068 I0.0067 J-0.0162
N2272 G1 X2.9975 Y-3.0135
N2273 G3 X3.0083 Y-3.0297 I0.0175 J0.
N2274 G1 X3.015 Y-3.031
N2275 G3 X3.0325 Y-3.0135 I0. J0.0175
N2276 G1 X3.0312 Y-3.0068
N2277 G3 X3.0248 Y-2.999 I-0.0162 J-0.0067
N2278 G1 X3.0225 Y-2.9969
N2279 X3.0205 Y-2.9947
N2280 X3.0172 Y-2.9898
N2281 X3.015 Y-2.9845
N2282 X3.0136 Y-2.9786
N2283 X3.013 Y-2.9724
N2284 X3.0132 Y-2.9657
N2285 X3.0141 Y-2.9588
N2286 X3.0157 Y-2.9515
N2287 X3.0177 Y-2.9439
N2288 X3.0202 Y-2.9362
N2289 X3.0264 Y-2.9202
N2290 X3.0336 Y-2.9039
N2291 X3.0411 Y-2.8877
N2292 X3.0485 Y-2.8717
N2293 X3.0552 Y-2.8565
N2294 X3.0605 Y-2.8422
N2295 X3.0625 Y-2.8356
N2296 X3.064 Y-2.8294
N2297 X3.0648 Y-2.8236
N2298 Y-2.8183
N2299 X3.0642 Y-2.8134
N2300 X3.0627 Y-2.8092
N2301 X3.0603 Y-2.8055
N2302 X3.0588 Y-2.8039
N2303 X3.0569 Y-2.8025
N2304 X3.0525 Y-2.8002
N2305 X3.0469 Y-2.7986
N2306 X3.0434 Y-2.7979
N2307 X3.015 Y-2.796
N2308 G3 X2.7994 Y-2.9851 I0. J-0.2175
N2309 G1 X2.7975 Y-3.0135
N2310 G3 X2.9866 Y-3.2291 I0.2175 J0.
N2311 G1 X3.015 Y-3.231
N2312 G3 X3.2306 Y-3.0419 I0. J0.2175
N2313 G1 X3.2325 Y-3.0135
N2314 G3 X3.1391 Y-2.8349 I-0.2175 J0.
N2315 G1 X3.1366 Y-2.8329
N2316 X3.1344 Y-2.8307
N2317 X3.1324 Y-2.8284
N2318 X3.1307 Y-2.826
N2319 X3.1281 Y-2.8207
N2320 X3.1265 Y-2.815
N2321 X3.1258 Y-2.8089
N2322 Y-2.8024
N2323 X3.1267 Y-2.7955
N2324 X3.1282 Y-2.7883
N2325 X3.1303 Y-2.7809
N2326 X3.1329 Y-2.7732
N2327 X3.1394 Y-2.7573
N2328 X3.147 Y-2.741
N2329 X3.1551 Y-2.7245
N2330 X3.1631 Y-2.7081
N2331 X3.1704 Y-2.6923
N2332 X3.1736 Y-2.6846
N2333 X3.1764 Y-2.6772
N2334 X3.1788 Y-2.67
N2335 X3.1805 Y-2.6631
N2336 X3.1817 Y-2.6566
N2337 X3.1821 Y-2.6505
N2338 X3.1817 Y-2.6448
N2339 X3.1805 Y-2.6396
N2340 X3.1783 Y-2.6348
N2341 X3.1768 Y-2.6327
N2342 X3.1751 Y-2.6306
N2343 X3.1731 Y-2.6288
N2344 X3.1708 Y-2.627
N2345 X3.1653 Y-2.624
N2346 X3.1287 Y-2.6118
N2347 X3.0912 Y-2.603
N2348 X3.053 Y-2.5978
N2349 X3.015 Y-2.596
N2350 X3.0144
N2351 G3 X2.5992 Y-2.9755 I0.0006 J-0.4175
N2352 G1 X2.5975 Y-3.0135
N2353 Y-3.0141
N2354 G3 X2.977 Y-3.4293 I0.4175 J0.0006
N2355 G1 X3.015 Y-3.431
N2356 X3.0156
N2357 G3 X3.4308 Y-3.0515 I-0.0006 J0.4175
N2358 G1 X3.4325 Y-3.0135
N2359 Y-3.0129
N2360 X3.4306 Y-2.9744
N2361 X3.4253 Y-2.9362
N2362 X3.4164 Y-2.8987
N2363 X3.4041 Y-2.8622
N2364 X3.3885 Y-2.8269
N2365 X3.3696 Y-2.7932
N2366 X3.3478 Y-2.7615
N2367 X3.3231 Y-2.7318
N2368 X3.2958 Y-2.7046
N2369 X3.2661 Y-2.68
N2370 X3.2532 Y-2.6712
N2371 X3.2506 Y-2.6692
N2372 X3.2483 Y-2.667
N2373 X3.2462 Y-2.6648
N2374 X3.2445 Y-2.6624
N2375 X3.2417 Y-2.6572
N2376 X3.24 Y-2.6515
N2377 X3.2393 Y-2.6454
N2378 Y-2.6388
N2379 X3.2402 Y-2.632
N2380 X3.2417 Y-2.6247
N2381 X3.2439 Y-2.6172
N2382 X3.2466 Y-2.6095
N2383 X3.2497 Y-2.6015
N2384 X3.2532 Y-2.5934
N2385 X3.2611 Y-2.5768
N2386 X3.2695 Y-2.56
N2387 X3.2778 Y-2.5434
N2388 X3.2855 Y-2.5272
N2389 X3.2888 Y-2.5193
N2390 X3.2918 Y-2.5117
N2391 X3.2942 Y-2.5043
N2392 X3.2961 Y-2.4973
N2393 X3.2974 Y-2.4906
N2394 X3.2979 Y-2.4843
N2395 X3.2976 Y-2.4784
N2396 X3.2964 Y-2.473
N2397 X3.2943 Y-2.4681
N2398 X3.2928 Y-2.4659
N2399 X3.2911 Y-2.4637
N2400 X3.2891 Y-2.4618
N2401 X3.2868 Y-2.46
N2402 X3.2842 Y-2.4583
N2403 X3.2813 Y-2.4568
N2404 X3.2513 Y-2.443
N2405 G3 X3.015 Y-2.396 I-0.2363 J-0.5705
N2406 G1 X2.9666 Y-2.3979
N2407 G3 X2.3994 Y-2.9651 I0.0484 J-0.6156
N2408 G1 X2.3975 Y-3.0135
N2409 G3 X2.9666 Y-3.6291 I0.6175 J0.
N2410 G1 X3.015 Y-3.631
N2411 G3 X3.6325 Y-3.0135 I0. J0.6175
N2412 G1 X3.6306 Y-2.9651
N2413 G3 X3.3678 Y-2.5067 I-0.6156 J-0.0484
N2414 G1 X3.3652 Y-2.5047
N2415 X3.3629 Y-2.5025
N2416 X3.3608 Y-2.5002
N2417 X3.3591 Y-2.4977
N2418 X3.3564 Y-2.4925
N2419 X3.3546 Y-2.4868
N2420 X3.3539 Y-2.4807
N2421 Y-2.4742
N2422 X3.3547 Y-2.4674
N2423 X3.3562 Y-2.4602
N2424 X3.3584 Y-2.4528
N2425 X3.361 Y-2.4451
N2426 X3.3641 Y-2.4373
N2427 X3.3676 Y-2.4293
N2428 X3.3754 Y-2.4129
N2429 X3.3838 Y-2.3963
N2430 X3.3921 Y-2.3798
N2431 X3.3997 Y-2.3636
N2432 X3.4031 Y-2.3558
N2433 X3.4061 Y-2.3482
N2434 X3.4086 Y-2.3407
N2435 X3.4105 Y-2.3336
N2436 X3.4118 Y-2.3268
N2437 X3.4124 Y-2.3203
N2438 X3.4122 Y-2.3142
N2439 X3.4112 Y-2.3085
N2440 X3.4092 Y-2.3033
N2441 X3.4078 Y-2.3009
N2442 X3.4061 Y-2.2986
N2443 X3.4042 Y-2.2964
N2444 X3.402 Y-2.2944
N2445 X3.3995 Y-2.2925
N2446 X3.3967 Y-2.2908
N2447 X3.3911 Y-2.2877
N2448 G3 X3.015 Y-2.196 I-0.3761 J-0.7258
N2449 G1 X2.9592 Y-2.1979
N2450 G3 X2.1994 Y-2.9577 I0.0558 J-0.8156
N2451 G1 X2.1975 Y-3.0135
N2452 G3 X2.9592 Y-3.8291 I0.8175 J0.
N2453 G1 X3.015 Y-3.831
N2454 G3 X3.8306 Y-3.0693 I0. J0.8175
N2455 G1 X3.8325 Y-3.0135
N2456 G3 X3.4821 Y-2.3426 I-0.8175 J0.
N2457 G1 X3.4795 Y-2.3406
N2458 X3.4771 Y-2.3384
N2459 X3.4751 Y-2.3361
N2460 X3.4733 Y-2.3337
N2461 X3.4706 Y-2.3284
N2462 X3.4689 Y-2.3227
N2463 X3.4681 Y-2.3166
N2464 Y-2.3101
N2465 X3.4689 Y-2.3033
N2466 X3.4705 Y-2.2961
N2467 X3.4726 Y-2.2887
N2468 X3.4753 Y-2.281
N2469 X3.4784 Y-2.2731
N2470 X3.4819 Y-2.2651
N2471 X3.4898 Y-2.2486
N2472 X3.4982 Y-2.232
N2473 X3.5066 Y-2.2154
N2474 X3.5144 Y-2.1992
N2475 X3.5178 Y-2.1913
N2476 X3.5208 Y-2.1836
N2477 X3.5233 Y-2.1761
N2478 X3.5253 Y-2.169
N2479 X3.5266 Y-2.1621
N2480 X3.5272 Y-2.1556
N2481 X3.5271 Y-2.1495
N2482 X3.526 Y-2.1437
N2483 X3.524 Y-2.1385
N2484 X3.5226 Y-2.1361
N2485 X3.521 Y-2.1337
N2486 X3.519 Y-2.1316
N2487 X3.5168 Y-2.1295
N2488 X3.5143 Y-2.1276
N2489 X3.5115 Y-2.1259
N2490 X3.4879 Y-2.1125
N2491 G3 X3.0764 Y-1.9979 I-0.4729 J-0.901
N2492 G1 X3.015 Y-1.996
N2493 G3 X1.9994 Y-2.9521 I0. J-1.0175
N2494 G1 X1.9975 Y-3.0135
N2495 G3 X3.015 Y-4.031 I1.0175 J0.
N2496 G1 X3.0764 Y-4.0291
N2497 G3 X4.0325 Y-3.0135 I-0.0614 J1.0156
N2498 G1 X4.0306 Y-2.9521
N2499 G3 X3.5965 Y-2.1785 I-1.0156 J-0.0614
N2500 G1 X3.5938 Y-2.1764
N2501 X3.5915 Y-2.1742
N2502 X3.5895 Y-2.1718
N2503 X3.5878 Y-2.1693
N2504 X3.5851 Y-2.164
N2505 X3.5834 Y-2.1582
N2506 X3.5826 Y-2.1521
N2507 Y-2.1455
N2508 X3.5835 Y-2.1387
N2509 X3.585 Y-2.1315
N2510 X3.5872 Y-2.1241
N2511 X3.5899 Y-2.1164
N2512 X3.593 Y-2.1086
N2513 X3.5965 Y-2.1006
N2514 X3.6043 Y-2.0843
N2515 X3.6127 Y-2.0677
N2516 X3.6211 Y-2.0512
N2517 X3.6288 Y-2.0351
N2518 X3.6322 Y-2.0272
N2519 X3.6352 Y-2.0195
N2520 X3.6378 Y-2.0121
N2521 X3.6398 Y-2.0049
N2522 X3.6411 Y-1.998
N2523 X3.6418 Y-1.9914
N2524 X3.6416 Y-1.9852
N2525 X3.6406 Y-1.9794
N2526 X3.6387 Y-1.974
N2527 X3.6357 Y-1.9691
N2528 X3.6338 Y-1.9668
N2529 X3.6316 Y-1.9646
N2530 X3.6264 Y-1.9608
N2531 X3.6238 Y-1.9591
N2532 X3.5631 Y-1.9264
N2533 X3.5007 Y-1.8971
N2534 X3.4368 Y-1.8714
N2535 X3.3715 Y-1.8494
N2536 X3.3051 Y-1.8311
N2537 X3.2377 Y-1.8165
N2538 X3.1696 Y-1.8059
N2539 X3.1011 Y-1.799
N2540 X3.0322 Y-1.7961
N2541 X2.9633 Y-1.7971
N2542 X2.8946 Y-1.802
N2543 X2.8262 Y-1.8107
N2544 X2.7585 Y-1.8233
N2545 X2.6916 Y-1.8397
N2546 X2.6257 Y-1.8599
N2547 X2.561 Y-1.8838
N2548 X2.4979 Y-1.9113
N2549 X2.4363 Y-1.9423
N2550 X2.3767 Y-1.9768
N2551 X2.319 Y-2.0145
N2552 X2.2636 Y-2.0555
N2553 X2.2106 Y-2.0996
N2554 X2.1602 Y-2.1465
N2555 X2.1125 Y-2.1963
N2556 X2.0677 Y-2.2486
N2557 X2.026 Y-2.3035
N2558 X1.9874 Y-2.3605
N2559 X1.9521 Y-2.4197
N2560 X1.9202 Y-2.4808
N2561 X1.8918 Y-2.5436
N2562 X1.867 Y-2.6079
N2563 X1.8459 Y-2.6735
N2564 X1.8286 Y-2.7402
N2565 X1.815 Y-2.8077
N2566 X1.8053 Y-2.876
N2567 G3 X1.7975 Y-3.0135 I1.2097 J-0.1375
N2568 G1 X1.7995 Y-3.0824
N2569 G3 X4.232 Y-3.048 I1.2155 J0.0689
N2570 G1 X4.2325 Y-3.0135
N2571 X4.232 Y-2.979
N2572 G3 X3.6824 Y-1.9952 I-1.217 J-0.0345
N2573 G1 X3.6264 Y-1.9608
N2574 G3 X3.4888 Y-1.9935 I-0.0524 J-0.0851
N2575 G0 Z-0.625
N2576 Z0.6056
( Operation: Center Finish )
N2577 X4.1211 Y-3.142 Z0.5956
N2578 Z0.245
N2579 G1 Z-0.155 F10.
N2580 G3 X4.2425 Y-3.0135 I-0.0036 J0.125 F24.
N2581 X1.7875 I-1.2275 J0.
N2582 X4.2425 I1.2275 J0.
N2583 G1 Z-0.255
N2584 G3 X1.7875 I-1.2275 J0.
N2585 X4.2425 I1.2275 J0.
N2586 G1 Z-0.355
N2587 G3 X1.7875 I-1.2275 J0.
N2588 X4.2425 I1.2275 J0.
N2589 G1 Z-0.455
N2590 G3 X1.7875 I-1.2275 J0.
N2591 X4.2425 I1.2275 J0.
N2592 G1 Z-0.555
N2593 G3 X1.7875 I-1.2275 J0.
N2594 X4.2425 I1.2275 J0.
N2595 G1 Z-0.655
N2596 G3 X1.7875 I-1.2275 J0.
N2597 X4.2425 I1.2275 J0.
N2598 G1 Z-0.755
N2599 G3 X1.7875 I-1.2275 J0.
N2600 X4.2425 I1.2275 J0.
N2601 G1 Z-0.855
N2602 G3 X1.7875 I-1.2275 J0.
N2603 X4.2425 I1.2275 J0.
N2604 G1 Z-0.955
N2605 G3 X1.7875 I-1.2275 J0.
N2606 X4.2425 I1.2275 J0.
N2607 G1 Z-1.025
N2608 G3 X1.7875 I-1.2275 J0.
N2609 X4.2425 I1.2275 J0.
N2610 X4.1211 Y-2.885 I-0.125 J0.0035
N2611 G0 Z0.5956
( Operation: 3D Rough )
N2612 X4.2581 Y-1.8446 Z0.6106
N2613 Z0.36
N2614 G3 X4.2519 Y-1.8411 Z0.2507 I0.0953 J0.1758 F10.
N2615 X4.2399 Y-1.8335 Z0.142 I0.1015 J0.1723
N2616 X4.2285 Y-1.825 Z0.0333 I0.1135 J0.1647
N2617 X4.2177 Y-1.8157 Z-0.0754 I0.1249 J0.1562
N2618 X4.2076 Y-1.8057 Z-0.1841 I0.1357 J0.1469
N2619 X4.4918 Y-1.5243 Z-0.24 I0.1458 J0.1369
N2620 G1 X4.4318 Y-1.467 F24.
N2621 X4.3945 Y-1.4337
N2622 X4.3221 Y-1.3738
N2623 X4.2497 Y-1.3181
N2624 X4.1728 Y-1.265
N2625 X4.0956 Y-1.216
N2626 X4.0235 Y-1.1745
N2627 X3.9522 Y-1.1372
N2628 X3.8872 Y-1.1061
N2629 X3.8242 Y-1.0786
N2630 X3.7568 Y-1.0517
N2631 X3.694 Y-1.0292
N2632 X3.6569 Y-1.0172
N2633 X3.6429 Y-1.0148
N2634 X3.63 Y-1.015
N2635 X3.6196 Y-1.0175
N2636 X3.6124 Y-1.021
N2637 X3.6062 Y-1.0261
N2638 X3.6011 Y-1.0324
N2639 X3.5965 Y-1.0416
N2640 X3.5929 Y-1.0551
N2641 X3.5912 Y-1.0731
N2642 Y-1.1412
N2643 X3.5925 Y-1.1592
N2644 X3.5959 Y-1.1756
N2645 X3.6014 Y-1.1908
N2646 X3.6093 Y-1.2046
N2647 X3.6195 Y-1.2169
N2648 X3.6317 Y-1.2274
N2649 X3.6451 Y-1.2358
N2650 X3.6639 Y-1.2445
N2651 X3.7244 Y-1.2678
N2652 X3.7907 Y-1.2962
N2653 X3.8529 Y-1.3257
N2654 X3.9194 Y-1.3605
N2655 X4.0066 Y-1.4114
N2656 X4.0724 Y-1.4542
N2657 X4.1596 Y-1.5167
N2658 X4.2159 Y-1.5614
N2659 X4.2729 Y-1.6112
N2660 X4.3651 Y-1.7016
N2661 X4.436 Y-1.7761
N2662 X4.4801 Y-1.8287
N2663 X4.5305 Y-1.8949
N2664 X4.5914 Y-1.9816
N2665 X4.6055 Y-2.001
N2666 X4.6184 Y-2.0145
N2667 X4.6323 Y-2.0257
N2668 X4.6465 Y-2.0342
N2669 X4.663 Y-2.0414
N2670 X4.6818 Y-2.0465
N2671 X4.7022 Y-2.0492
N2672 X4.7137 Y-2.0496
N2673 X4.7985
N2674 X4.8175 Y-2.0483
N2675 X4.8298 Y-2.0455
N2676 X4.8396 Y-2.0409
N2677 X4.8456 Y-2.0358
N2678 X4.8499 Y-2.0289
N2679 X4.8518 Y-2.0212
N2680 Y-2.0133
N2681 X4.8497 Y-2.0031
N2682 X4.8443 Y-1.9891
N2683 X4.8109 Y-1.9305
N2684 X4.7853 Y-1.8893
N2685 X4.7414 Y-1.8231
N2686 X4.6899 Y-1.7512
N2687 X4.6425 Y-1.6907
N2688 X4.5854 Y-1.6235
N2689 X4.5275 Y-1.561
N2690 X4.4918 Y-1.5243
N2691 X4.4895 Y-1.5218
N2692 X4.4876 Y-1.5192
N2693 X4.4859 Y-1.5166
N2694 X4.4846 Y-1.5138
N2695 X4.4828 Y-1.5081
N2696 X4.4821 Y-1.5022
N2697 X4.4824 Y-1.496
N2698 X4.4835 Y-1.4896
N2699 X4.4855 Y-1.483
N2700 X4.4883 Y-1.4762
N2701 X4.4917 Y-1.4692
N2702 X4.4957 Y-1.4622
N2703 X4.5001 Y-1.455
N2704 X4.505 Y-1.4477
N2705 X4.5157 Y-1.433
N2706 X4.527 Y-1.4181
N2707 X4.5382 Y-1.4032
N2708 X4.5488 Y-1.3885
N2709 X4.5536 Y-1.3813
N2710 X4.5581 Y-1.3742
N2711 X4.5619 Y-1.3672
N2712 X4.5653 Y-1.3603
N2713 X4.5679 Y-1.3537
N2714 X4.5698 Y-1.3472
N2715 X4.5708 Y-1.3409
N2716 X4.571 Y-1.3349
N2717 X4.5701 Y-1.3291
N2718 X4.5681 Y-1.3235
N2719 X4.5667 Y-1.3209
N2720 X4.565 Y-1.3183
N2721 X4.563 Y-1.3158
N2722 X4.5606 Y-1.3134
N2723 X4.5588 Y-1.3116
N2724 X4.4962 Y-1.2578
N2725 X4.4215 Y-1.1976
N2726 X4.357 Y-1.149
N2727 X4.2711 Y-1.0903
N2728 X4.1858 Y-1.0368
N2729 X4.1097 Y-0.9938
N2730 X4.031 Y-0.9531
N2731 X3.9601 Y-0.9196
N2732 X3.8817 Y-0.8859
N2733 X3.8047 Y-0.8562
N2734 X3.7253 Y-0.8287
N2735 X3.6328 Y-0.8007
N2736 X3.5365 Y-0.7762
N2737 X3.4604 Y-0.7603
N2738 X3.4416 Y-0.7596
N2739 X3.4294 Y-0.7614
N2740 X3.4183 Y-0.7655
N2741 X3.4084 Y-0.7726
N2742 X3.401 Y-0.782
N2743 X3.3958 Y-0.7931
N2744 X3.3919 Y-0.812
N2745 X3.3911 Y-0.8246
N2746 X3.392 Y-1.2941
N2747 X3.394 Y-1.3157
N2748 X3.3992 Y-1.3351
N2749 X3.4061 Y-1.3493
N2750 X3.4156 Y-1.3622
N2751 X3.4277 Y-1.3734
N2752 X3.4441 Y-1.3835
N2753 X3.465 Y-1.3917
N2754 X3.5231 Y-1.4076
N2755 X3.5873 Y-1.4293
N2756 X3.6462 Y-1.4518
N2757 X3.7058 Y-1.4773
N2758 X3.7613 Y-1.5035
N2759 X3.8194 Y-1.5337
N2760 X3.8983 Y-1.5795
N2761 X3.9567 Y-1.6174
N2762 X4.0358 Y-1.6738
N2763 X4.0862 Y-1.7137
N2764 X4.133 Y-1.7542
N2765 X4.2213 Y-1.8406
N2766 X4.2837 Y-1.9057
N2767 X4.3214 Y-1.9505
N2768 X4.3668 Y-2.0099
N2769 X4.4278 Y-2.0966
N2770 X4.465 Y-2.1565
N2771 X4.4782 Y-2.1807
N2772 X4.4899 Y-2.1988
N2773 X4.5028 Y-2.2137
N2774 X4.5187 Y-2.2271
N2775 X4.5363 Y-2.2373
N2776 X4.5539 Y-2.2439
N2777 X4.5734 Y-2.248
N2778 X4.5939 Y-2.2496
N2779 X5.1052
N2780 X5.1265 Y-2.2474
N2781 X5.1383 Y-2.2438
N2782 X5.1486 Y-2.2377
N2783 X5.1565 Y-2.2287
N2784 X5.1607 Y-2.2176
N2785 X5.1615 Y-2.2053
N2786 X5.1581 Y-2.1868
N2787 X5.1345 Y-2.1273
N2788 X5.1017 Y-2.0527
N2789 X5.0661 Y-1.9788
N2790 X5.0307 Y-1.9114
N2791 X4.9888 Y-1.8381
N2792 X4.949 Y-1.774
N2793 X4.8948 Y-1.6934
N2794 X4.8433 Y-1.6224
N2795 X4.7907 Y-1.556
N2796 X4.724 Y-1.4784
N2797 X4.6648 Y-1.4144
N2798 X4.6333 Y-1.3821
N2799 X4.631 Y-1.3796
N2800 X4.6291 Y-1.377
N2801 X4.6275 Y-1.3743
N2802 X4.6261 Y-1.3715
N2803 X4.6244 Y-1.3658
N2804 X4.6237 Y-1.3599
N2805 X4.624 Y-1.3537
N2806 X4.6252 Y-1.3472
N2807 X4.6273 Y-1.3406
N2808 X4.6301 Y-1.3338
N2809 X4.6335 Y-1.3268
N2810 X4.6375 Y-1.3197
N2811 X4.6421 Y-1.3125
N2812 X4.647 Y-1.3052
N2813 X4.6578 Y-1.2904
N2814 X4.6692 Y-1.2754
N2815 X4.6805 Y-1.2605
N2816 X4.6911 Y-1.2458
N2817 X4.696 Y-1.2386
N2818 X4.7004 Y-1.2315
N2819 X4.7043 Y-1.2246
N2820 X4.7076 Y-1.2178
N2821 X4.7102 Y-1.2111
N2822 X4.712 Y-1.2047
N2823 X4.713 Y-1.1985
N2824 Y-1.1926
N2825 X4.7121 Y-1.1869
N2826 X4.7112 Y-1.1842
N2827 X4.7101 Y-1.1815
N2828 X4.7086 Y-1.1789
N2829 X4.7068 Y-1.1764
N2830 X4.7047 Y-1.174
N2831 X4.7023 Y-1.1716
N2832 X4.6405 Y-1.1169
N2833 X4.5751 Y-1.0627
N2834 X4.5071 Y-1.0102
N2835 X4.4379 Y-0.9605
N2836 X4.3712 Y-0.9158
N2837 X4.2948 Y-0.8684
N2838 X4.2205 Y-0.8258
N2839 X4.145 Y-0.7859
N2840 X4.0663 Y-0.7476
N2841 X3.9882 Y-0.713
N2842 X3.9108 Y-0.6818
N2843 X3.8282 Y-0.6517
N2844 X3.7477 Y-0.6255
N2845 X3.6701 Y-0.6031
N2846 X3.5875 Y-0.5821
N2847 X3.5034 Y-0.5638
N2848 X3.42 Y-0.5486
N2849 X3.3327 Y-0.5359
N2850 X3.2766 Y-0.5292
N2851 X3.2262 Y-0.5228
N2852 X3.2174 Y-0.5233
N2853 X3.2089 Y-0.5256
N2854 X3.2021 Y-0.5296
N2855 X3.1969 Y-0.5355
N2856 X3.1934 Y-0.5431
N2857 X3.1915 Y-0.5525
N2858 X3.1912 Y-0.5573
N2859 Y-1.274
N2860 X3.1933 Y-1.4286
N2861 X3.1939 Y-1.4904
N2862 X3.1937 Y-1.503
N2863 X3.1946 Y-1.5129
N2864 X3.1973 Y-1.522
N2865 X3.2015 Y-1.5296
N2866 X3.2077 Y-1.536
N2867 X3.2152 Y-1.5406
N2868 X3.2245 Y-1.5439
N2869 X3.2295 Y-1.5449
N2870 X3.2461 Y-1.5472
N2871 X3.3002 Y-1.5567
N2872 X3.3563 Y-1.5689
N2873 X3.405 Y-1.5813
N2874 X3.4122 Y-1.5832
N2875 X3.4595 Y-1.5972
N2876 X3.4744 Y-1.6021
N2877 X3.5162 Y-1.6163
N2878 X3.5679 Y-1.6359
N2879 X3.6209 Y-1.6584
N2880 X3.6697 Y-1.6813
N2881 X3.7193 Y-1.7069
N2882 X3.7415 Y-1.7193
N2883 X3.768 Y-1.7343
N2884 X3.79 Y-1.7477
N2885 X3.817 Y-1.7645
N2886 X3.841 Y-1.7806
N2887 X3.8756 Y-1.8052
N2888 X3.8994 Y-1.8222
N2889 X3.9037 Y-1.8253
N2890 X3.9097 Y-1.8295
N2891 X3.9121 Y-1.8309
N2892 X3.9217 Y-1.8383
N2893 X3.9565 Y-1.8659
N2894 X3.9932 Y-1.8972
N2895 X4.0178 Y-1.9218
N2896 X4.0212 Y-1.9247
N2897 X4.0775 Y-1.9796
N2898 X4.0992 Y-2.0031
N2899 X4.1315 Y-2.0354
N2900 X4.1628 Y-2.0722
N2901 X4.194 Y-2.1116
N2902 X4.197 Y-2.1157
N2903 X4.1991 Y-2.1187
N2904 X4.2032 Y-2.1249
N2905 X4.2063 Y-2.1291
N2906 X4.2283 Y-2.1598
N2907 X4.255 Y-2.1977
N2908 X4.2641 Y-2.2116
N2909 X4.2803 Y-2.2377
N2910 X4.2946 Y-2.2612
N2911 X4.309 Y-2.2865
N2912 X4.3223 Y-2.3104
N2913 X4.3357 Y-2.3362
N2914 X4.3481 Y-2.3606
N2915 X4.3605 Y-2.387
N2916 X4.3719 Y-2.4118
N2917 X4.3788 Y-2.428
N2918 X4.3858 Y-2.4402
N2919 X4.3922 Y-2.4469
N2920 X4.3993 Y-2.4515
N2921 X4.4089 Y-2.4548
N2922 X4.4185 Y-2.4557
N2923 X4.4282 Y-2.4549
N2924 X4.4454 Y-2.4517
N2925 X4.4763 Y-2.4495
N2926 X4.5072 Y-2.4493
N2927 X4.5381 Y-2.4497
N2928 X4.569
N2929 X5.2489
N2930 X5.3417 Y-2.4489
N2931 X5.3726 Y-2.4484
N2932 X5.4035 Y-2.4481
N2933 X5.4107
N2934 X5.4203 Y-2.4471
N2935 X5.4284 Y-2.4444
N2936 X5.4344 Y-2.4401
N2937 X5.4384 Y-2.4343
N2938 X5.4404 Y-2.4269
N2939 Y-2.4179
N2940 X5.4288 Y-2.3709
N2941 X5.4052 Y-2.288
N2942 X5.3786 Y-2.2055
N2943 X5.3494 Y-2.1249
N2944 X5.3176 Y-2.0454
N2945 X5.2828 Y-1.9665
N2946 X5.2436 Y-1.8855
N2947 X5.205 Y-1.8122
N2948 X5.1608 Y-1.7349
N2949 X5.1156 Y-1.6619
N2950 X5.0674 Y-1.5897
N2951 X5.0154 Y-1.5176
N2952 X4.9609 Y-1.4474
N2953 X4.9068 Y-1.3823
N2954 X4.8431 Y-1.3112
N2955 X4.7896 Y-1.2557
N2956 X4.7743 Y-1.2402
N2957 X4.7309 Y-1.1971
N2958 X4.7111 Y-1.1776
N2959 X4.7099 Y-1.1777
N2960 X4.7092 Y-1.1776
N2961 X4.7085 Y-1.1772
N2962 X4.7023 Y-1.1716
N2963 X4.6955 Y-1.1662
N2964 X4.6883 Y-1.1613
N2965 X4.6807 Y-1.157
N2966 X4.6727 Y-1.1535
N2967 X4.6645 Y-1.1506
N2968 X4.656 Y-1.1485
N2969 X4.6474 Y-1.1471
N2970 X4.6387 Y-1.1465
N2971 X4.63 Y-1.1467
N2972 X4.6213 Y-1.1476
N2973 X4.6127 Y-1.1492
N2974 X4.6043 Y-1.1516
N2975 X4.5962 Y-1.1548
N2976 X4.5883 Y-1.1586
N2977 X4.5809 Y-1.1631
N2978 X4.5738 Y-1.1682
N2979 X4.5672 Y-1.1739
N2980 X4.5611 Y-1.1802
N2981 Z0.16 F10.
N2982 G0 X4.2563 Y-1.8426
N2983 G3 X4.25 Y-1.839 Z0.0507 I0.0949 J0.1761 F10.
N2984 X4.238 Y-1.8314 Z-0.058 I0.1012 J0.1725
N2985 X4.2266 Y-1.8229 Z-0.1667 I0.1132 J0.1649
N2986 X4.2158 Y-1.8137 Z-0.2754 I0.1246 J0.1564
N2987 X4.2056 Y-1.8037 Z-0.3841 I0.1354 J0.1472
N2988 X4.4893 Y-1.5218 Z-0.44 I0.1456 J0.1372
N2989 G1 X4.4296 Y-1.4649 F24.
N2990 X4.3933 Y-1.4327
N2991 X4.3217 Y-1.3735
N2992 X4.2525 Y-1.3202
N2993 X4.1756 Y-1.2669
N2994 X4.0943 Y-1.2152
N2995 X4.0226 Y-1.1741
N2996 X3.9513 Y-1.1368
N2997 X3.8869 Y-1.1059
N2998 X3.8228 Y-1.078
N2999 X3.7564 Y-1.0516
N3000 X3.6937 Y-1.0291
N3001 X3.6551 Y-1.0168
N3002 X3.6428 Y-1.0149
N3003 X3.6293 Y-1.0152
N3004 X3.6188 Y-1.0179
N3005 X3.6117 Y-1.0216
N3006 X3.6056 Y-1.0268
N3007 X3.5994 Y-1.0355
N3008 X3.5952 Y-1.0456
N3009 X3.5925 Y-1.058
N3010 X3.5912 Y-1.0746
N3011 Y-1.14
N3012 X3.5924 Y-1.1582
N3013 X3.5955 Y-1.174
N3014 X3.6008 Y-1.1894
N3015 X3.6085 Y-1.2034
N3016 X3.6184 Y-1.2158
N3017 X3.6305 Y-1.2265
N3018 X3.6444 Y-1.2354
N3019 X3.6628 Y-1.2441
N3020 X3.7244 Y-1.2678
N3021 X3.7907 Y-1.2962
N3022 X3.8529 Y-1.3257
N3023 X3.9194 Y-1.3605
N3024 X4.0066 Y-1.4114
N3025 X4.0724 Y-1.4542
N3026 X4.1596 Y-1.5167
N3027 X4.2159 Y-1.5614
N3028 X4.2729 Y-1.6112
N3029 X4.3651 Y-1.7016
N3030 X4.436 Y-1.7761
N3031 X4.4801 Y-1.8287
N3032 X4.5305 Y-1.8949
N3033 X4.5933 Y-1.9847
N3034 X4.6062 Y-2.0021
N3035 X4.6192 Y-2.0156
N3036 X4.6332 Y-2.0268
N3037 X4.6495 Y-2.0363
N3038 X4.6671 Y-2.0434
N3039 X4.6846 Y-2.0477
N3040 X4.7031 Y-2.0499
N3041 X4.7145 Y-2.0503
N3042 X4.7993
N3043 X4.8182 Y-2.0488
N3044 X4.8306 Y-2.0459
N3045 X4.8402 Y-2.0412
N3046 X4.8462 Y-2.0359
N3047 X4.8503 Y-2.029
N3048 X4.8521 Y-2.0212
N3049 X4.8516 Y-2.0105
N3050 X4.8479 Y-1.9974
N3051 X4.8422 Y-1.9848
N3052 X4.7994 Y-1.9114
N3053 X4.7478 Y-1.8325
N3054 X4.6932 Y-1.7555
N3055 X4.6439 Y-1.6923
N3056 X4.5869 Y-1.6252
N3057 X4.5292 Y-1.5627
N3058 X4.4893 Y-1.5218
N3059 X4.487 Y-1.5193
N3060 X4.4851 Y-1.5167
N3061 X4.4835 Y-1.514
N3062 X4.4821 Y-1.5113
N3063 X4.4803 Y-1.5056
N3064 X4.4796 Y-1.4997
N3065 X4.4799 Y-1.4935
N3066 X4.4811 Y-1.4871
N3067 X4.4831 Y-1.4805
N3068 X4.4858 Y-1.4737
N3069 X4.4892 Y-1.4668
N3070 X4.4932 Y-1.4597
N3071 X4.4976 Y-1.4525
N3072 X4.5025 Y-1.4452
N3073 X4.5132 Y-1.4305
N3074 X4.5245 Y-1.4156
N3075 X4.5357 Y-1.4007
N3076 X4.5463 Y-1.386
N3077 X4.5511 Y-1.3788
N3078 X4.5555 Y-1.3717
N3079 X4.5594 Y-1.3647
N3080 X4.5627 Y-1.3579
N3081 X4.5653 Y-1.3512
N3082 X4.5672 Y-1.3447
N3083 X4.5682 Y-1.3385
N3084 X4.5684 Y-1.3324
N3085 X4.5675 Y-1.3266
N3086 X4.5655 Y-1.3211
N3087 X4.5641 Y-1.3185
N3088 X4.5624 Y-1.3159
N3089 X4.5604 Y-1.3134
N3090 X4.558 Y-1.311
N3091 X4.5568 Y-1.3099
N3092 X4.4901 Y-1.2527
N3093 X4.4157 Y-1.193
N3094 X4.3537 Y-1.1467
N3095 X4.2679 Y-1.0883
N3096 X4.1867 Y-1.0374
N3097 X4.1097 Y-0.9938
N3098 X4.0291 Y-0.9521
N3099 X3.9551 Y-0.9173
N3100 X3.8791 Y-0.8849
N3101 X3.8049 Y-0.8562
N3102 X3.7253 Y-0.8287
N3103 X3.6328 Y-0.8007
N3104 X3.5371 Y-0.7763
N3105 X3.4577 Y-0.76
N3106 X3.4421 Y-0.7596
N3107 X3.426 Y-0.7624
N3108 X3.4151 Y-0.7675
N3109 X3.4061 Y-0.7753
N3110 X3.3994 Y-0.7851
N3111 X3.3941 Y-0.8
N3112 X3.3917 Y-0.8165
N3113 X3.3913 Y-0.8249
N3114 X3.392 Y-1.2945
N3115 X3.3941 Y-1.3162
N3116 X3.3993 Y-1.3353
N3117 X3.4062 Y-1.3495
N3118 X3.4159 Y-1.3625
N3119 X3.4281 Y-1.3736
N3120 X3.4444 Y-1.3836
N3121 X3.4653 Y-1.3918
N3122 X3.5231 Y-1.4076
N3123 X3.5873 Y-1.4293
N3124 X3.6462 Y-1.4518
N3125 X3.7058 Y-1.4773
N3126 X3.7613 Y-1.5035
N3127 X3.8194 Y-1.5337
N3128 X3.8983 Y-1.5795
N3129 X3.9567 Y-1.6174
N3130 X4.0358 Y-1.6738
N3131 X4.0862 Y-1.7137
N3132 X4.133 Y-1.7542
N3133 X4.2213 Y-1.8406
N3134 X4.2837 Y-1.9057
N3135 X4.3214 Y-1.9505
N3136 X4.3668 Y-2.0099
N3137 X4.4278 Y-2.0966
N3138 X4.465 Y-2.1565
N3139 X4.4783 Y-2.181
N3140 X4.4897 Y-2.1987
N3141 X4.5029 Y-2.2142
N3142 X4.5187 Y-2.2277
N3143 X4.5357 Y-2.2377
N3144 X4.5537 Y-2.2447
N3145 X4.5734 Y-2.2489
N3146 X4.5936 Y-2.2505
N3147 X5.1049 Y-2.2499
N3148 X5.1262 Y-2.2476
N3149 X5.138 Y-2.244
N3150 X5.1484 Y-2.2381
N3151 X5.1563 Y-2.2291
N3152 X5.1607 Y-2.218
N3153 X5.1616 Y-2.2058
N3154 X5.1583 Y-2.1874
N3155 X5.1348 Y-2.128
N3156 X5.102 Y-2.0534
N3157 X5.0663 Y-1.9791
N3158 X5.0308 Y-1.9116
N3159 X4.9892 Y-1.8388
N3160 X4.9493 Y-1.7744
N3161 X4.8953 Y-1.6941
N3162 X4.8434 Y-1.6225
N3163 X4.7912 Y-1.5566
N3164 X4.7242 Y-1.4787
N3165 X4.6651 Y-1.4147
N3166 X4.6307 Y-1.3796
N3167 X4.6285 Y-1.3771
N3168 X4.6266 Y-1.3745
N3169 X4.6249 Y-1.3718
N3170 X4.6236 Y-1.3691
N3171 X4.6218 Y-1.3634
N3172 X4.6211 Y-1.3574
N3173 X4.6214 Y-1.3512
N3174 X4.6226 Y-1.3448
N3175 X4.6246 Y-1.3382
N3176 X4.6274 Y-1.3314
N3177 X4.6308 Y-1.3244
N3178 X4.6348 Y-1.3173
N3179 X4.6393 Y-1.3101
N3180 X4.6442 Y-1.3028
N3181 X4.6549 Y-1.288
N3182 X4.6662 Y-1.2731
N3183 X4.6774 Y-1.2582
N3184 X4.688 Y-1.2435
N3185 X4.6928 Y-1.2363
N3186 X4.6972 Y-1.2292
N3187 X4.7011 Y-1.2222
N3188 X4.7044 Y-1.2154
N3189 X4.7069 Y-1.2088
N3190 X4.7088 Y-1.2023
N3191 X4.7098 Y-1.1961
N3192 Y-1.1901
N3193 X4.7089 Y-1.1844
N3194 X4.708 Y-1.1817
N3195 X4.7069 Y-1.179
N3196 X4.7054 Y-1.1764
N3197 X4.7036 Y-1.1739
N3198 X4.7016 Y-1.1715
N3199 X4.6992 Y-1.1691
N3200 X4.6551 Y-1.1295
N3201 X4.5877 Y-1.0728
N3202 X4.5206 Y-1.0204
N3203 X4.4509 Y-0.9696
N3204 X4.3796 Y-0.9213
N3205 X4.3035 Y-0.8736
N3206 X4.2293 Y-0.8307
N3207 X4.154 Y-0.7904
N3208 X4.0755 Y-0.7519
N3209 X3.9975 Y-0.717
N3210 X3.9148 Y-0.6833
N3211 X3.8323 Y-0.6531
N3212 X3.7519 Y-0.6268
N3213 X3.6688 Y-0.6027
N3214 X3.5862 Y-0.5818
N3215 X3.5021 Y-0.5635
N3216 X3.4193 Y-0.5485
N3217 X3.337 Y-0.5364
N3218 X3.2807 Y-0.5297
N3219 X3.2766 Y-0.5292
N3220 X3.2259 Y-0.5228
N3221 X3.2161 Y-0.5236
N3222 X3.2079 Y-0.5261
N3223 X3.2013 Y-0.5305
N3224 X3.1964 Y-0.5366
N3225 X3.1931 Y-0.5444
N3226 X3.1914 Y-0.5541
N3227 X3.1913 Y-0.5583
N3228 Y-1.274
N3229 X3.1933 Y-1.4286
N3230 X3.1939 Y-1.4904
N3231 X3.1938 Y-1.5011
N3232 X3.195 Y-1.5146
N3233 X3.1979 Y-1.5234
N3234 X3.2025 Y-1.5308
N3235 X3.2089 Y-1.5369
N3236 X3.2168 Y-1.5413
N3237 X3.2263 Y-1.5443
N3238 X3.2305 Y-1.5451
N3239 X3.2461 Y-1.5472
N3240 X3.3002 Y-1.5567
N3241 X3.3563 Y-1.5689
N3242 X3.405 Y-1.5813
N3243 X3.4122 Y-1.5832
N3244 X3.4595 Y-1.5972
N3245 X3.4744 Y-1.6021
N3246 X3.5162 Y-1.6163
N3247 X3.5679 Y-1.6359
N3248 X3.6209 Y-1.6584
N3249 X3.6697 Y-1.6813
N3250 X3.7193 Y-1.7069
N3251 X3.7415 Y-1.7193
N3252 X3.768 Y-1.7343
N3253 X3.79 Y-1.7477
N3254 X3.817 Y-1.7645
N3255 X3.841 Y-1.7806
N3256 X3.8756 Y-1.8052
N3257 X3.8994 Y-1.8222
N3258 X3.9037 Y-1.8253
N3259 X3.9097 Y-1.8295
N3260 X3.9121 Y-1.8309
N3261 X3.9217 Y-1.8383
N3262 X3.9565 Y-1.8659
N3263 X3.9932 Y-1.8972
N3264 X4.0178 Y-1.9218
N3265 X4.0212 Y-1.9247
N3266 X4.0775 Y-1.9796
N3267 X4.0992 Y-2.0031
N3268 X4.1315 Y-2.0354
N3269 X4.1628 Y-2.0722
N3270 X4.194 Y-2.1116
N3271 X4.197 Y-2.1157
N3272 X4.1991 Y-2.1187
N3273 X4.2032 Y-2.1249
N3274 X4.2063 Y-2.1291
N3275 X4.2283 Y-2.1598
N3276 X4.255 Y-2.1977
N3277 X4.2641 Y-2.2116
N3278 X4.2803 Y-2.2377
N3279 X4.2946 Y-2.2612
N3280 X4.309 Y-2.2865
N3281 X4.3223 Y-2.3104
N3282 X4.3357 Y-2.3362
N3283 X4.3481 Y-2.3606
N3284 X4.3605 Y-2.387
N3285 X4.3719 Y-2.4118
N3286 X4.3781 Y-2.4264
N3287 X4.3831 Y-2.4352
N3288 X4.3891 Y-2.4425
N3289 X4.3962 Y-2.4479
N3290 X4.4055 Y-2.4518
N3291 X4.415 Y-2.4536
N3292 X4.4286 Y-2.453
N3293 X4.4454 Y-2.4506
N3294 X4.4763 Y-2.4495
N3295 X4.5072 Y-2.4493
N3296 X4.5381 Y-2.4496
N3297 X4.569 Y-2.4497
N3298 X5.2489
N3299 X5.3417 Y-2.4489
N3300 X5.3726 Y-2.4484
N3301 X5.4035 Y-2.4481
N3302 X5.4084
N3303 X5.4212 Y-2.4469
N3304 X5.4291 Y-2.444
N3305 X5.4349 Y-2.4396
N3306 X5.4387 Y-2.4336
N3307 X5.4405 Y-2.4261
N3308 X5.4403 Y-2.4169
N3309 X5.424 Y-2.3533
N3310 X5.3998 Y-2.2705
N3311 X5.3718 Y-2.1859
N3312 X5.341 Y-2.103
N3313 X5.3089 Y-2.0249
N3314 X5.2732 Y-1.9457
N3315 X5.2332 Y-1.8651
N3316 X5.1922 Y-1.7891
N3317 X5.1495 Y-1.7161
N3318 X5.102 Y-1.641
N3319 X5.0558 Y-1.5732
N3320 X5.003 Y-1.5011
N3321 X4.9483 Y-1.4318
N3322 X4.8945 Y-1.3682
N3323 X4.8372 Y-1.3049
N3324 X4.7718 Y-1.2377
N3325 X4.7576 Y-1.2236
N3326 X4.7366 Y-1.2027
N3327 X4.6992 Y-1.1691
N3328 X4.6924 Y-1.1636
N3329 X4.6852 Y-1.1586
N3330 X4.6776 Y-1.1543
N3331 X4.6697 Y-1.1507
N3332 X4.6615 Y-1.1478
N3333 X4.653 Y-1.1456
N3334 X4.6444 Y-1.1442
N3335 X4.6357 Y-1.1435
N3336 X4.627
N3337 X4.6183 Y-1.1444
N3338 X4.6097 Y-1.146
N3339 X4.6013 Y-1.1484
N3340 X4.5932 Y-1.1514
N3341 X4.5853 Y-1.1552
N3342 X4.5778 Y-1.1596
N3343 X4.5707 Y-1.1647
N3344 X4.564 Y-1.1703
N3345 X4.5579 Y-1.1766
N3346 Z-0.04 F10.
N3347 G0 X3.3723 Y-0.8702
N3348 G3 X3.3759 Y-0.8641 Z-0.1493 I0.1737 J-0.0991 F10.
N3349 X3.3838 Y-0.8522 Z-0.258 I0.1701 J-0.1052
N3350 X3.3926 Y-0.841 Z-0.3667 I0.1622 J-0.1171
N3351 X3.4021 Y-0.8304 Z-0.4754 I0.1534 J-0.1283
N3352 X3.4123 Y-0.8205 Z-0.5841 I0.1439 J-0.1389
N3353 X3.6875 Y-1.1107 Z-0.64 I0.1337 J-0.1488
N3354 G1 X3.7201 Y-1.078 F24.
N3355 X3.7275 Y-1.0692
N3356 X3.7297 Y-1.0657
N3357 X3.7311 Y-1.0626
N3358 X3.7319 Y-1.0598
N3359 X3.7324 Y-1.0569
N3360 Y-1.0544
N3361 X3.732 Y-1.0519
N3362 X3.7311 Y-1.0495
N3363 X3.7298 Y-1.0473
N3364 X3.728 Y-1.045
N3365 X3.7255 Y-1.0426
N3366 X3.7185 Y-1.0381
N3367 X3.7136 Y-1.0358
N3368 X3.6765 Y-1.023
N3369 X3.6314 Y-1.0087
N3370 X3.6202 Y-1.0063
N3371 X3.6159 Y-1.0061
N3372 X3.6122 Y-1.0062
N3373 X3.6089 Y-1.0068
N3374 X3.606 Y-1.0077
N3375 X3.6034 Y-1.0089
N3376 X3.6009 Y-1.0105
N3377 X3.5987 Y-1.0126
N3378 X3.5969 Y-1.0149
N3379 X3.5952 Y-1.0178
N3380 X3.5938 Y-1.0209
N3381 X3.5919 Y-1.029
N3382 X3.5912 Y-1.0384
N3383 Y-1.1648
N3384 X3.5921 Y-1.1766
N3385 X3.5929 Y-1.1802
N3386 X3.5938 Y-1.183
N3387 X3.595 Y-1.1852
N3388 X3.5963 Y-1.1868
N3389 X3.5976 Y-1.1879
N3390 X3.5991 Y-1.1887
N3391 X3.6008 Y-1.1891
N3392 X3.6025
N3393 X3.6046 Y-1.1888
N3394 X3.6102 Y-1.1861
N3395 X3.6183 Y-1.1797
N3396 X3.6208 Y-1.1773
N3397 X3.6875 Y-1.1107
N3398 X3.69 Y-1.1084
N3399 X3.6926 Y-1.1064
N3400 X3.6952 Y-1.1047
N3401 X3.6979 Y-1.1034
N3402 X3.7036 Y-1.1015
N3403 X3.7095 Y-1.1007
N3404 X3.7157 Y-1.101
N3405 X3.7221 Y-1.1021
N3406 X3.7287 Y-1.1041
N3407 X3.7354 Y-1.1069
N3408 X3.7423 Y-1.1103
N3409 X3.7494 Y-1.1143
N3410 X3.7566 Y-1.1188
N3411 X3.7638 Y-1.1238
N3412 X3.7786 Y-1.1346
N3413 X3.7935 Y-1.146
N3414 X3.8084 Y-1.1575
N3415 X3.8232 Y-1.1683
N3416 X3.8305 Y-1.1732
N3417 X3.8377 Y-1.1777
N3418 X3.8447 Y-1.1817
N3419 X3.8516 Y-1.1851
N3420 X3.8584 Y-1.1879
N3421 X3.865 Y-1.1899
N3422 X3.8713 Y-1.1911
N3423 X3.8775 Y-1.1913
N3424 X3.8834 Y-1.1905
N3425 X3.8891 Y-1.1887
N3426 X3.8918 Y-1.1873
N3427 X3.8945 Y-1.1857
N3428 X3.8971 Y-1.1837
N3429 X3.8996 Y-1.1814
N3430 X4.0399 Y-1.041
N3431 X4.0501 Y-1.0294
N3432 X4.0566 Y-1.0197
N3433 X4.0608 Y-1.0111
N3434 X4.063 Y-1.0035
N3435 X4.0638 Y-0.9955
N3436 X4.0628 Y-0.9877
N3437 X4.06 Y-0.9801
N3438 X4.0557 Y-0.9732
N3439 X4.0494 Y-0.9662
N3440 X4.041 Y-0.9593
N3441 X4.0313 Y-0.9533
N3442 X3.9796 Y-0.9284
N3443 X3.9123 Y-0.8986
N3444 X3.8401 Y-0.8693
N3445 X3.7681 Y-0.843
N3446 X3.6961 Y-0.8193
N3447 X3.6208 Y-0.7974
N3448 X3.5464 Y-0.7784
N3449 X3.4695 Y-0.7619
N3450 X3.455 Y-0.7598
N3451 X3.4426 Y-0.7596
N3452 X3.4316 Y-0.761
N3453 X3.4226 Y-0.7638
N3454 X3.4155 Y-0.7674
N3455 X3.409 Y-0.7723
N3456 X3.4037 Y-0.7784
N3457 X3.3988 Y-0.7866
N3458 X3.3953 Y-0.7957
N3459 X3.3929 Y-0.8062
N3460 X3.3915 Y-0.819
N3461 X3.3913 Y-0.8257
N3462 X3.392 Y-1.2934
N3463 X3.3931 Y-1.3093
N3464 X3.3956 Y-1.3231
N3465 X3.3995 Y-1.3355
N3466 X3.4049 Y-1.347
N3467 X3.4113 Y-1.3568
N3468 X3.4183 Y-1.3649
N3469 X3.427 Y-1.3726
N3470 X3.4377 Y-1.3798
N3471 X3.45 Y-1.386
N3472 X3.4635 Y-1.391
N3473 X3.5621 Y-1.4208
N3474 X3.5772 Y-1.4249
N3475 X3.5913 Y-1.4272
N3476 X3.6064 Y-1.4281
N3477 X3.62 Y-1.4274
N3478 X3.6327 Y-1.425
N3479 X3.645 Y-1.4211
N3480 X3.6569 Y-1.4157
N3481 X3.6688 Y-1.4085
N3482 X3.6804 Y-1.3998
N3483 X3.6897 Y-1.3913
N3484 X3.8289 Y-1.2521
N3485 X3.8314 Y-1.2498
N3486 X3.834 Y-1.2478
N3487 X3.8366 Y-1.2461
N3488 X3.8394 Y-1.2448
N3489 X3.845 Y-1.2429
N3490 X3.851 Y-1.2422
N3491 X3.8571 Y-1.2424
N3492 X3.8635 Y-1.2436
N3493 X3.8701 Y-1.2456
N3494 X3.8769 Y-1.2483
N3495 X3.8838 Y-1.2517
N3496 X3.8908 Y-1.2557
N3497 X3.898 Y-1.2603
N3498 X3.9053 Y-1.2652
N3499 X3.92 Y-1.276
N3500 X3.935 Y-1.2874
N3501 X3.9499 Y-1.2989
N3502 X3.9646 Y-1.3097
N3503 X3.9719 Y-1.3146
N3504 X3.9791 Y-1.3191
N3505 X3.9861 Y-1.3231
N3506 X3.9931 Y-1.3266
N3507 X3.9998 Y-1.3293
N3508 X4.0064 Y-1.3313
N3509 X4.0128 Y-1.3325
N3510 X4.0189 Y-1.3327
N3511 X4.0249 Y-1.332
N3512 X4.0305 Y-1.3301
N3513 X4.0333 Y-1.3287
N3514 X4.0359 Y-1.3271
N3515 X4.0385 Y-1.3251
N3516 X4.041 Y-1.3228
N3517 X4.3908 Y-0.973
N3518 X4.3981 Y-0.9635
N3519 X4.4013 Y-0.9562
N3520 X4.4022 Y-0.9483
N3521 X4.4001 Y-0.9406
N3522 X4.3957 Y-0.934
N3523 X4.3868 Y-0.926
N3524 X4.3131 Y-0.8794
N3525 X4.2441 Y-0.8389
N3526 X4.1697 Y-0.7985
N3527 X4.0915 Y-0.7594
N3528 X4.0151 Y-0.7246
N3529 X3.9378 Y-0.6923
N3530 X3.8572 Y-0.6619
N3531 X3.7775 Y-0.6348
N3532 X3.6954 Y-0.6101
N3533 X3.6138 Y-0.5884
N3534 X3.5302 Y-0.5693
N3535 X3.4472 Y-0.5533
N3536 X3.3649 Y-0.5403
N3537 X3.2766 Y-0.5292
N3538 X3.227 Y-0.5229
N3539 X3.2151 Y-0.5238
N3540 X3.2076 Y-0.5264
N3541 X3.201 Y-0.5309
N3542 X3.1961 Y-0.5372
N3543 X3.1931 Y-0.5446
N3544 X3.1913 Y-0.5564
N3545 Y-0.5585
N3546 Y-1.274
N3547 X3.1919 Y-1.3359
N3548 X3.1934 Y-1.4286
N3549 X3.1939 Y-1.4904
N3550 X3.1938 Y-1.5025
N3551 X3.195 Y-1.5144
N3552 X3.1974 Y-1.522
N3553 X3.2012 Y-1.529
N3554 X3.2066 Y-1.5349
N3555 X3.2131 Y-1.5395
N3556 X3.2245 Y-1.5439
N3557 X3.2321 Y-1.5453
N3558 X3.2461 Y-1.5472
N3559 X3.3002 Y-1.5567
N3560 X3.3563 Y-1.5689
N3561 X3.405 Y-1.5813
N3562 X3.4122 Y-1.5832
N3563 X3.4595 Y-1.5972
N3564 X3.4744 Y-1.6021
N3565 X3.5162 Y-1.6163
N3566 X3.5679 Y-1.6359
N3567 X3.6209 Y-1.6584
N3568 X3.6515 Y-1.6727
N3569 X3.6629 Y-1.6764
N3570 X3.6708 Y-1.6774
N3571 X3.6788 Y-1.6767
N3572 X3.6864 Y-1.6745
N3573 X3.6938 Y-1.6706
N3574 X3.7019 Y-1.6638
N3575 X3.7049 Y-1.6606
N3576 X3.7189 Y-1.6449
N3577 X3.9703 Y-1.3935
N3578 X4.041 Y-1.3228
N3579 X4.0469 Y-1.3164
N3580 X4.0522 Y-1.3094
N3581 X4.0569 Y-1.3021
N3582 X4.0609 Y-1.2943
N3583 X4.0643 Y-1.2863
N3584 X4.0669 Y-1.278
N3585 X4.0688 Y-1.2694
N3586 X4.0699 Y-1.2608
N3587 X4.0703 Y-1.2521
N3588 X4.0699 Y-1.2434
N3589 X4.0688 Y-1.2347
N3590 X4.0669 Y-1.2262
N3591 X4.0643 Y-1.2179
N3592 X4.0609 Y-1.2098
N3593 X4.0569 Y-1.2021
N3594 X4.0522 Y-1.1947
N3595 X4.0469 Y-1.1878
N3596 X4.041 Y-1.1814
N3597 Z-0.24 F10.
N3598 G0 Z-0.04
N3599 X5.2453 Y-2.2863
N3600 G3 X5.2417 Y-2.2925 Z-0.1493 I-0.1737 J0.099 F10.
N3601 X5.2337 Y-2.3043 Z-0.258 I-0.1701 J0.1052
N3602 X5.225 Y-2.3156 Z-0.3667 I-0.1621 J0.117
N3603 X5.2155 Y-2.3262 Z-0.4754 I-0.1534 J0.1283
N3604 X5.2053 Y-2.336 Z-0.5841 I-0.1439 J0.1389
N3605 X4.9301 Y-2.0459 Z-0.64 I-0.1337 J0.1487
N3606 G1 X4.7966 Y-2.1794 F24.
N3607 X4.788 Y-2.1888
N3608 X4.7821 Y-2.1963
N3609 X4.7782 Y-2.2025
N3610 X4.7759 Y-2.2074
N3611 X4.7745 Y-2.212
N3612 X4.7742 Y-2.2159
N3613 X4.7746 Y-2.2192
N3614 X4.7758 Y-2.2223
N3615 X4.7777 Y-2.225
N3616 X4.7806 Y-2.2277
N3617 X4.7847 Y-2.23
N3618 X4.7899 Y-2.232
N3619 X4.7966 Y-2.2336
N3620 X4.8064 Y-2.2349
N3621 X4.8204 Y-2.2354
N3622 X5.0972 Y-2.2353
N3623 X5.1095 Y-2.2347
N3624 X5.119 Y-2.2334
N3625 X5.1268 Y-2.2315
N3626 X5.1334 Y-2.2291
N3627 X5.1391 Y-2.2261
N3628 X5.1436 Y-2.2228
N3629 X5.1476 Y-2.2189
N3630 X5.1504 Y-2.2149
N3631 X5.1529 Y-2.2099
N3632 X5.1545 Y-2.2045
N3633 X5.1554 Y-2.1982
N3634 Y-2.1911
N3635 X5.1544 Y-2.1831
N3636 X5.1523 Y-2.1736
N3637 X5.1489 Y-2.1637
N3638 X5.1289 Y-2.1145
N3639 X5.1146 Y-2.0808
N3640 X5.0876 Y-2.0224
N3641 X5.0763 Y-1.9993
N3642 X5.0716 Y-1.9912
N3643 X5.0661 Y-1.9835
N3644 X5.0608 Y-1.9775
N3645 X5.0554 Y-1.9728
N3646 X5.05 Y-1.9693
N3647 X5.0449 Y-1.9669
N3648 X5.0395 Y-1.9654
N3649 X5.0339 Y-1.9648
N3650 X5.0282 Y-1.965
N3651 X5.0228 Y-1.9661
N3652 X5.0167 Y-1.9681
N3653 X5.0102 Y-1.9712
N3654 X5.0028 Y-1.9757
N3655 X4.9952 Y-1.9816
N3656 X4.9869 Y-1.9891
N3657 X4.9301 Y-2.0459
N3658 X4.9276 Y-2.0482
N3659 X4.925 Y-2.0502
N3660 X4.9224 Y-2.0518
N3661 X4.9196 Y-2.0532
N3662 X4.914 Y-2.0551
N3663 X4.9081 Y-2.0558
N3664 X4.9019 Y-2.0556
N3665 X4.8955 Y-2.0544
N3666 X4.8889 Y-2.0524
N3667 X4.8822 Y-2.0497
N3668 X4.8753 Y-2.0462
N3669 X4.8682 Y-2.0422
N3670 X4.861 Y-2.0377
N3671 X4.8538 Y-2.0328
N3672 X4.839 Y-2.022
N3673 X4.8241 Y-2.0105
N3674 X4.8092 Y-1.9991
N3675 X4.7944 Y-1.9883
N3676 X4.7871 Y-1.9833
N3677 X4.7799 Y-1.9788
N3678 X4.7729 Y-1.9748
N3679 X4.766 Y-1.9714
N3680 X4.7592 Y-1.9686
N3681 X4.7526 Y-1.9666
N3682 X4.7463 Y-1.9655
N3683 X4.7401 Y-1.9652
N3684 X4.7342 Y-1.966
N3685 X4.7285 Y-1.9679
N3686 X4.7258 Y-1.9692
N3687 X4.7231 Y-1.9709
N3688 X4.7205 Y-1.9729
N3689 X4.718 Y-1.9752
N3690 X4.3836 Y-2.3096
N3691 X4.3681 Y-2.3234
N3692 X4.3599 Y-2.3321
N3693 X4.3555 Y-2.3388
N3694 X4.3526 Y-2.3462
N3695 X4.3512 Y-2.3541
N3696 X4.3515 Y-2.3621
N3697 X4.3545 Y-2.3737
N3698 X4.3564 Y-2.3783
N3699 X4.3605 Y-2.387
N3700 X4.3719 Y-2.4118
N3701 X4.3785 Y-2.423
N3702 X4.3838 Y-2.4289
N3703 X4.3902 Y-2.4337
N3704 X4.3975 Y-2.437
N3705 X4.4053 Y-2.4387
N3706 X4.4172 Y-2.4392
N3707 X4.4206 Y-2.4389
N3708 X4.4454 Y-2.4356
N3709 X4.4763 Y-2.4351
N3710 X5.4056
N3711 X5.4175 Y-2.4339
N3712 X5.4251 Y-2.4314
N3713 X5.4285 Y-2.4293
N3714 X5.4316 Y-2.4267
N3715 X5.434 Y-2.4235
N3716 X5.4358 Y-2.42
N3717 X5.4374 Y-2.4122
N3718 X5.437 Y-2.4042
N3719 X5.4304 Y-2.377
N3720 X5.41 Y-2.3038
N3721 X5.3872 Y-2.2313
N3722 X5.362 Y-2.1586
N3723 X5.3339 Y-2.0852
N3724 X5.3054 Y-2.0167
N3725 X5.2743 Y-1.9481
N3726 X5.2395 Y-1.8774
N3727 X5.2047 Y-1.8116
N3728 X5.1671 Y-1.7455
N3729 X5.1288 Y-1.6826
N3730 X5.1004 Y-1.639
N3731 X5.095 Y-1.6332
N3732 X5.0884 Y-1.6287
N3733 X5.0847 Y-1.6272
N3734 X5.0808 Y-1.6264
N3735 X5.0768
N3736 X5.0691 Y-1.6283
N3737 X5.0621 Y-1.6323
N3738 X5.0551 Y-1.6381
N3739 X4.7887 Y-1.9045
N3740 X4.718 Y-1.9752
N3741 X4.7121 Y-1.9816
N3742 X4.7068 Y-1.9885
N3743 X4.7021 Y-1.9959
N3744 X4.6981 Y-2.0036
N3745 X4.6947 Y-2.0117
N3746 X4.6921 Y-2.02
N3747 X4.6902 Y-2.0285
N3748 X4.6891 Y-2.0372
N3749 X4.6887 Y-2.0459
N3750 X4.6891 Y-2.0546
N3751 X4.6902 Y-2.0632
N3752 X4.6921 Y-2.0718
N3753 X4.6947 Y-2.0801
N3754 X4.6981 Y-2.0881
N3755 X4.7021 Y-2.0959
N3756 X4.7068 Y-2.1032
N3757 X4.7121 Y-2.1102
N3758 X4.718 Y-2.1166
N3759 Z-0.24 F10.
N3760 G0 Z0.06
N3761 X4.9886 Y-1.9874
N3762 Z-0.14
N3763 G1 Z-0.54 F10.
N3764 G2 X4.793 Y-1.9003 I-0.0291 J0.1979
N3765 G1 X4.7479 Y-1.8326 F24.
N3766 X4.7186 Y-1.7907
N3767 X4.6932 Y-1.7556
N3768 X4.6619 Y-1.7149
N3769 X4.6467 Y-1.6958
N3770 X4.612 Y-1.6543
N3771 X4.5897 Y-1.6284
N3772 X4.5602 Y-1.5959
N3773 X4.5303 Y-1.5639
N3774 X4.5007 Y-1.5334
N3775 X4.4721 Y-1.5051
N3776 X4.4427 Y-1.4771
N3777 X4.4131 Y-1.4498
N3778 X4.393 Y-1.4324
N3779 X4.3527 Y-1.3987
N3780 X4.3226 Y-1.3742
N3781 X4.2823 Y-1.3428
N3782 X4.2504 Y-1.3187
N3783 X4.2126 Y-1.2922
N3784 X4.1571 Y-1.2545
N3785 X4.1283 Y-1.2354
N3786 G2 X3.9869 Y-1.094 I0.2792 J0.4206
N3787 G1 Z-0.14 F10.
N3788 G0 Z0.06
N3789 X5.0431 Y-1.933
N3790 Z-0.14
N3791 G1 Z-0.54 F10.
N3792 X4.9376 Y-1.7557 F24.
N3793 X4.8958 Y-1.6949
N3794 X4.866 Y-1.653
N3795 X4.8502 Y-1.6314
N3796 X4.8144 Y-1.5852
N3797 X4.7998 Y-1.567
N3798 X4.765 Y-1.5254
N3799 X4.7382 Y-1.4943
N3800 X4.7052 Y-1.4576
N3801 X4.6733 Y-1.4233
N3802 X4.6161 Y-1.3654
N3803 X4.5844 Y-1.3352
N3804 X4.5523 Y-1.3058
N3805 X4.5344 Y-1.29
N3806 X4.493 Y-1.2551
N3807 X4.4533 Y-1.2226
N3808 X4.4146 Y-1.1922
N3809 X4.3745 Y-1.1616
N3810 X4.3549 Y-1.1475
N3811 X4.3121 Y-1.1178
N3812 X4.2725 Y-1.0911
N3813 X4.0956 Y-0.9854
N3814 Z-0.14 F10.
N3815 G0 Z0.06
N3816 X5.0431 Y-1.933
N3817 Z-0.14
N3818 G1 Z-0.54 F10.
N3819 G3 X5.0823 Y-1.6112 I-0.16 J0.1828
N3820 G1 X5.052 Y-1.5678 F24.
N3821 X5.0253 Y-1.5309
N3822 X4.9982 Y-1.4949
N3823 X4.9711 Y-1.4601
N3824 X4.9427 Y-1.4249
N3825 X4.916 Y-1.393
N3826 X4.8854 Y-1.3579
N3827 X4.8516 Y-1.3203
N3828 X4.8211 Y-1.2879
N3829 X4.7593 Y-1.2253
N3830 X4.7364 Y-1.2026
N3831 X4.6856 Y-1.1564
N3832 X4.6526 Y-1.1273
N3833 X4.6148 Y-1.0952
N3834 X4.5809 Y-1.0674
N3835 X4.5454 Y-1.0393
N3836 X4.5082 Y-1.011
N3837 X4.4674 Y-0.9813
N3838 X4.4174 Y-0.9463
N3839 G3 X4.0956 Y-0.9854 I-0.1391 J-0.1989
N3840 G1 X4.0887 Y-0.9925
N3841 X4.0814 Y-0.9994
N3842 X4.0737 Y-1.0061
N3843 X4.0657 Y-1.0127
N3844 X4.0489 Y-1.0254
N3845 X4.0312 Y-1.0378
N3846 X3.9947 Y-1.0618
N3847 X3.9765 Y-1.0738
N3848 X3.9588 Y-1.086
N3849 X3.9419 Y-1.0985
N3850 X3.9338 Y-1.1049
N3851 X3.9261 Y-1.1115
N3852 X3.9188 Y-1.1182
N3853 X3.9118 Y-1.1251
N3854 X3.9053 Y-1.1322
N3855 X3.8992 Y-1.1395
N3856 X3.8937 Y-1.147
N3857 X3.8888 Y-1.1547
N3858 X3.8845 Y-1.1628
N3859 X3.8808 Y-1.1711
N3860 X3.8778 Y-1.1797
N3861 X3.8756 Y-1.1886
N3862 X3.8741 Y-1.1979
N3863 X3.8734 Y-1.2075
N3864 G3 X3.9723 Y-1.3914 I0.1997 J-0.0112 F10.
N3865 G1 X4.0066 Y-1.4114 F24.
N3866 X4.0724 Y-1.4542
N3867 X4.1596 Y-1.5167
N3868 X4.2159 Y-1.5614
N3869 X4.2729 Y-1.6112
N3870 X4.3651 Y-1.7016
N3871 X4.436 Y-1.7761
N3872 X4.4801 Y-1.8287
N3873 X4.5305 Y-1.8949
N3874 X4.5843 Y-1.9716
N3875 X4.5918 Y-1.9813
N3876 X4.5996 Y-1.9904
N3877 X4.6075 Y-1.9985
N3878 X4.615 Y-2.0051
N3879 X4.6231 Y-2.0113
N3880 X4.6578 Y-2.0355
N3881 G2 X4.7991 Y-2.1769 I-0.3267 J-0.468
N3882 G1 Z-0.14 F10.
N3883 G0 Z0.06
N3884 X3.7282 Y-1.3528
N3885 Z-0.14
N3886 G1 Z-0.54 F10.
N3887 G3 X3.8261 Y-1.5376 I0.1996 J-0.0126
N3888 G1 X3.8721 Y-1.5648 F24.
N3889 X3.9147 Y-1.5908
N3890 X3.9327 Y-1.6023
N3891 X3.9752 Y-1.6311
N3892 X3.9997 Y-1.6483
N3893 X4.0391 Y-1.6775
N3894 X4.0634 Y-1.6961
N3895 X4.0993 Y-1.7257
N3896 X4.1139 Y-1.7384
N3897 X4.1462 Y-1.7681
N3898 X4.1774 Y-1.7977
N3899 X4.2163 Y-1.8365
N3900 X4.2498 Y-1.8707
N3901 X4.2775 Y-1.9007
N3902 X4.2996 Y-1.9256
N3903 X4.3143 Y-1.9432
N3904 X4.3431 Y-1.9793
N3905 X4.3624 Y-2.0052
N3906 X4.3933 Y-2.0479
N3907 X4.4126 Y-2.0759
N3908 X4.438 Y-2.1143
N3909 X4.4487 Y-2.1311
N3910 X4.4905 Y-2.2028
N3911 G3 X4.741 Y-2.2351 I0.1377 J0.0804
N3912 G1 Z-0.14 F10.
N3913 G0 Z0.06
N3914 X3.593 Y-1.4315
N3915 Z-0.14
N3916 G1 Z-0.54 F10.
N3917 G3 X3.6847 Y-1.689 I0.1833 J-0.0798
N3918 G1 X3.7193 Y-1.7069 F24.
N3919 X3.7415 Y-1.7193
N3920 X3.768 Y-1.7343
N3921 X3.79 Y-1.7477
N3922 X3.817 Y-1.7645
N3923 X3.841 Y-1.7806
N3924 X3.8756 Y-1.8052
N3925 X3.9097 Y-1.8295
N3926 X3.9121 Y-1.8309
N3927 X3.9217 Y-1.8383
N3928 X3.9565 Y-1.8659
N3929 X3.9932 Y-1.8972
N3930 X4.0178 Y-1.9218
N3931 X4.0212 Y-1.9247
N3932 X4.0775 Y-1.9796
N3933 X4.1049 Y-2.0085
N3934 X4.1315 Y-2.0354
N3935 X4.1628 Y-2.0722
N3936 X4.194 Y-2.1116
N3937 X4.197 Y-2.1157
N3938 X4.1991 Y-2.1187
N3939 X4.2283 Y-2.1598
N3940 X4.255 Y-2.1977
N3941 X4.2641 Y-2.2116
N3942 X4.2803 Y-2.2377
N3943 X4.2946 Y-2.2612
N3944 X4.309 Y-2.2865
N3945 X4.3223 Y-2.3104
N3946 X4.3357 Y-2.3362
N3947 X4.3395 Y-2.3437
N3948 G3 X4.5839 Y-2.3853 I0.1376 J0.0699
N3949 G1 X4.741 Y-2.2351
N3950 Z-0.14 F10.
N3951 G0 X5.2195 Y-1.9978
N3952 Z-0.21
N3953 G1 X5.2193 Y-1.9982 F10.
N3954 X5.219 Y-1.9989
N3955 Y-1.9995 Z-0.2101
N3956 X5.2195 Y-1.9998
N3957 X5.2392 Z-0.2119
N3958 X5.2742 Y-1.9996 Z-0.215
N3959 X5.2801 Y-1.9986 Z-0.2155
N3960 X5.2822 Y-1.9978 Z-0.2157
N3961 X5.284 Y-1.997 Z-0.2158
N3962 X5.2856 Y-1.9959 Z-0.216
N3963 X5.2869 Y-1.9948 Z-0.2162
N3964 X5.2879 Y-1.9934 Z-0.2163
N3965 X5.2887 Y-1.992 Z-0.2165
N3966 X5.2893 Y-1.9904 Z-0.2166
N3967 X5.2897 Y-1.9884 Z-0.2168
N3968 Y-1.9865 Z-0.217
N3969 X5.2891 Y-1.9815 Z-0.2174
N3970 X5.2868 Y-1.975 Z-0.218
N3971 X5.2628 Y-1.9241 Z-0.2229
N3972 X5.2594 Y-1.9186 Z-0.2235
N3973 X5.2576 Y-1.9164 Z-0.2237
N3974 X5.256 Y-1.9149 Z-0.2239
N3975 X5.2544 Y-1.9137 Z-0.2241
N3976 X5.2527 Y-1.9127 Z-0.2243
N3977 X5.2511 Y-1.9121 Z-0.2244
N3978 X5.2494 Y-1.9117 Z-0.2246
N3979 X5.2477 Z-0.2247
N3980 X5.2461 Z-0.2249
N3981 X5.2441 Y-1.9122 Z-0.225
N3982 X5.242 Y-1.9129 Z-0.2252
N3983 X5.2375 Y-1.9157 Z-0.2257
N3984 X5.2297 Y-1.923 Z-0.2266
N3985 X5.1698 Y-1.9832 Z-0.2341
N3986 X5.1664 Y-1.988 Z-0.2346
N3987 X5.1656 Y-1.9897 Z-0.2347
N3988 X5.1651 Y-1.9913 Z-0.2349
N3989 X5.1649 Y-1.9927 Z-0.235
N3990 Y-1.9938 Z-0.2351
N3991 X5.1654 Y-1.9949 Z-0.2352
N3992 X5.166 Y-1.9959 Z-0.2353
N3993 X5.1668 Y-1.9967 Z-0.2354
N3994 X5.1679 Y-1.9975 Z-0.2355
N3995 X5.1694 Y-1.9982 Z-0.2357
N3996 X5.1745 Y-1.9994 Z-0.2361
N3997 X5.181 Y-1.9998 Z-0.2367
N3998 X5.2392 Z-0.2418
N3999 X5.2742 Y-1.9996 Z-0.2449
N4000 X5.2801 Y-1.9986 Z-0.2454
N4001 X5.2822 Y-1.9978 Z-0.2456
N4002 X5.284 Y-1.997 Z-0.2458
N4003 X5.2856 Y-1.9959 Z-0.2459
N4004 X5.2869 Y-1.9948 Z-0.2461
N4005 X5.2879 Y-1.9934 Z-0.2462
N4006 X5.2887 Y-1.992 Z-0.2464
N4007 X5.2893 Y-1.9904 Z-0.2465
N4008 X5.2897 Y-1.9884 Z-0.2467
N4009 Y-1.9865 Z-0.2469
N4010 X5.2891 Y-1.9815 Z-0.2473
N4011 X5.2868 Y-1.975 Z-0.2479
N4012 X5.2628 Y-1.9241 Z-0.2528
N4013 X5.2594 Y-1.9186 Z-0.2534
N4014 X5.2576 Y-1.9164 Z-0.2536
N4015 X5.256 Y-1.9149 Z-0.2538
N4016 X5.2544 Y-1.9137 Z-0.254
N4017 X5.2527 Y-1.9127 Z-0.2542
N4018 X5.2511 Y-1.9121 Z-0.2543
N4019 X5.2494 Y-1.9117 Z-0.2545
N4020 X5.2477 Z-0.2546
N4021 X5.2461 Z-0.2548
N4022 X5.2441 Y-1.9122 Z-0.2549
N4023 X5.242 Y-1.9129 Z-0.2551
N4024 X5.2375 Y-1.9157 Z-0.2556
N4025 X5.2297 Y-1.923 Z-0.2565
N4026 X5.1698 Y-1.9832 Z-0.264
N4027 X5.1664 Y-1.988 Z-0.2645
N4028 X5.1656 Y-1.9897 Z-0.2647
N4029 X5.1651 Y-1.9913
N4030 X5.1649 Y-1.9927 Z-0.2649
N4031 Y-1.9938 Z-0.265
N4032 X5.1654 Y-1.9949 Z-0.2651
N4033 X5.166 Y-1.9959 Z-0.2652
N4034 X5.1668 Y-1.9967 Z-0.2653
N4035 X5.1679 Y-1.9975 Z-0.2654
N4036 X5.1694 Y-1.9982 Z-0.2656
N4037 X5.1745 Y-1.9994 Z-0.266
N4038 X5.181 Y-1.9998 Z-0.2666
N4039 X5.2392 Z-0.2717
N4040 X5.2742 Y-1.9996 Z-0.2748
N4041 X5.2801 Y-1.9986 Z-0.2753
N4042 X5.2822 Y-1.9978 Z-0.2755
N4043 X5.284 Y-1.997 Z-0.2757
N4044 X5.2856 Y-1.9959 Z-0.2758
N4045 X5.2869 Y-1.9948 Z-0.276
N4046 X5.2879 Y-1.9934 Z-0.2761
N4047 X5.2887 Y-1.992 Z-0.2763
N4048 X5.2893 Y-1.9904 Z-0.2764
N4049 X5.2897 Y-1.9884 Z-0.2766
N4050 Y-1.9865 Z-0.2768
N4051 X5.2891 Y-1.9815 Z-0.2772
N4052 X5.2868 Y-1.975 Z-0.2778
N4053 X5.2628 Y-1.9241 Z-0.2827
N4054 X5.2594 Y-1.9186 Z-0.2833
N4055 X5.2576 Y-1.9164 Z-0.2835
N4056 X5.256 Y-1.9149 Z-0.2837
N4057 X5.2544 Y-1.9137 Z-0.2839
N4058 X5.2527 Y-1.9127 Z-0.2841
N4059 X5.2511 Y-1.9121 Z-0.2842
N4060 X5.2494 Y-1.9117 Z-0.2844
N4061 X5.2477 Z-0.2845
N4062 X5.2461 Z-0.2847
N4063 X5.2441 Y-1.9122 Z-0.2849
N4064 X5.242 Y-1.9129 Z-0.285
N4065 X5.2375 Y-1.9157 Z-0.2855
N4066 X5.2297 Y-1.923 Z-0.2864
N4067 X5.1698 Y-1.9832 Z-0.2939
N4068 X5.1664 Y-1.988 Z-0.2944
N4069 X5.1656 Y-1.9897 Z-0.2946
N4070 X5.1651 Y-1.9913 Z-0.2947
N4071 X5.1649 Y-1.9927 Z-0.2948
N4072 Y-1.9938 Z-0.2949
N4073 X5.1654 Y-1.9949 Z-0.295
N4074 X5.166 Y-1.9959 Z-0.2951
N4075 X5.1668 Y-1.9967 Z-0.2952
N4076 X5.1679 Y-1.9975 Z-0.2954
N4077 X5.1694 Y-1.9982
N4078 X5.1745 Y-1.9994 Z-0.296
N4079 X5.181 Y-1.9998 Z-0.2965
N4080 X5.2392 Z-0.3016
N4081 X5.2742 Y-1.9996 Z-0.3047
N4082 X5.2801 Y-1.9986 Z-0.3052
N4083 X5.2822 Y-1.9978 Z-0.3054
N4084 X5.284 Y-1.997 Z-0.3056
N4085 X5.2856 Y-1.9959 Z-0.3057
N4086 X5.2869 Y-1.9948 Z-0.3059
N4087 X5.2879 Y-1.9934 Z-0.306
N4088 X5.2887 Y-1.992 Z-0.3062
N4089 X5.2893 Y-1.9904 Z-0.3063
N4090 X5.2897 Y-1.9884 Z-0.3065
N4091 Y-1.9865 Z-0.3067
N4092 X5.2891 Y-1.9815 Z-0.3071
N4093 X5.2868 Y-1.975 Z-0.3077
N4094 X5.2628 Y-1.9241 Z-0.3126
N4095 X5.2594 Y-1.9186 Z-0.3132
N4096 X5.2576 Y-1.9164 Z-0.3135
N4097 X5.256 Y-1.9149 Z-0.3136
N4098 X5.2544 Y-1.9137 Z-0.3138
N4099 X5.2527 Y-1.9127 Z-0.314
N4100 X5.2511 Y-1.9121 Z-0.3141
N4101 X5.2494 Y-1.9117 Z-0.3143
N4102 X5.2477 Z-0.3144
N4103 X5.2461 Z-0.3146
N4104 X5.2441 Y-1.9122 Z-0.3148
N4105 X5.242 Y-1.9129 Z-0.315
N4106 X5.2375 Y-1.9157 Z-0.3154
N4107 X5.2297 Y-1.923 Z-0.3164
N4108 X5.1698 Y-1.9832 Z-0.3238
N4109 X5.1664 Y-1.988 Z-0.3243
N4110 X5.1656 Y-1.9897 Z-0.3245
N4111 X5.1651 Y-1.9913 Z-0.3246
N4112 X5.1649 Y-1.9927 Z-0.3247
N4113 Y-1.9938 Z-0.3248
N4114 X5.1654 Y-1.9949 Z-0.3249
N4115 X5.166 Y-1.9959 Z-0.325
N4116 X5.1668 Y-1.9967 Z-0.3251
N4117 X5.1679 Y-1.9975 Z-0.3253
N4118 X5.1694 Y-1.9982 Z-0.3254
N4119 X5.1745 Y-1.9994 Z-0.3259
N4120 X5.181 Y-1.9998 Z-0.3264
N4121 X5.2392 Z-0.3315
N4122 X5.2742 Y-1.9996 Z-0.3346
N4123 X5.2801 Y-1.9986 Z-0.3351
N4124 X5.2822 Y-1.9978 Z-0.3353
N4125 X5.284 Y-1.997 Z-0.3355
N4126 X5.2856 Y-1.9959 Z-0.3356
N4127 X5.2869 Y-1.9948 Z-0.3358
N4128 X5.2879 Y-1.9934 Z-0.3359
N4129 X5.2887 Y-1.992 Z-0.3361
N4130 X5.2893 Y-1.9904 Z-0.3362
N4131 X5.2897 Y-1.9884 Z-0.3364
N4132 Y-1.9865 Z-0.3366
N4133 X5.2891 Y-1.9815 Z-0.337
N4134 X5.2868 Y-1.975 Z-0.3376
N4135 X5.2628 Y-1.9241 Z-0.3425
N4136 X5.2594 Y-1.9186 Z-0.3431
N4137 X5.2576 Y-1.9164 Z-0.3434
N4138 X5.256 Y-1.9149 Z-0.3436
N4139 X5.2544 Y-1.9137 Z-0.3437
N4140 X5.2527 Y-1.9127 Z-0.3439
N4141 X5.2511 Y-1.9121 Z-0.344
N4142 X5.2494 Y-1.9117 Z-0.3442
N4143 X5.2477 Z-0.3443
N4144 X5.2461 Z-0.3445
N4145 X5.2441 Y-1.9122 Z-0.3447
N4146 X5.242 Y-1.9129 Z-0.3449
N4147 X5.2375 Y-1.9157 Z-0.3453
N4148 X5.2297 Y-1.923 Z-0.3463
N4149 X5.1698 Y-1.9832 Z-0.3537
N4150 X5.1664 Y-1.988 Z-0.3542
N4151 X5.1656 Y-1.9897 Z-0.3544
N4152 X5.1651 Y-1.9913 Z-0.3545
