%
O1005
( POST FILE   : haas_ngc.py )
( POST VERSION: 1.217.722 )
( CAM SYSTEM  : CamStudio, Version 1.217.3100.4d4104d9a )
( CAM FILE    : Job )
( MACHINE     : 3AxGenericVertical-default )
( CREATED ON  : 2026-06-30T16:29:39 )
( CREATED BY  : MW PPFramework v2.15.0 )

( --- TOOL LIST BEGIN --- )
( --- Tooling parameters generated in 'Imperial' unit --- )
( T2 D0.25 in End mill, TL=4.325, CL=1.75, FL=1.0 )
( --- TOOL LIST END --- )

N1 G20
N2 G17 G40 G49 G80 G90
( Operation: Face )
N3 T2 M6 (D0.25 in End mill)
N4 S3060 M3
N5 G0 G90 G54 G94 ( Work plane )
N6 G0 X0.2025 Y-6.326
N7 G43 Z0.5906 H02
N8 M8
N9 Z0.34
N10 G1 Z-0.06 F10.
N11 G2 X0.265 Y-6.2635 I0.0625 J0. F24.
N12 G1 X6.265
N13 X6.2767 Y-6.2631
N14 X6.2877 Y-6.262
N15 X6.2979 Y-6.2601
N16 X6.3073 Y-6.2575
N17 X6.316 Y-6.254
N18 X6.324 Y-6.2499
N19 X6.3312 Y-6.245
N20 X6.3376 Y-6.2393
N21 X6.3433 Y-6.2329
N22 X6.3482 Y-6.2257
N23 X6.3523 Y-6.2178
N24 X6.3557 Y-6.2091
N25 X6.3584 Y-6.1996
N26 X6.3603 Y-6.1894
N27 X6.3614 Y-6.1784
N28 X6.3618 Y-6.1667
N29 X6.3614 Y-6.155
N30 X6.3603 Y-6.144
N31 X6.3584 Y-6.1338
N32 X6.3557 Y-6.1244
N33 X6.3523 Y-6.1157
N34 X6.3482 Y-6.1078
N35 X6.3433 Y-6.1006
N36 X6.3376 Y-6.0941
N37 X6.3312 Y-6.0885
N38 X6.324 Y-6.0836
N39 X6.316 Y-6.0794
N40 X6.3073 Y-6.076
N41 X6.2979 Y-6.0734
N42 X6.2877 Y-6.0715
N43 X6.2767 Y-6.0703
N44 X6.265 Y-6.07
N45 X0.265
N46 X0.2533 Y-6.0696
N47 X0.2423 Y-6.0684
N48 X0.2321 Y-6.0665
N49 X0.2227 Y-6.0639
N50 X0.214 Y-6.0605
N51 X0.206 Y-6.0563
N52 X0.1988 Y-6.0514
N53 X0.1924 Y-6.0458
N54 X0.1867 Y-6.0393
N55 X0.1818 Y-6.0321
N56 X0.1777 Y-6.0242
N57 X0.1743 Y-6.0155
N58 X0.1716 Y-6.0061
N59 X0.1697 Y-5.9959
N60 X0.1686 Y-5.9849
N61 X0.1682 Y-5.9732
N62 X0.1686 Y-5.9615
N63 X0.1697 Y-5.9505
N64 X0.1716 Y-5.9403
N65 X0.1743 Y-5.9308
N66 X0.1777 Y-5.9221
N67 X0.1818 Y-5.9142
N68 X0.1867 Y-5.907
N69 X0.1924 Y-5.9006
N70 X0.1988 Y-5.8949
N71 X0.206 Y-5.89
N72 X0.214 Y-5.8859
N73 X0.2227 Y-5.8825
N74 X0.2321 Y-5.8798
N75 X0.2423 Y-5.8779
N76 X0.2533 Y-5.8768
N77 X0.265 Y-5.8764
N78 X6.265
N79 X6.2767 Y-5.876
N80 X6.2877 Y-5.8749
N81 X6.2979 Y-5.873
N82 X6.3073 Y-5.8704
N83 X6.316 Y-5.867
N84 X6.324 Y-5.8628
N85 X6.3312 Y-5.8579
N86 X6.3376 Y-5.8522
N87 X6.3433 Y-5.8458
N88 X6.3482 Y-5.8386
N89 X6.3523 Y-5.8307
N90 X6.3557 Y-5.822
N91 X6.3584 Y-5.8125
N92 X6.3603 Y-5.8023
N93 X6.3614 Y-5.7913
N94 X6.3618 Y-5.7796
N95 X6.3614 Y-5.7679
N96 X6.3603 Y-5.7569
N97 X6.3584 Y-5.7467
N98 X6.3557 Y-5.7373
N99 X6.3523 Y-5.7286
N100 X6.3482 Y-5.7207
N101 X6.3433 Y-5.7135
N102 X6.3376 Y-5.707
N103 X6.3312 Y-5.7014
N104 X6.324 Y-5.6965
N105 X6.316 Y-5.6923
N106 X6.3073 Y-5.6889
N107 X6.2979 Y-5.6863
N108 X6.2877 Y-5.6844
N109 X6.2767 Y-5.6832
N110 X6.265 Y-5.6829
N111 X0.265
N112 X0.2533 Y-5.6825
N113 X0.2423 Y-5.6813
N114 X0.2321 Y-5.6795
N115 X0.2227 Y-5.6768
N116 X0.214 Y-5.6734
N117 X0.206 Y-5.6692
N118 X0.1988 Y-5.6643
N119 X0.1924 Y-5.6587
N120 X0.1867 Y-5.6522
N121 X0.1818 Y-5.6451
N122 X0.1777 Y-5.6371
N123 X0.1743 Y-5.6284
N124 X0.1716 Y-5.619
N125 X0.1697 Y-5.6088
N126 X0.1686 Y-5.5978
N127 X0.1682 Y-5.5861
N128 X0.1686 Y-5.5744
N129 X0.1697 Y-5.5634
N130 X0.1716 Y-5.5532
N131 X0.1743 Y-5.5437
N132 X0.1777 Y-5.535
N133 X0.1818 Y-5.5271
N134 X0.1867 Y-5.5199
N135 X0.1924 Y-5.5135
N136 X0.1988 Y-5.5078
N137 X0.206 Y-5.5029
N138 X0.214 Y-5.4988
N139 X0.2227 Y-5.4954
N140 X0.2321 Y-5.4927
N141 X0.2423 Y-5.4908
N142 X0.2533 Y-5.4897
N143 X0.265 Y-5.4893
N144 X6.265
N145 X6.2767 Y-5.4889
N146 X6.2877 Y-5.4878
N147 X6.2979 Y-5.4859
N148 X6.3073 Y-5.4833
N149 X6.316 Y-5.4799
N150 X6.324 Y-5.4757
N151 X6.3312 Y-5.4708
N152 X6.3376 Y-5.4651
N153 X6.3433 Y-5.4587
N154 X6.3482 Y-5.4515
N155 X6.3523 Y-5.4436
N156 X6.3557 Y-5.4349
N157 X6.3584 Y-5.4254
N158 X6.3603 Y-5.4152
N159 X6.3614 Y-5.4043
N160 X6.3618 Y-5.3925
N161 X6.3614 Y-5.3808
N162 X6.3603 Y-5.3699
N163 X6.3584 Y-5.3596
N164 X6.3557 Y-5.3502
N165 X6.3523 Y-5.3415
N166 X6.3482 Y-5.3336
N167 X6.3433 Y-5.3264
N168 X6.3376 Y-5.32
N169 X6.3312 Y-5.3143
N170 X6.324 Y-5.3094
N171 X6.316 Y-5.3052
N172 X6.3073 Y-5.3018
N173 X6.2979 Y-5.2992
N174 X6.2877 Y-5.2973
N175 X6.2767 Y-5.2961
N176 X6.265 Y-5.2958
N177 X0.265
N178 X0.2533 Y-5.2954
N179 X0.2423 Y-5.2942
N180 X0.2321 Y-5.2924
N181 X0.2227 Y-5.2897
N182 X0.214 Y-5.2863
N183 X0.206 Y-5.2821
N184 X0.1988 Y-5.2772
N185 X0.1924 Y-5.2716
N186 X0.1867 Y-5.2651
N187 X0.1818 Y-5.258
N188 X0.1777 Y-5.25
N189 X0.1743 Y-5.2413
N190 X0.1716 Y-5.2319
N191 X0.1697 Y-5.2217
N192 X0.1686 Y-5.2107
N193 X0.1682 Y-5.199
N194 X0.1686 Y-5.1873
N195 X0.1697 Y-5.1763
N196 X0.1716 Y-5.1661
N197 X0.1743 Y-5.1566
N198 X0.1777 Y-5.148
N199 X0.1818 Y-5.14
N200 X0.1867 Y-5.1328
N201 X0.1924 Y-5.1264
N202 X0.1988 Y-5.1207
N203 X0.206 Y-5.1158
N204 X0.214 Y-5.1117
N205 X0.2227 Y-5.1083
N206 X0.2321 Y-5.1056
N207 X0.2423 Y-5.1037
N208 X0.2533 Y-5.1026
N209 X0.265 Y-5.1022
N210 X6.265
N211 X6.2767 Y-5.1018
N212 X6.2877 Y-5.1007
N213 X6.2979 Y-5.0988
N214 X6.3073 Y-5.0962
N215 X6.316 Y-5.0928
N216 X6.324 Y-5.0886
N217 X6.3312 Y-5.0837
N218 X6.3376 Y-5.078
N219 X6.3433 Y-5.0716
N220 X6.3482 Y-5.0644
N221 X6.3523 Y-5.0565
N222 X6.3557 Y-5.0478
N223 X6.3584 Y-5.0383
N224 X6.3603 Y-5.0281
N225 X6.3614 Y-5.0172
N226 X6.3618 Y-5.0054
N227 X6.3614 Y-4.9937
N228 X6.3603 Y-4.9828
N229 X6.3584 Y-4.9725
N230 X6.3557 Y-4.9631
N231 X6.3523 Y-4.9544
N232 X6.3482 Y-4.9465
N233 X6.3433 Y-4.9393
N234 X6.3376 Y-4.9329
N235 X6.3312 Y-4.9272
N236 X6.324 Y-4.9223
N237 X6.316 Y-4.9181
N238 X6.3073 Y-4.9147
N239 X6.2979 Y-4.9121
N240 X6.2877 Y-4.9102
N241 X6.2767 Y-4.909
N242 X6.265 Y-4.9087
N243 X0.265
N244 X0.2533 Y-4.9083
N245 X0.2423 Y-4.9071
N246 X0.2321 Y-4.9053
N247 X0.2227 Y-4.9026
N248 X0.214 Y-4.8992
N249 X0.206 Y-4.8951
N250 X0.1988 Y-4.8901
N251 X0.1924 Y-4.8845
N252 X0.1867 Y-4.878
N253 X0.1818 Y-4.8709
N254 X0.1777 Y-4.8629
N255 X0.1743 Y-4.8542
N256 X0.1716 Y-4.8448
N257 X0.1697 Y-4.8346
N258 X0.1686 Y-4.8236
N259 X0.1682 Y-4.8119
N260 X0.1686 Y-4.8002
N261 X0.1697 Y-4.7892
N262 X0.1716 Y-4.779
N263 X0.1743 Y-4.7695
N264 X0.1777 Y-4.7609
N265 X0.1818 Y-4.7529
N266 X0.1867 Y-4.7457
N267 X0.1924 Y-4.7393
N268 X0.1988 Y-4.7336
N269 X0.206 Y-4.7287
N270 X0.214 Y-4.7246
N271 X0.2227 Y-4.7212
N272 X0.2321 Y-4.7185
N273 X0.2423 Y-4.7166
N274 X0.2533 Y-4.7155
N275 X0.265 Y-4.7151
N276 X6.265
N277 X6.2767 Y-4.7147
N278 X6.2877 Y-4.7136
N279 X6.2979 Y-4.7117
N280 X6.3073 Y-4.7091
N281 X6.316 Y-4.7057
N282 X6.324 Y-4.7015
N283 X6.3312 Y-4.6966
N284 X6.3376 Y-4.6909
N285 X6.3433 Y-4.6845
N286 X6.3482 Y-4.6773
N287 X6.3523 Y-4.6694
N288 X6.3557 Y-4.6607
N289 X6.3584 Y-4.6512
N290 X6.3603 Y-4.641
N291 X6.3614 Y-4.6301
N292 X6.3618 Y-4.6183
N293 X6.3614 Y-4.6066
N294 X6.3603 Y-4.5957
N295 X6.3584 Y-4.5855
N296 X6.3557 Y-4.576
N297 X6.3523 Y-4.5673
N298 X6.3482 Y-4.5594
N299 X6.3433 Y-4.5522
N300 X6.3376 Y-4.5458
N301 X6.3312 Y-4.5401
N302 X6.324 Y-4.5352
N303 X6.316 Y-4.531
N304 X6.3073 Y-4.5276
N305 X6.2979 Y-4.525
N306 X6.2877 Y-4.5231
N307 X6.2767 Y-4.5219
N308 X6.265 Y-4.5216
N309 X0.265
N310 X0.2533 Y-4.5212
N311 X0.2423 Y-4.5201
N312 X0.2321 Y-4.5182
N313 X0.2227 Y-4.5155
N314 X0.214 Y-4.5121
N315 X0.206 Y-4.508
N316 X0.1988 Y-4.503
N317 X0.1924 Y-4.4974
N318 X0.1867 Y-4.4909
N319 X0.1818 Y-4.4838
N320 X0.1777 Y-4.4758
N321 X0.1743 Y-4.4671
N322 X0.1716 Y-4.4577
N323 X0.1697 Y-4.4475
N324 X0.1686 Y-4.4365
N325 X0.1682 Y-4.4248
N326 X0.1686 Y-4.4131
N327 X0.1697 Y-4.4021
N328 X0.1716 Y-4.3919
N329 X0.1743 Y-4.3825
N330 X0.1777 Y-4.3738
N331 X0.1818 Y-4.3658
N332 X0.1867 Y-4.3586
N333 X0.1924 Y-4.3522
N334 X0.1988 Y-4.3465
N335 X0.206 Y-4.3416
N336 X0.214 Y-4.3375
N337 X0.2227 Y-4.3341
N338 X0.2321 Y-4.3314
N339 X0.2423 Y-4.3295
N340 X0.2533 Y-4.3284
N341 X0.265 Y-4.328
N342 X6.265
N343 X6.2767 Y-4.3276
N344 X6.2877 Y-4.3265
N345 X6.2979 Y-4.3246
N346 X6.3073 Y-4.322
N347 X6.316 Y-4.3186
N348 X6.324 Y-4.3144
N349 X6.3312 Y-4.3095
N350 X6.3376 Y-4.3038
N351 X6.3433 Y-4.2974
N352 X6.3482 Y-4.2902
N353 X6.3523 Y-4.2823
N354 X6.3557 Y-4.2736
N355 X6.3584 Y-4.2641
N356 X6.3603 Y-4.2539
N357 X6.3614 Y-4.243
N358 X6.3618 Y-4.2312
N359 X6.3614 Y-4.2195
N360 X6.3603 Y-4.2086
N361 X6.3584 Y-4.1984
N362 X6.3557 Y-4.1889
N363 X6.3523 Y-4.1802
N364 X6.3482 Y-4.1723
N365 X6.3433 Y-4.1651
N366 X6.3376 Y-4.1587
N367 X6.3312 Y-4.153
N368 X6.324 Y-4.1481
N369 X6.316 Y-4.1439
N370 X6.3073 Y-4.1405
N371 X6.2979 Y-4.1379
N372 X6.2877 Y-4.136
N373 X6.2767 Y-4.1348
N374 X6.265 Y-4.1345
N375 X0.265
N376 X0.2533 Y-4.1341
N377 X0.2423 Y-4.133
N378 X0.2321 Y-4.1311
N379 X0.2227 Y-4.1284
N380 X0.214 Y-4.125
N381 X0.206 Y-4.1209
N382 X0.1988 Y-4.1159
N383 X0.1924 Y-4.1103
N384 X0.1867 Y-4.1038
N385 X0.1818 Y-4.0967
N386 X0.1777 Y-4.0887
N387 X0.1743 Y-4.08
N388 X0.1716 Y-4.0706
N389 X0.1697 Y-4.0604
N390 X0.1686 Y-4.0494
N391 X0.1682 Y-4.0377
N392 X0.1686 Y-4.026
N393 X0.1697 Y-4.015
N394 X0.1716 Y-4.0048
N395 X0.1743 Y-3.9954
N396 X0.1777 Y-3.9867
N397 X0.1818 Y-3.9787
N398 X0.1867 Y-3.9715
N399 X0.1924 Y-3.9651
N400 X0.1988 Y-3.9594
N401 X0.206 Y-3.9545
N402 X0.214 Y-3.9504
N403 X0.2227 Y-3.947
N404 X0.2321 Y-3.9443
N405 X0.2423 Y-3.9424
N406 X0.2533 Y-3.9413
N407 X0.265 Y-3.9409
N408 X6.265
N409 X6.2767 Y-3.9405
N410 X6.2877 Y-3.9394
N411 X6.2979 Y-3.9375
N412 X6.3073 Y-3.9349
N413 X6.316 Y-3.9315
N414 X6.324 Y-3.9273
N415 X6.3312 Y-3.9224
N416 X6.3376 Y-3.9167
N417 X6.3433 Y-3.9103
N418 X6.3482 Y-3.9031
N419 X6.3523 Y-3.8952
N420 X6.3557 Y-3.8865
N421 X6.3584 Y-3.877
N422 X6.3603 Y-3.8668
N423 X6.3614 Y-3.8559
N424 X6.3618 Y-3.8441
N425 X6.3614 Y-3.8324
N426 X6.3603 Y-3.8215
N427 X6.3584 Y-3.8113
N428 X6.3557 Y-3.8018
N429 X6.3523 Y-3.7931
N430 X6.3482 Y-3.7852
N431 X6.3433 Y-3.778
N432 X6.3376 Y-3.7716
N433 X6.3312 Y-3.7659
N434 X6.324 Y-3.761
N435 X6.316 Y-3.7568
N436 X6.3073 Y-3.7534
N437 X6.2979 Y-3.7508
N438 X6.2877 Y-3.7489
N439 X6.2767 Y-3.7477
N440 X6.265 Y-3.7474
N441 X0.265
N442 X0.2533 Y-3.747
N443 X0.2423 Y-3.7459
N444 X0.2321 Y-3.744
N445 X0.2227 Y-3.7413
N446 X0.214 Y-3.7379
N447 X0.206 Y-3.7338
N448 X0.1988 Y-3.7288
N449 X0.1924 Y-3.7232
N450 X0.1867 Y-3.7168
N451 X0.1818 Y-3.7096
N452 X0.1777 Y-3.7016
N453 X0.1743 Y-3.6929
N454 X0.1716 Y-3.6835
N455 X0.1697 Y-3.6733
N456 X0.1686 Y-3.6623
N457 X0.1682 Y-3.6506
N458 X0.1686 Y-3.6389
N459 X0.1697 Y-3.6279
N460 X0.1716 Y-3.6177
N461 X0.1743 Y-3.6083
N462 X0.1777 Y-3.5996
N463 X0.1818 Y-3.5916
N464 X0.1867 Y-3.5844
N465 X0.1924 Y-3.578
N466 X0.1988 Y-3.5723
N467 X0.206 Y-3.5674
N468 X0.214 Y-3.5633
N469 X0.2227 Y-3.5599
N470 X0.2321 Y-3.5572
N471 X0.2423 Y-3.5553
N472 X0.2533 Y-3.5542
N473 X0.265 Y-3.5538
N474 X6.265
N475 X6.2767 Y-3.5534
N476 X6.2877 Y-3.5523
N477 X6.2979 Y-3.5504
N478 X6.3073 Y-3.5478
N479 X6.316 Y-3.5444
N480 X6.324 Y-3.5402
N481 X6.3312 Y-3.5353
N482 X6.3376 Y-3.5296
N483 X6.3433 Y-3.5232
N484 X6.3482 Y-3.516
N485 X6.3523 Y-3.5081
N486 X6.3557 Y-3.4994
N487 X6.3584 Y-3.4899
N488 X6.3603 Y-3.4797
N489 X6.3614 Y-3.4688
N490 X6.3618 Y-3.457
N491 X6.3614 Y-3.4453
N492 X6.3603 Y-3.4344
N493 X6.3584 Y-3.4242
N494 X6.3557 Y-3.4147
N495 X6.3523 Y-3.406
N496 X6.3482 Y-3.3981
N497 X6.3433 Y-3.3909
N498 X6.3376 Y-3.3845
N499 X6.3312 Y-3.3788
N500 X6.324 Y-3.3739
N501 X6.316 Y-3.3697
N502 X6.3073 Y-3.3663
N503 X6.2979 Y-3.3637
N504 X6.2877 Y-3.3618
N505 X6.2767 Y-3.3607
N506 X6.265 Y-3.3603
N507 X0.265
N508 X0.2533 Y-3.3599
N509 X0.2423 Y-3.3588
N510 X0.2321 Y-3.3569
N511 X0.2227 Y-3.3542
N512 X0.214 Y-3.3508
N513 X0.206 Y-3.3467
N514 X0.1988 Y-3.3418
N515 X0.1924 Y-3.3361
N516 X0.1867 Y-3.3297
N517 X0.1818 Y-3.3225
N518 X0.1777 Y-3.3145
N519 X0.1743 Y-3.3058
N520 X0.1716 Y-3.2964
N521 X0.1697 Y-3.2862
N522 X0.1686 Y-3.2752
N523 X0.1682 Y-3.2635
N524 X0.1686 Y-3.2518
N525 X0.1697 Y-3.2408
N526 X0.1716 Y-3.2306
N527 X0.1743 Y-3.2212
N528 X0.1777 Y-3.2125
N529 X0.1818 Y-3.2045
N530 X0.1867 Y-3.1973
N531 X0.1924 Y-3.1909
N532 X0.1988 Y-3.1852
N533 X0.206 Y-3.1803
N534 X0.214 Y-3.1762
N535 X0.2227 Y-3.1728
N536 X0.2321 Y-3.1701
N537 X0.2423 Y-3.1682
N538 X0.2533 Y-3.1671
N539 X0.265 Y-3.1667
N540 X6.265
N541 X6.2767 Y-3.1663
N542 X6.2877 Y-3.1652
N543 X6.2979 Y-3.1633
N544 X6.3073 Y-3.1607
N545 X6.316 Y-3.1573
N546 X6.324 Y-3.1531
N547 X6.3312 Y-3.1482
N548 X6.3376 Y-3.1425
N549 X6.3433 Y-3.1361
N550 X6.3482 Y-3.1289
N551 X6.3523 Y-3.121
N552 X6.3557 Y-3.1123
N553 X6.3584 Y-3.1028
N554 X6.3603 Y-3.0926
N555 X6.3614 Y-3.0817
N556 X6.3618 Y-3.07
N557 X6.3614 Y-3.0582
N558 X6.3603 Y-3.0473
N559 X6.3584 Y-3.0371
N560 X6.3557 Y-3.0276
N561 X6.3523 Y-3.0189
N562 X6.3482 Y-3.011
N563 X6.3433 Y-3.0038
N564 X6.3376 Y-2.9974
N565 X6.3312 Y-2.9917
N566 X6.324 Y-2.9868
N567 X6.316 Y-2.9826
N568 X6.3073 Y-2.9792
N569 X6.2979 Y-2.9766
N570 X6.2877 Y-2.9747
N571 X6.2767 Y-2.9736
N572 X6.265 Y-2.9732
N573 X0.265
N574 X0.2533 Y-2.9728
N575 X0.2423 Y-2.9717
N576 X0.2321 Y-2.9698
N577 X0.2227 Y-2.9671
N578 X0.214 Y-2.9637
N579 X0.206 Y-2.9596
N580 X0.1988 Y-2.9547
N581 X0.1924 Y-2.949
N582 X0.1867 Y-2.9426
N583 X0.1818 Y-2.9354
N584 X0.1777 Y-2.9274
N585 X0.1743 Y-2.9187
N586 X0.1716 Y-2.9093
N587 X0.1697 Y-2.8991
N588 X0.1686 Y-2.8881
N589 X0.1682 Y-2.8764
N590 X0.1686 Y-2.8647
N591 X0.1697 Y-2.8537
N592 X0.1716 Y-2.8435
N593 X0.1743 Y-2.8341
N594 X0.1777 Y-2.8254
N595 X0.1818 Y-2.8174
N596 X0.1867 Y-2.8102
N597 X0.1924 Y-2.8038
N598 X0.1988 Y-2.7982
N599 X0.206 Y-2.7932
N600 X0.214 Y-2.7891
N601 X0.2227 Y-2.7857
N602 X0.2321 Y-2.783
N603 X0.2423 Y-2.7811
N604 X0.2533 Y-2.78
N605 X0.265 Y-2.7796
N606 X6.265
N607 X6.2767 Y-2.7793
N608 X6.2877 Y-2.7781
N609 X6.2979 Y-2.7762
N610 X6.3073 Y-2.7736
N611 X6.316 Y-2.7702
N612 X6.324 Y-2.766
N613 X6.3312 Y-2.7611
N614 X6.3376 Y-2.7554
N615 X6.3433 Y-2.749
N616 X6.3482 Y-2.7418
N617 X6.3523 Y-2.7339
N618 X6.3557 Y-2.7252
N619 X6.3584 Y-2.7157
N620 X6.3603 Y-2.7055
N621 X6.3614 Y-2.6946
N622 X6.3618 Y-2.6829
N623 X6.3614 Y-2.6711
N624 X6.3603 Y-2.6602
N625 X6.3584 Y-2.65
N626 X6.3557 Y-2.6405
N627 X6.3523 Y-2.6318
N628 X6.3482 Y-2.6239
N629 X6.3433 Y-2.6167
N630 X6.3376 Y-2.6103
N631 X6.3312 Y-2.6046
N632 X6.324 Y-2.5997
N633 X6.316 Y-2.5955
N634 X6.3073 Y-2.5921
N635 X6.2979 Y-2.5895
N636 X6.2877 Y-2.5876
N637 X6.2767 Y-2.5865
N638 X6.265 Y-2.5861
N639 X0.265
N640 X0.2533 Y-2.5857
N641 X0.2423 Y-2.5846
N642 X0.2321 Y-2.5827
N643 X0.2227 Y-2.58
N644 X0.214 Y-2.5766
N645 X0.206 Y-2.5725
N646 X0.1988 Y-2.5676
N647 X0.1924 Y-2.5619
N648 X0.1867 Y-2.5555
N649 X0.1818 Y-2.5483
N650 X0.1777 Y-2.5403
N651 X0.1743 Y-2.5316
N652 X0.1716 Y-2.5222
N653 X0.1697 Y-2.512
N654 X0.1686 Y-2.501
N655 X0.1682 Y-2.4893
N656 X0.1686 Y-2.4776
N657 X0.1697 Y-2.4666
N658 X0.1716 Y-2.4564
N659 X0.1743 Y-2.447
N660 X0.1777 Y-2.4383
N661 X0.1818 Y-2.4303
N662 X0.1867 Y-2.4232
N663 X0.1924 Y-2.4167
N664 X0.1988 Y-2.4111
N665 X0.206 Y-2.4061
N666 X0.214 Y-2.402
N667 X0.2227 Y-2.3986
N668 X0.2321 Y-2.3959
N669 X0.2423 Y-2.394
N670 X0.2533 Y-2.3929
N671 X0.265 Y-2.3925
N672 X6.265
N673 X6.2767 Y-2.3922
N674 X6.2877 Y-2.391
N675 X6.2979 Y-2.3891
N676 X6.3073 Y-2.3865
N677 X6.316 Y-2.3831
N678 X6.324 Y-2.3789
N679 X6.3312 Y-2.374
N680 X6.3376 Y-2.3683
N681 X6.3433 Y-2.3619
N682 X6.3482 Y-2.3547
N683 X6.3523 Y-2.3468
N684 X6.3557 Y-2.3381
N685 X6.3584 Y-2.3286
N686 X6.3603 Y-2.3184
N687 X6.3614 Y-2.3075
N688 X6.3618 Y-2.2958
N689 X6.3614 Y-2.284
N690 X6.3603 Y-2.2731
N691 X6.3584 Y-2.2629
N692 X6.3557 Y-2.2534
N693 X6.3523 Y-2.2447
N694 X6.3482 Y-2.2368
N695 X6.3433 Y-2.2296
N696 X6.3376 Y-2.2232
N697 X6.3312 Y-2.2175
N698 X6.324 Y-2.2126
N699 X6.316 Y-2.2084
N700 X6.3073 Y-2.205
N701 X6.2979 Y-2.2024
N702 X6.2877 Y-2.2005
N703 X6.2767 Y-2.1994
N704 X6.265 Y-2.199
N705 X0.265
N706 X0.2533 Y-2.1986
N707 X0.2423 Y-2.1975
N708 X0.2321 Y-2.1956
N709 X0.2227 Y-2.1929
N710 X0.214 Y-2.1895
N711 X0.206 Y-2.1854
N712 X0.1988 Y-2.1805
N713 X0.1924 Y-2.1748
N714 X0.1867 Y-2.1684
N715 X0.1818 Y-2.1612
N716 X0.1777 Y-2.1532
N717 X0.1743 Y-2.1445
N718 X0.1716 Y-2.1351
N719 X0.1697 Y-2.1249
N720 X0.1686 Y-2.1139
N721 X0.1682 Y-2.1022
N722 X0.1686 Y-2.0905
N723 X0.1697 Y-2.0795
N724 X0.1716 Y-2.0693
N725 X0.1743 Y-2.0599
N726 X0.1777 Y-2.0512
N727 X0.1818 Y-2.0432
N728 X0.1867 Y-2.0361
N729 X0.1924 Y-2.0296
N730 X0.1988 Y-2.024
N731 X0.206 Y-2.019
N732 X0.214 Y-2.0149
N733 X0.2227 Y-2.0115
N734 X0.2321 Y-2.0088
N735 X0.2423 Y-2.0069
N736 X0.2533 Y-2.0058
N737 X0.265 Y-2.0054
N738 X6.265
N739 X6.2767 Y-2.0051
N740 X6.2877 Y-2.0039
N741 X6.2979 Y-2.002
N742 X6.3073 Y-1.9994
N743 X6.316 Y-1.996
N744 X6.324 Y-1.9918
N745 X6.3312 Y-1.9869
N746 X6.3376 Y-1.9812
N747 X6.3433 Y-1.9748
N748 X6.3482 Y-1.9676
N749 X6.3523 Y-1.9597
N750 X6.3557 Y-1.951
N751 X6.3584 Y-1.9415
N752 X6.3603 Y-1.9313
N753 X6.3614 Y-1.9204
N754 X6.3618 Y-1.9087
N755 X6.3614 Y-1.8969
N756 X6.3603 Y-1.886
N757 X6.3584 Y-1.8758
N758 X6.3557 Y-1.8663
N759 X6.3523 Y-1.8576
N760 X6.3482 Y-1.8497
N761 X6.3433 Y-1.8425
N762 X6.3376 Y-1.8361
N763 X6.3312 Y-1.8304
N764 X6.324 Y-1.8255
N765 X6.316 Y-1.8213
N766 X6.3073 Y-1.8179
N767 X6.2979 Y-1.8153
N768 X6.2877 Y-1.8134
N769 X6.2767 Y-1.8123
N770 X6.265 Y-1.8119
N771 X0.265
N772 X0.2533 Y-1.8115
N773 X0.2423 Y-1.8104
N774 X0.2321 Y-1.8085
N775 X0.2227 Y-1.8058
N776 X0.214 Y-1.8024
N777 X0.206 Y-1.7983
N778 X0.1988 Y-1.7934
N779 X0.1924 Y-1.7877
N780 X0.1867 Y-1.7813
N781 X0.1818 Y-1.7741
N782 X0.1777 Y-1.7661
N783 X0.1743 Y-1.7575
N784 X0.1716 Y-1.748
N785 X0.1697 Y-1.7378
N786 X0.1686 Y-1.7268
N787 X0.1682 Y-1.7151
N788 X0.1686 Y-1.7034
N789 X0.1697 Y-1.6924
N790 X0.1716 Y-1.6822
N791 X0.1743 Y-1.6728
N792 X0.1777 Y-1.6641
N793 X0.1818 Y-1.6561
N794 X0.1867 Y-1.649
N795 X0.1924 Y-1.6425
N796 X0.1988 Y-1.6369
N797 X0.206 Y-1.6319
N798 X0.214 Y-1.6278
N799 X0.2227 Y-1.6244
N800 X0.2321 Y-1.6217
N801 X0.2423 Y-1.6199
N802 X0.2533 Y-1.6187
N803 X0.265 Y-1.6183
N804 X6.265
N805 X6.2767 Y-1.618
N806 X6.2877 Y-1.6168
N807 X6.2979 Y-1.6149
N808 X6.3073 Y-1.6123
N809 X6.316 Y-1.6089
N810 X6.324 Y-1.6047
N811 X6.3312 Y-1.5998
N812 X6.3376 Y-1.5941
N813 X6.3433 Y-1.5877
N814 X6.3482 Y-1.5805
N815 X6.3523 Y-1.5726
N816 X6.3557 Y-1.5639
N817 X6.3584 Y-1.5545
N818 X6.3603 Y-1.5442
N819 X6.3614 Y-1.5333
N820 X6.3618 Y-1.5216
N821 X6.3614 Y-1.5098
N822 X6.3603 Y-1.4989
N823 X6.3584 Y-1.4887
N824 X6.3557 Y-1.4792
N825 X6.3523 Y-1.4705
N826 X6.3482 Y-1.4626
N827 X6.3433 Y-1.4554
N828 X6.3376 Y-1.449
N829 X6.3312 Y-1.4433
N830 X6.324 Y-1.4384
N831 X6.316 Y-1.4342
N832 X6.3073 Y-1.4308
N833 X6.2979 Y-1.4282
N834 X6.2877 Y-1.4263
N835 X6.2767 Y-1.4252
N836 X6.265 Y-1.4248
N837 X0.265
N838 X0.2533 Y-1.4244
N839 X0.2423 Y-1.4233
N840 X0.2321 Y-1.4214
N841 X0.2227 Y-1.4187
N842 X0.214 Y-1.4153
N843 X0.206 Y-1.4112
N844 X0.1988 Y-1.4063
N845 X0.1924 Y-1.4006
N846 X0.1867 Y-1.3942
N847 X0.1818 Y-1.387
N848 X0.1777 Y-1.379
N849 X0.1743 Y-1.3704
N850 X0.1716 Y-1.3609
N851 X0.1697 Y-1.3507
N852 X0.1686 Y-1.3397
N853 X0.1682 Y-1.328
N854 X0.1686 Y-1.3163
N855 X0.1697 Y-1.3053
N856 X0.1716 Y-1.2951
N857 X0.1743 Y-1.2857
N858 X0.1777 Y-1.277
N859 X0.1818 Y-1.269
N860 X0.1867 Y-1.2619
N861 X0.1924 Y-1.2554
N862 X0.1988 Y-1.2498
N863 X0.206 Y-1.2449
N864 X0.214 Y-1.2407
N865 X0.2227 Y-1.2373
N866 X0.2321 Y-1.2346
N867 X0.2423 Y-1.2328
N868 X0.2533 Y-1.2316
N869 X0.265 Y-1.2312
N870 X6.265
N871 X6.2767 Y-1.2309
N872 X6.2877 Y-1.2297
N873 X6.2979 Y-1.2278
N874 X6.3073 Y-1.2252
N875 X6.316 Y-1.2218
N876 X6.324 Y-1.2176
N877 X6.3312 Y-1.2127
N878 X6.3376 Y-1.207
N879 X6.3433 Y-1.2006
N880 X6.3482 Y-1.1934
N881 X6.3523 Y-1.1855
N882 X6.3557 Y-1.1768
N883 X6.3584 Y-1.1674
N884 X6.3603 Y-1.1571
N885 X6.3614 Y-1.1462
N886 X6.3618 Y-1.1345
N887 X6.3614 Y-1.1227
N888 X6.3603 Y-1.1118
N889 X6.3584 Y-1.1016
N890 X6.3557 Y-1.0921
N891 X6.3523 Y-1.0834
N892 X6.3482 Y-1.0755
N893 X6.3433 Y-1.0683
N894 X6.3376 Y-1.0619
N895 X6.3312 Y-1.0562
N896 X6.324 Y-1.0513
N897 X6.316 Y-1.0471
N898 X6.3073 Y-1.0437
N899 X6.2979 Y-1.0411
N900 X6.2877 Y-1.0392
N901 X6.2767 Y-1.0381
N902 X6.265 Y-1.0377
N903 X0.265
N904 X0.2533 Y-1.0373
N905 X0.2423 Y-1.0362
N906 X0.2321 Y-1.0343
N907 X0.2227 Y-1.0316
N908 X0.214 Y-1.0282
N909 X0.206 Y-1.0241
N910 X0.1988 Y-1.0192
N911 X0.1924 Y-1.0135
N912 X0.1867 Y-1.0071
N913 X0.1818 Y-0.9999
N914 X0.1777 Y-0.992
N915 X0.1743 Y-0.9833
N916 X0.1716 Y-0.9738
N917 X0.1697 Y-0.9636
N918 X0.1686 Y-0.9526
N919 X0.1682 Y-0.9409
N920 X0.1686 Y-0.9292
N921 X0.1697 Y-0.9182
N922 X0.1716 Y-0.908
N923 X0.1743 Y-0.8986
N924 X0.1777 Y-0.8899
N925 X0.1818 Y-0.8819
N926 X0.1867 Y-0.8748
N927 X0.1924 Y-0.8683
N928 X0.1988 Y-0.8627
N929 X0.206 Y-0.8578
N930 X0.214 Y-0.8536
N931 X0.2227 Y-0.8502
N932 X0.2321 Y-0.8475
N933 X0.2423 Y-0.8457
N934 X0.2533 Y-0.8445
N935 X0.265 Y-0.8441
N936 X6.265
N937 X6.2767 Y-0.8438
N938 X6.2877 Y-0.8426
N939 X6.2979 Y-0.8407
N940 X6.3073 Y-0.8381
N941 X6.316 Y-0.8347
N942 X6.324 Y-0.8305
N943 X6.3312 Y-0.8256
N944 X6.3376 Y-0.82
N945 X6.3433 Y-0.8135
N946 X6.3482 Y-0.8063
N947 X6.3523 Y-0.7984
N948 X6.3557 Y-0.7897
N949 X6.3584 Y-0.7803
N950 X6.3603 Y-0.7701
N951 X6.3614 Y-0.7591
N952 X6.3618 Y-0.7474
N953 X6.3614 Y-0.7357
N954 X6.3603 Y-0.7247
N955 X6.3584 Y-0.7145
N956 X6.3557 Y-0.705
N957 X6.3523 Y-0.6963
N958 X6.3482 Y-0.6884
N959 X6.3433 Y-0.6812
N960 X6.3376 Y-0.6748
N961 X6.3312 Y-0.6691
N962 X6.324 Y-0.6642
N963 X6.316 Y-0.66
N964 X6.3073 Y-0.6566
N965 X6.2979 Y-0.654
N966 X6.2877 Y-0.6521
N967 X6.2767 Y-0.651
N968 X6.265 Y-0.6506
N969 X0.265
N970 X0.2533 Y-0.6502
N971 X0.2423 Y-0.6491
N972 X0.2321 Y-0.6472
N973 X0.2227 Y-0.6445
N974 X0.214 Y-0.6411
N975 X0.206 Y-0.637
N976 X0.1988 Y-0.6321
N977 X0.1924 Y-0.6264
N978 X0.1867 Y-0.62
N979 X0.1818 Y-0.6128
N980 X0.1777 Y-0.6049
N981 X0.1743 Y-0.5962
N982 X0.1716 Y-0.5867
N983 X0.1697 Y-0.5765
N984 X0.1686 Y-0.5655
N985 X0.1682 Y-0.5538
N986 X0.1686 Y-0.5421
N987 X0.1697 Y-0.5311
N988 X0.1716 Y-0.5209
N989 X0.1743 Y-0.5115
N990 X0.1777 Y-0.5028
N991 X0.1818 Y-0.4949
N992 X0.1867 Y-0.4877
N993 X0.1924 Y-0.4812
N994 X0.1988 Y-0.4756
N995 X0.206 Y-0.4707
N996 X0.214 Y-0.4665
N997 X0.2227 Y-0.4631
N998 X0.2321 Y-0.4605
N999 X0.2423 Y-0.4586
N1000 X0.2533 Y-0.4574
N1001 X0.265 Y-0.457
N1002 X6.265
N1003 X6.2767 Y-0.4567
N1004 X6.2877 Y-0.4555
N1005 X6.2979 Y-0.4536
N1006 X6.3073 Y-0.451
N1007 X6.316 Y-0.4476
N1008 X6.324 Y-0.4434
N1009 X6.3312 Y-0.4385
N1010 X6.3376 Y-0.4329
N1011 X6.3433 Y-0.4264
N1012 X6.3482 Y-0.4192
N1013 X6.3523 Y-0.4113
N1014 X6.3557 Y-0.4026
N1015 X6.3584 Y-0.3932
N1016 X6.3603 Y-0.383
N1017 X6.3614 Y-0.372
N1018 X6.3618 Y-0.3603
N1019 X6.3614 Y-0.3486
N1020 X6.3603 Y-0.3376
N1021 X6.3584 Y-0.3274
N1022 X6.3557 Y-0.3179
N1023 X6.3523 Y-0.3092
N1024 X6.3482 Y-0.3013
N1025 X6.3433 Y-0.2941
N1026 X6.3376 Y-0.2877
N1027 X6.3312 Y-0.282
N1028 X6.324 Y-0.2771
N1029 X6.316 Y-0.273
N1030 X6.3073 Y-0.2695
N1031 X6.2979 Y-0.2669
N1032 X6.2877 Y-0.265
N1033 X6.2767 Y-0.2639
N1034 X6.265 Y-0.2635
N1035 X0.265
N1036 G3 X0.2025 Y-0.326 I0. J-0.0625
N1037 G0 Z0.5906
( Operation: Center Rough )
N1038 X3.2295 Y-3.232 Z0.6056
N1039 Z0.355
N1040 G3 X3.2376 Y-3.2334 Z0.3007 I-0.0132 J-0.0991 F10.
N1041 X3.2384 Y-3.2336 Z0.2458 I-0.0213 J-0.0977
N1042 X3.2391 Y-3.2338 Z0.1909 I-0.0221 J-0.0975
N1043 X3.2398 Y-3.234 Z0.136 I-0.0228 J-0.0973
N1044 X3.2406 Y-3.2341 Z0.0811 I-0.0235 J-0.0971
N1045 X3.2413 Y-3.2343 Z0.0262 I-0.0243 J-0.0971
N1046 X3.242 Y-3.2345 Z-0.0287 I-0.025 J-0.0968
N1047 X3.2428 Y-3.2347 Z-0.0836 I-0.0257 J-0.0966
N1048 X3.2435 Y-3.2349 Z-0.1385 I-0.0265 J-0.0964
N1049 X3.2442 Y-3.2351 Z-0.1934 I-0.0272 J-0.0962
N1050 X3.2782 Y-3.2526 Z-0.245 I-0.0279 J-0.096
N1051 G1 X3.2737 Y-3.2491 F24.
N1052 X3.2688 Y-3.2479
N1053 X3.2648 Y-3.2469
N1054 X3.2577 Y-3.2486
N1055 X3.2546 Y-3.2512
N1056 X3.2515 Y-3.2539
N1057 X3.2487 Y-3.2606
N1058 X3.249 Y-3.2647
N1059 X3.2493 Y-3.2688
N1060 X3.253 Y-3.275
N1061 X3.2565 Y-3.2772
N1062 X3.26 Y-3.2794
N1063 X3.2672 Y-3.28
N1064 X3.2709 Y-3.2785
N1065 X3.2748 Y-3.2769
N1066 X3.2794 Y-3.2719
N1067 X3.2804 Y-3.2682
N1068 X3.2816 Y-3.264
N1069 X3.2811 Y-3.2582
N1070 X3.2796 Y-3.2554
N1071 X3.2782 Y-3.2526
N1072 X3.2765 Y-3.2488
N1073 X3.2752 Y-3.2447
N1074 X3.2743 Y-3.2404
N1075 X3.2737 Y-3.2358
N1076 X3.2734 Y-3.2262
N1077 X3.274 Y-3.216
N1078 X3.2754 Y-3.2054
N1079 X3.2771 Y-3.1947
N1080 X3.2811 Y-3.1735
N1081 X3.2828 Y-3.1634
N1082 X3.284 Y-3.1539
N1083 X3.2844 Y-3.1452
N1084 X3.2842 Y-3.1413
N1085 X3.2838 Y-3.1376
N1086 X3.283 Y-3.1342
N1087 X3.2819 Y-3.1312
N1088 X3.2804 Y-3.1285
N1089 X3.2785 Y-3.1261
N1090 X3.2762 Y-3.1242
N1091 X3.2734 Y-3.1227
N1092 X3.2701 Y-3.1217
N1093 X3.2662 Y-3.1211
N1094 X3.265 Y-3.121
N1095 X3.2427 Y-3.1228
N1096 G3 X3.1243 Y-3.2412 I0.0223 J-0.1407
N1097 G1 X3.1225 Y-3.2635
N1098 G3 X3.2427 Y-3.4042 I0.1425 J0.
N1099 G1 X3.265 Y-3.406
N1100 G3 X3.4075 Y-3.2635 I0. J0.1425
N1101 G1 X3.4057 Y-3.2412
N1102 G3 X3.358 Y-3.1556 I-0.1407 J-0.0223
N1103 G1 X3.3558 Y-3.1533
N1104 X3.3538 Y-3.1509
N1105 X3.3522 Y-3.1484
N1106 X3.3508 Y-3.1457
N1107 X3.3488 Y-3.1402
N1108 X3.3478 Y-3.1344
N1109 Y-3.1282
N1110 X3.3486 Y-3.1217
N1111 X3.3502 Y-3.1149
N1112 X3.3524 Y-3.1079
N1113 X3.3552 Y-3.1007
N1114 X3.3586 Y-3.0933
N1115 X3.3666 Y-3.0782
N1116 X3.3757 Y-3.0627
N1117 X3.3854 Y-3.0472
N1118 X3.3949 Y-3.0318
N1119 X3.4036 Y-3.0169
N1120 X3.4075 Y-3.0097
N1121 X3.411 Y-3.0027
N1122 X3.4139 Y-2.9959
N1123 X3.4163 Y-2.9894
N1124 X3.418 Y-2.9832
N1125 X3.4189 Y-2.9773
N1126 X3.419 Y-2.9718
N1127 X3.4183 Y-2.9667
N1128 X3.4165 Y-2.9619
N1129 X3.4152 Y-2.9598
N1130 X3.4136 Y-2.9577
N1131 X3.4118 Y-2.9557
N1132 X3.4097 Y-2.9539
N1133 X3.4044 Y-2.9507
N1134 G3 X3.265 Y-2.921 I-0.1394 J-0.3128
N1135 G1 X3.2292 Y-2.9229
N1136 G3 X2.9244 Y-3.2277 I0.0358 J-0.3406
N1137 G1 X2.9225 Y-3.2635
N1138 G3 X3.265 Y-3.606 I0.3425 J0.
N1139 G1 X3.3008 Y-3.6041
N1140 G3 X3.6056 Y-3.2993 I-0.0358 J0.3406
N1141 G1 X3.6075 Y-3.2635
N1142 G3 X3.4886 Y-3.0041 I-0.3425 J0.
N1143 G1 X3.4863 Y-3.0018
N1144 X3.4842 Y-2.9994
N1145 X3.4825 Y-2.9969
N1146 X3.481 Y-2.9943
N1147 X3.4789 Y-2.9889
N1148 X3.4778 Y-2.983
N1149 Y-2.9768
N1150 X3.4785 Y-2.9704
N1151 X3.48 Y-2.9636
N1152 X3.4823 Y-2.9566
N1153 X3.4852 Y-2.9494
N1154 X3.4886 Y-2.942
N1155 X3.4925 Y-2.9345
N1156 X3.4968 Y-2.9268
N1157 X3.5061 Y-2.9112
N1158 X3.5161 Y-2.8955
N1159 X3.5259 Y-2.88
N1160 X3.535 Y-2.8648
N1161 X3.5391 Y-2.8574
N1162 X3.5427 Y-2.8502
N1163 X3.5459 Y-2.8432
N1164 X3.5484 Y-2.8365
N1165 X3.5503 Y-2.83
N1166 X3.5514 Y-2.8239
N1167 X3.5517 Y-2.818
N1168 X3.551 Y-2.8126
N1169 X3.5494 Y-2.8075
N1170 X3.5482 Y-2.8051
N1171 X3.5467 Y-2.8029
N1172 X3.5449 Y-2.8007
N1173 X3.5428 Y-2.7987
N1174 X3.5377 Y-2.795
N1175 X3.5232 Y-2.7864
N1176 G3 X3.3098 Y-2.7229 I-0.2582 J-0.4771
N1177 G1 X3.265 Y-2.721
N1178 G3 X2.7244 Y-3.2187 I0. J-0.5425
N1179 G1 X2.7225 Y-3.2635
N1180 G3 X3.265 Y-3.806 I0.5425 J0.
N1181 G1 X3.3098 Y-3.8041
N1182 G3 X3.8056 Y-3.3083 I-0.0448 J0.5406
N1183 G1 X3.8075 Y-3.2635
N1184 G3 X3.6192 Y-2.8526 I-0.5425 J0.
N1185 G1 X3.6169 Y-2.8503
N1186 X3.6148 Y-2.8479
N1187 X3.613 Y-2.8454
N1188 X3.6115 Y-2.8428
N1189 X3.6094 Y-2.8372
N1190 X3.6083 Y-2.8314
N1191 X3.6082 Y-2.8252
N1192 X3.6089 Y-2.8188
N1193 X3.6104 Y-2.812
N1194 X3.6127 Y-2.8051
N1195 X3.6156 Y-2.7979
N1196 X3.619 Y-2.7906
N1197 X3.6229 Y-2.7831
N1198 X3.6272 Y-2.7754
N1199 X3.6366 Y-2.76
N1200 X3.6466 Y-2.7443
N1201 X3.6565 Y-2.7288
N1202 X3.6657 Y-2.7136
N1203 X3.6699 Y-2.7061
N1204 X3.6736 Y-2.6989
N1205 X3.6768 Y-2.6918
N1206 X3.6794 Y-2.6849
N1207 X3.6814 Y-2.6783
N1208 X3.6826 Y-2.672
N1209 X3.683 Y-2.6659
N1210 X3.6825 Y-2.6602
N1211 X3.681 Y-2.6549
N1212 X3.6799 Y-2.6523
N1213 X3.6785 Y-2.6499
N1214 X3.6768 Y-2.6476
N1215 X3.6748 Y-2.6453
N1216 X3.6698 Y-2.6412
N1217 X3.6664 Y-2.6389
N1218 G3 X3.265 Y-2.521 I-0.4014 J-0.6246
N1219 G1 X3.212 Y-2.5229
N1220 G3 X2.5244 Y-3.2105 I0.053 J-0.7406
N1221 G1 X2.5225 Y-3.2635
N1222 G3 X3.265 Y-4.006 I0.7425 J0.
N1223 G1 X3.318 Y-4.0041
N1224 G3 X4.0075 Y-3.2635 I-0.053 J0.7406
N1225 G1 X4.0056 Y-3.2105
N1226 G3 X3.7498 Y-2.7011 I-0.7406 J-0.053
N1227 G1 X3.7474 Y-2.6989
N1228 X3.7453 Y-2.6965
N1229 X3.7435 Y-2.694
N1230 X3.742 Y-2.6914
N1231 X3.7398 Y-2.6859
N1232 X3.7387 Y-2.68
N1233 X3.7385 Y-2.6739
N1234 X3.7393 Y-2.6674
N1235 X3.7408 Y-2.6606
N1236 X3.7431 Y-2.6536
N1237 X3.746 Y-2.6464
N1238 X3.7494 Y-2.6391
N1239 X3.7534 Y-2.6315
N1240 X3.7577 Y-2.6238
N1241 X3.7673 Y-2.6082
N1242 X3.7774 Y-2.5925
N1243 X3.7875 Y-2.5768
N1244 X3.7968 Y-2.5615
N1245 X3.801 Y-2.554
N1246 X3.8048 Y-2.5466
N1247 X3.8081 Y-2.5395
N1248 X3.8108 Y-2.5326
N1249 X3.8128 Y-2.5259
N1250 X3.814 Y-2.5196
N1251 X3.8144 Y-2.5135
N1252 X3.8139 Y-2.5078
N1253 X3.8124 Y-2.5024
N1254 X3.8113 Y-2.4999
N1255 X3.8099 Y-2.4975
N1256 X3.8081 Y-2.4951
N1257 X3.8061 Y-2.4929
N1258 X3.8038 Y-2.4908
N1259 X3.8011 Y-2.4889
N1260 X3.77 Y-2.4677
N1261 X3.7191 Y-2.4376
N1262 G3 X3.3242 Y-2.3229 I-0.4541 J-0.8259
N1263 G1 X3.265 Y-2.321
N1264 G3 X2.3244 Y-3.2043 I0. J-0.9425
N1265 G1 X2.3225 Y-3.2635
N1266 G3 X3.2058 Y-4.2041 I0.9425 J0.
N1267 G1 X3.265 Y-4.206
N1268 G3 X4.2056 Y-3.3227 I0. J0.9425
N1269 G1 X4.2075 Y-3.2635
N1270 G3 X3.8804 Y-2.5497 I-0.9425 J0.
N1271 G1 X3.878 Y-2.5473
N1272 X3.876 Y-2.5449
N1273 X3.8742 Y-2.5423
N1274 X3.8727 Y-2.5397
N1275 X3.8706 Y-2.5341
N1276 X3.8695 Y-2.5282
N1277 Y-2.522
N1278 X3.8702 Y-2.5154
N1279 X3.8717 Y-2.5087
N1280 X3.874 Y-2.5017
N1281 X3.877 Y-2.4944
N1282 X3.8804 Y-2.487
N1283 X3.8844 Y-2.4795
N1284 X3.8888 Y-2.4718
N1285 X3.8983 Y-2.4563
N1286 X3.9085 Y-2.4405
N1287 X3.9185 Y-2.4249
N1288 X3.9279 Y-2.4096
N1289 X3.9321 Y-2.4021
N1290 X3.9359 Y-2.3948
N1291 X3.9391 Y-2.3876
N1292 X3.9418 Y-2.3807
N1293 X3.9438 Y-2.374
N1294 X3.9451 Y-2.3677
N1295 X3.9455 Y-2.3616
N1296 X3.945 Y-2.3558
N1297 X3.9436 Y-2.3504
N1298 X3.9424 Y-2.3478
N1299 X3.941 Y-2.3454
N1300 X3.9393 Y-2.343
N1301 X3.9373 Y-2.3408
N1302 X3.935 Y-2.3386
N1303 X3.9323 Y-2.3366
N1304 X3.8928 Y-2.309
N1305 G3 X3.265 Y-2.121 I-0.6278 J-0.9545
N1306 G1 X3.1986 Y-2.1229
N1307 G3 X2.1244 Y-3.1971 I0.0664 J-1.1406
N1308 G1 X2.1225 Y-3.2635
N1309 G3 X3.1986 Y-4.4041 I1.1425 J0.
N1310 G1 X3.265 Y-4.406
N1311 G3 X4.4075 Y-3.2635 I0. J1.1425
N1312 G1 X4.4056 Y-3.1971
N1313 G3 X4.011 Y-2.3982 I-1.1406 J-0.0664
N1314 G1 X4.0086 Y-2.3959
N1315 X4.0066 Y-2.3934
N1316 X4.0048 Y-2.3908
N1317 X4.0033 Y-2.3882
N1318 X4.0011 Y-2.3826
N1319 X4. Y-2.3768
N1320 X3.9999 Y-2.3706
N1321 X4.0006 Y-2.3641
N1322 X4.0022 Y-2.3573
N1323 X4.0044 Y-2.3504
N1324 X4.0073 Y-2.3432
N1325 X4.0107 Y-2.3359
N1326 X4.0147 Y-2.3284
N1327 X4.019 Y-2.3208
N1328 X4.0285 Y-2.3054
N1329 X4.0386 Y-2.2897
N1330 X4.0486 Y-2.2742
N1331 X4.058 Y-2.2588
N1332 X4.0622 Y-2.2514
N1333 X4.066 Y-2.244
N1334 X4.0693 Y-2.2368
N1335 X4.0721 Y-2.2299
N1336 X4.0741 Y-2.2231
N1337 X4.0755 Y-2.2166
N1338 X4.076 Y-2.2104
N1339 X4.0756 Y-2.2045
N1340 X4.0742 Y-2.1989
N1341 X4.0718 Y-2.1937
N1342 X4.0702 Y-2.1912
N1343 X4.0682 Y-2.1889
N1344 X4.066 Y-2.1866
N1345 X4.0634 Y-2.1845
N1346 X4.057 Y-2.1795
N1347 X3.9977 Y-2.1386
N1348 X3.9362 Y-2.1009
N1349 X3.8729 Y-2.0665
N1350 X3.8077 Y-2.0356
N1351 X3.7411 Y-2.0082
N1352 X3.673 Y-1.9845
N1353 X3.6038 Y-1.9644
N1354 X3.5335 Y-1.9481
N1355 X3.4625 Y-1.9356
N1356 X3.391 Y-1.9269
N1357 X3.3191 Y-1.9221
N1358 X3.247 Y-1.9211
N1359 X3.1749 Y-1.924
N1360 X3.1032 Y-1.9308
N1361 X3.0319 Y-1.9414
N1362 X2.9612 Y-1.9558
N1363 X2.8915 Y-1.974
N1364 X2.8228 Y-1.9959
N1365 X2.7554 Y-2.0215
N1366 X2.6895 Y-2.0506
N1367 X2.6252 Y-2.0833
N1368 X2.5628 Y-2.1193
N1369 X2.5024 Y-2.1586
N1370 X2.4442 Y-2.2012
N1371 X2.3883 Y-2.2468
N1372 X2.335 Y-2.2953
N1373 X2.2844 Y-2.3466
N1374 X2.2366 Y-2.4006
N1375 X2.1917 Y-2.457
N1376 X2.15 Y-2.5158
N1377 X2.1115 Y-2.5767
N1378 X2.0763 Y-2.6396
N1379 X2.0445 Y-2.7043
N1380 X2.0162 Y-2.7706
N1381 X1.9916 Y-2.8384
N1382 X1.9706 Y-2.9073
N1383 X1.9534 Y-2.9773
N1384 X1.9399 Y-3.0481
N1385 X1.9302 Y-3.1196
N1386 G3 X1.9225 Y-3.2635 I1.3348 J-0.1439
N1387 G1 X1.9244 Y-3.3356
N1388 G3 X4.607 Y-3.2995 I1.3406 J0.0721
N1389 G1 X4.6075 Y-3.2635
N1390 X4.607 Y-3.2275
N1391 G3 X4.1141 Y-2.2236 I-1.342 J-0.036
N1392 G1 X4.0634 Y-2.1845
N1393 G3 X3.9231 Y-2.2025 I-0.0611 J-0.0791
N1394 G0 Z0.155
N1395 X3.2295 Y-3.232
N1396 G3 X3.2376 Y-3.2334 Z0.1007 I-0.0132 J-0.0991 F10.
N1397 X3.2384 Y-3.2336 Z0.0458 I-0.0213 J-0.0977
N1398 X3.2391 Y-3.2338 Z-0.0091 I-0.0221 J-0.0975
N1399 X3.2398 Y-3.234 Z-0.064 I-0.0228 J-0.0973
N1400 X3.2406 Y-3.2341 Z-0.1189 I-0.0235 J-0.0971
N1401 X3.2413 Y-3.2343 Z-0.1738 I-0.0243 J-0.0971
N1402 X3.242 Y-3.2345 Z-0.2287 I-0.025 J-0.0968
N1403 X3.2428 Y-3.2347 Z-0.2836 I-0.0257 J-0.0966
N1404 X3.2435 Y-3.2349 Z-0.3385 I-0.0265 J-0.0964
N1405 X3.2442 Y-3.2351 Z-0.3934 I-0.0272 J-0.0962
N1406 X3.2782 Y-3.2526 Z-0.445 I-0.0279 J-0.096
N1407 G1 X3.2737 Y-3.2491 F24.
N1408 X3.2688 Y-3.2479
N1409 X3.2648 Y-3.2469
N1410 X3.2577 Y-3.2486
N1411 X3.2546 Y-3.2512
N1412 X3.2515 Y-3.2539
N1413 X3.2487 Y-3.2606
N1414 X3.249 Y-3.2647
N1415 X3.2493 Y-3.2688
N1416 X3.253 Y-3.275
N1417 X3.2565 Y-3.2772
N1418 X3.26 Y-3.2794
N1419 X3.2672 Y-3.28
N1420 X3.2709 Y-3.2785
N1421 X3.2748 Y-3.2769
N1422 X3.2794 Y-3.2719
N1423 X3.2804 Y-3.2682
N1424 X3.2816 Y-3.264
N1425 X3.2811 Y-3.2582
N1426 X3.2796 Y-3.2554
N1427 X3.2782 Y-3.2526
N1428 X3.2765 Y-3.2488
N1429 X3.2752 Y-3.2447
N1430 X3.2743 Y-3.2404
N1431 X3.2737 Y-3.2358
N1432 X3.2734 Y-3.2262
N1433 X3.274 Y-3.216
N1434 X3.2754 Y-3.2054
N1435 X3.2771 Y-3.1947
N1436 X3.2811 Y-3.1735
N1437 X3.2828 Y-3.1634
N1438 X3.284 Y-3.1539
N1439 X3.2844 Y-3.1452
N1440 X3.2842 Y-3.1413
N1441 X3.2838 Y-3.1376
N1442 X3.283 Y-3.1342
N1443 X3.2819 Y-3.1312
N1444 X3.2804 Y-3.1285
N1445 X3.2785 Y-3.1261
N1446 X3.2762 Y-3.1242
N1447 X3.2734 Y-3.1227
N1448 X3.2701 Y-3.1217
N1449 X3.2662 Y-3.1211
N1450 X3.265 Y-3.121
N1451 X3.2427 Y-3.1228
N1452 G3 X3.1243 Y-3.2412 I0.0223 J-0.1407
N1453 G1 X3.1225 Y-3.2635
N1454 G3 X3.2427 Y-3.4042 I0.1425 J0.
N1455 G1 X3.265 Y-3.406
N1456 G3 X3.4075 Y-3.2635 I0. J0.1425
N1457 G1 X3.4057 Y-3.2412
N1458 G3 X3.358 Y-3.1556 I-0.1407 J-0.0223
N1459 G1 X3.3558 Y-3.1533
N1460 X3.3538 Y-3.1509
N1461 X3.3522 Y-3.1484
N1462 X3.3508 Y-3.1457
N1463 X3.3488 Y-3.1402
N1464 X3.3478 Y-3.1344
N1465 Y-3.1282
N1466 X3.3486 Y-3.1217
N1467 X3.3502 Y-3.1149
N1468 X3.3524 Y-3.1079
N1469 X3.3552 Y-3.1007
N1470 X3.3586 Y-3.0933
N1471 X3.3666 Y-3.0782
N1472 X3.3757 Y-3.0627
N1473 X3.3854 Y-3.0472
N1474 X3.3949 Y-3.0318
N1475 X3.4036 Y-3.0169
N1476 X3.4075 Y-3.0097
N1477 X3.411 Y-3.0027
N1478 X3.4139 Y-2.9959
N1479 X3.4163 Y-2.9894
N1480 X3.418 Y-2.9832
N1481 X3.4189 Y-2.9773
N1482 X3.419 Y-2.9718
N1483 X3.4183 Y-2.9667
N1484 X3.4165 Y-2.9619
N1485 X3.4152 Y-2.9598
N1486 X3.4136 Y-2.9577
N1487 X3.4118 Y-2.9557
N1488 X3.4097 Y-2.9539
N1489 X3.4044 Y-2.9507
N1490 G3 X3.265 Y-2.921 I-0.1394 J-0.3128
N1491 G1 X3.2292 Y-2.9229
N1492 G3 X2.9244 Y-3.2277 I0.0358 J-0.3406
N1493 G1 X2.9225 Y-3.2635
N1494 G3 X3.265 Y-3.606 I0.3425 J0.
N1495 G1 X3.3008 Y-3.6041
N1496 G3 X3.6056 Y-3.2993 I-0.0358 J0.3406
N1497 G1 X3.6075 Y-3.2635
N1498 G3 X3.4886 Y-3.0041 I-0.3425 J0.
N1499 G1 X3.4863 Y-3.0018
N1500 X3.4842 Y-2.9994
N1501 X3.4825 Y-2.9969
N1502 X3.481 Y-2.9943
N1503 X3.4789 Y-2.9889
N1504 X3.4778 Y-2.983
N1505 Y-2.9768
N1506 X3.4785 Y-2.9704
N1507 X3.48 Y-2.9636
N1508 X3.4823 Y-2.9566
N1509 X3.4852 Y-2.9494
N1510 X3.4886 Y-2.942
N1511 X3.4925 Y-2.9345
N1512 X3.4968 Y-2.9268
N1513 X3.5061 Y-2.9112
N1514 X3.5161 Y-2.8955
N1515 X3.5259 Y-2.88
N1516 X3.535 Y-2.8648
N1517 X3.5391 Y-2.8574
N1518 X3.5427 Y-2.8502
N1519 X3.5459 Y-2.8432
N1520 X3.5484 Y-2.8365
N1521 X3.5503 Y-2.83
N1522 X3.5514 Y-2.8239
N1523 X3.5517 Y-2.818
N1524 X3.551 Y-2.8126
N1525 X3.5494 Y-2.8075
N1526 X3.5482 Y-2.8051
N1527 X3.5467 Y-2.8029
N1528 X3.5449 Y-2.8007
N1529 X3.5428 Y-2.7987
N1530 X3.5377 Y-2.795
N1531 X3.5232 Y-2.7864
N1532 G3 X3.3098 Y-2.7229 I-0.2582 J-0.4771
N1533 G1 X3.265 Y-2.721
N1534 G3 X2.7244 Y-3.2187 I0. J-0.5425
N1535 G1 X2.7225 Y-3.2635
N1536 G3 X3.265 Y-3.806 I0.5425 J0.
N1537 G1 X3.3098 Y-3.8041
N1538 G3 X3.8056 Y-3.3083 I-0.0448 J0.5406
N1539 G1 X3.8075 Y-3.2635
N1540 G3 X3.6192 Y-2.8526 I-0.5425 J0.
N1541 G1 X3.6169 Y-2.8503
N1542 X3.6148 Y-2.8479
N1543 X3.613 Y-2.8454
N1544 X3.6115 Y-2.8428
N1545 X3.6094 Y-2.8372
N1546 X3.6083 Y-2.8314
N1547 X3.6082 Y-2.8252
N1548 X3.6089 Y-2.8188
N1549 X3.6104 Y-2.812
N1550 X3.6127 Y-2.8051
N1551 X3.6156 Y-2.7979
N1552 X3.619 Y-2.7906
N1553 X3.6229 Y-2.7831
N1554 X3.6272 Y-2.7754
N1555 X3.6366 Y-2.76
N1556 X3.6466 Y-2.7443
N1557 X3.6565 Y-2.7288
N1558 X3.6657 Y-2.7136
N1559 X3.6699 Y-2.7061
N1560 X3.6736 Y-2.6989
N1561 X3.6768 Y-2.6918
N1562 X3.6794 Y-2.6849
N1563 X3.6814 Y-2.6783
N1564 X3.6826 Y-2.672
N1565 X3.683 Y-2.6659
N1566 X3.6825 Y-2.6602
N1567 X3.681 Y-2.6549
N1568 X3.6799 Y-2.6523
N1569 X3.6785 Y-2.6499
N1570 X3.6768 Y-2.6476
N1571 X3.6748 Y-2.6453
N1572 X3.6698 Y-2.6412
N1573 X3.6664 Y-2.6389
N1574 G3 X3.265 Y-2.521 I-0.4014 J-0.6246
N1575 G1 X3.212 Y-2.5229
N1576 G3 X2.5244 Y-3.2105 I0.053 J-0.7406
N1577 G1 X2.5225 Y-3.2635
N1578 G3 X3.265 Y-4.006 I0.7425 J0.
N1579 G1 X3.318 Y-4.0041
N1580 G3 X4.0075 Y-3.2635 I-0.053 J0.7406
N1581 G1 X4.0056 Y-3.2105
N1582 G3 X3.7498 Y-2.7011 I-0.7406 J-0.053
N1583 G1 X3.7474 Y-2.6989
N1584 X3.7453 Y-2.6965
N1585 X3.7435 Y-2.694
N1586 X3.742 Y-2.6914
N1587 X3.7398 Y-2.6859
N1588 X3.7387 Y-2.68
N1589 X3.7385 Y-2.6739
N1590 X3.7393 Y-2.6674
N1591 X3.7408 Y-2.6606
N1592 X3.7431 Y-2.6536
N1593 X3.746 Y-2.6464
N1594 X3.7494 Y-2.6391
N1595 X3.7534 Y-2.6315
N1596 X3.7577 Y-2.6238
N1597 X3.7673 Y-2.6082
N1598 X3.7774 Y-2.5925
N1599 X3.7875 Y-2.5768
N1600 X3.7968 Y-2.5615
N1601 X3.801 Y-2.554
N1602 X3.8048 Y-2.5466
N1603 X3.8081 Y-2.5395
N1604 X3.8108 Y-2.5326
N1605 X3.8128 Y-2.5259
N1606 X3.814 Y-2.5196
N1607 X3.8144 Y-2.5135
N1608 X3.8139 Y-2.5078
N1609 X3.8124 Y-2.5024
N1610 X3.8113 Y-2.4999
N1611 X3.8099 Y-2.4975
N1612 X3.8081 Y-2.4951
N1613 X3.8061 Y-2.4929
N1614 X3.8038 Y-2.4908
N1615 X3.8011 Y-2.4889
N1616 X3.77 Y-2.4677
N1617 X3.7191 Y-2.4376
N1618 G3 X3.3242 Y-2.3229 I-0.4541 J-0.8259
N1619 G1 X3.265 Y-2.321
N1620 G3 X2.3244 Y-3.2043 I0. J-0.9425
N1621 G1 X2.3225 Y-3.2635
N1622 G3 X3.2058 Y-4.2041 I0.9425 J0.
N1623 G1 X3.265 Y-4.206
N1624 G3 X4.2056 Y-3.3227 I0. J0.9425
N1625 G1 X4.2075 Y-3.2635
N1626 G3 X3.8804 Y-2.5497 I-0.9425 J0.
N1627 G1 X3.878 Y-2.5473
N1628 X3.876 Y-2.5449
N1629 X3.8742 Y-2.5423
N1630 X3.8727 Y-2.5397
N1631 X3.8706 Y-2.5341
N1632 X3.8695 Y-2.5282
N1633 Y-2.522
N1634 X3.8702 Y-2.5154
N1635 X3.8717 Y-2.5087
N1636 X3.874 Y-2.5017
N1637 X3.877 Y-2.4944
N1638 X3.8804 Y-2.487
N1639 X3.8844 Y-2.4795
N1640 X3.8888 Y-2.4718
N1641 X3.8983 Y-2.4563
N1642 X3.9085 Y-2.4405
N1643 X3.9185 Y-2.4249
N1644 X3.9279 Y-2.4096
N1645 X3.9321 Y-2.4021
N1646 X3.9359 Y-2.3948
N1647 X3.9391 Y-2.3876
N1648 X3.9418 Y-2.3807
N1649 X3.9438 Y-2.374
N1650 X3.9451 Y-2.3677
N1651 X3.9455 Y-2.3616
N1652 X3.945 Y-2.3558
N1653 X3.9436 Y-2.3504
N1654 X3.9424 Y-2.3478
N1655 X3.941 Y-2.3454
N1656 X3.9393 Y-2.343
N1657 X3.9373 Y-2.3408
N1658 X3.935 Y-2.3386
N1659 X3.9323 Y-2.3366
N1660 X3.8928 Y-2.309
N1661 G3 X3.265 Y-2.121 I-0.6278 J-0.9545
N1662 G1 X3.1986 Y-2.1229
N1663 G3 X2.1244 Y-3.1971 I0.0664 J-1.1406
N1664 G1 X2.1225 Y-3.2635
N1665 G3 X3.1986 Y-4.4041 I1.1425 J0.
N1666 G1 X3.265 Y-4.406
N1667 G3 X4.4075 Y-3.2635 I0. J1.1425
N1668 G1 X4.4056 Y-3.1971
N1669 G3 X4.011 Y-2.3982 I-1.1406 J-0.0664
N1670 G1 X4.0086 Y-2.3959
N1671 X4.0066 Y-2.3934
N1672 X4.0048 Y-2.3908
N1673 X4.0033 Y-2.3882
N1674 X4.0011 Y-2.3826
N1675 X4. Y-2.3768
N1676 X3.9999 Y-2.3706
N1677 X4.0006 Y-2.3641
N1678 X4.0022 Y-2.3573
N1679 X4.0044 Y-2.3504
N1680 X4.0073 Y-2.3432
N1681 X4.0107 Y-2.3359
N1682 X4.0147 Y-2.3284
N1683 X4.019 Y-2.3208
N1684 X4.0285 Y-2.3054
N1685 X4.0386 Y-2.2897
N1686 X4.0486 Y-2.2742
N1687 X4.058 Y-2.2588
N1688 X4.0622 Y-2.2514
N1689 X4.066 Y-2.244
N1690 X4.0693 Y-2.2368
N1691 X4.0721 Y-2.2299
N1692 X4.0741 Y-2.2231
N1693 X4.0755 Y-2.2166
N1694 X4.076 Y-2.2104
N1695 X4.0756 Y-2.2045
N1696 X4.0742 Y-2.1989
N1697 X4.0718 Y-2.1937
N1698 X4.0702 Y-2.1912
N1699 X4.0682 Y-2.1889
N1700 X4.066 Y-2.1866
N1701 X4.0634 Y-2.1845
N1702 X4.057 Y-2.1795
N1703 X3.9977 Y-2.1386
N1704 X3.9362 Y-2.1009
N1705 X3.8729 Y-2.0665
N1706 X3.8077 Y-2.0356
N1707 X3.7411 Y-2.0082
N1708 X3.673 Y-1.9845
N1709 X3.6038 Y-1.9644
N1710 X3.5335 Y-1.9481
N1711 X3.4625 Y-1.9356
N1712 X3.391 Y-1.9269
N1713 X3.3191 Y-1.9221
N1714 X3.247 Y-1.9211
N1715 X3.1749 Y-1.924
N1716 X3.1032 Y-1.9308
N1717 X3.0319 Y-1.9414
N1718 X2.9612 Y-1.9558
N1719 X2.8915 Y-1.974
N1720 X2.8228 Y-1.9959
N1721 X2.7554 Y-2.0215
N1722 X2.6895 Y-2.0506
N1723 X2.6252 Y-2.0833
N1724 X2.5628 Y-2.1193
N1725 X2.5024 Y-2.1586
N1726 X2.4442 Y-2.2012
N1727 X2.3883 Y-2.2468
N1728 X2.335 Y-2.2953
N1729 X2.2844 Y-2.3466
N1730 X2.2366 Y-2.4006
N1731 X2.1917 Y-2.457
N1732 X2.15 Y-2.5158
N1733 X2.1115 Y-2.5767
N1734 X2.0763 Y-2.6396
N1735 X2.0445 Y-2.7043
N1736 X2.0162 Y-2.7706
N1737 X1.9916 Y-2.8384
N1738 X1.9706 Y-2.9073
N1739 X1.9534 Y-2.9773
N1740 X1.9399 Y-3.0481
N1741 X1.9302 Y-3.1196
N1742 G3 X1.9225 Y-3.2635 I1.3348 J-0.1439
N1743 G1 X1.9244 Y-3.3356
N1744 G3 X4.607 Y-3.2995 I1.3406 J0.0721
N1745 G1 X4.6075 Y-3.2635
N1746 X4.607 Y-3.2275
N1747 G3 X4.1141 Y-2.2236 I-1.342 J-0.036
N1748 G1 X4.0634 Y-2.1845
N1749 G3 X3.9231 Y-2.2025 I-0.0611 J-0.0791
N1750 G0 Z-0.045
N1751 X3.2295 Y-3.232
N1752 G3 X3.2376 Y-3.2334 Z-0.0993 I-0.0132 J-0.0991 F10.
N1753 X3.2384 Y-3.2336 Z-0.1542 I-0.0213 J-0.0977
N1754 X3.2391 Y-3.2338 Z-0.2091 I-0.0221 J-0.0975
N1755 X3.2398 Y-3.234 Z-0.264 I-0.0228 J-0.0973
N1756 X3.2406 Y-3.2341 Z-0.3189 I-0.0235 J-0.0971
N1757 X3.2413 Y-3.2343 Z-0.3738 I-0.0243 J-0.0971
N1758 X3.242 Y-3.2345 Z-0.4287 I-0.025 J-0.0968
N1759 X3.2428 Y-3.2347 Z-0.4836 I-0.0257 J-0.0966
N1760 X3.2435 Y-3.2349 Z-0.5385 I-0.0265 J-0.0964
N1761 X3.2442 Y-3.2351 Z-0.5934 I-0.0272 J-0.0962
N1762 X3.2782 Y-3.2526 Z-0.645 I-0.0279 J-0.096
N1763 G1 X3.2737 Y-3.2491 F24.
N1764 X3.2688 Y-3.2479
N1765 X3.2648 Y-3.2469
N1766 X3.2577 Y-3.2486
N1767 X3.2546 Y-3.2512
N1768 X3.2515 Y-3.2539
N1769 X3.2487 Y-3.2606
N1770 X3.249 Y-3.2647
N1771 X3.2493 Y-3.2688
N1772 X3.253 Y-3.275
N1773 X3.2565 Y-3.2772
N1774 X3.26 Y-3.2794
N1775 X3.2672 Y-3.28
N1776 X3.2709 Y-3.2785
N1777 X3.2748 Y-3.2769
N1778 X3.2794 Y-3.2719
N1779 X3.2804 Y-3.2682
N1780 X3.2816 Y-3.264
N1781 X3.2811 Y-3.2582
N1782 X3.2796 Y-3.2554
N1783 X3.2782 Y-3.2526
N1784 X3.2765 Y-3.2488
N1785 X3.2752 Y-3.2447
N1786 X3.2743 Y-3.2404
N1787 X3.2737 Y-3.2358
N1788 X3.2734 Y-3.2262
N1789 X3.274 Y-3.216
N1790 X3.2754 Y-3.2054
N1791 X3.2771 Y-3.1947
N1792 X3.2811 Y-3.1735
N1793 X3.2828 Y-3.1634
N1794 X3.284 Y-3.1539
N1795 X3.2844 Y-3.1452
N1796 X3.2842 Y-3.1413
N1797 X3.2838 Y-3.1376
N1798 X3.283 Y-3.1342
N1799 X3.2819 Y-3.1312
N1800 X3.2804 Y-3.1285
N1801 X3.2785 Y-3.1261
N1802 X3.2762 Y-3.1242
N1803 X3.2734 Y-3.1227
N1804 X3.2701 Y-3.1217
N1805 X3.2662 Y-3.1211
N1806 X3.265 Y-3.121
N1807 X3.2427 Y-3.1228
N1808 G3 X3.1243 Y-3.2412 I0.0223 J-0.1407
N1809 G1 X3.1225 Y-3.2635
N1810 G3 X3.2427 Y-3.4042 I0.1425 J0.
N1811 G1 X3.265 Y-3.406
N1812 G3 X3.4075 Y-3.2635 I0. J0.1425
N1813 G1 X3.4057 Y-3.2412
N1814 G3 X3.358 Y-3.1556 I-0.1407 J-0.0223
N1815 G1 X3.3558 Y-3.1533
N1816 X3.3538 Y-3.1509
N1817 X3.3522 Y-3.1484
N1818 X3.3508 Y-3.1457
N1819 X3.3488 Y-3.1402
N1820 X3.3478 Y-3.1344
N1821 Y-3.1282
N1822 X3.3486 Y-3.1217
N1823 X3.3502 Y-3.1149
N1824 X3.3524 Y-3.1079
N1825 X3.3552 Y-3.1007
N1826 X3.3586 Y-3.0933
N1827 X3.3666 Y-3.0782
N1828 X3.3757 Y-3.0627
N1829 X3.3854 Y-3.0472
N1830 X3.3949 Y-3.0318
N1831 X3.4036 Y-3.0169
N1832 X3.4075 Y-3.0097
N1833 X3.411 Y-3.0027
N1834 X3.4139 Y-2.9959
N1835 X3.4163 Y-2.9894
N1836 X3.418 Y-2.9832
N1837 X3.4189 Y-2.9773
N1838 X3.419 Y-2.9718
N1839 X3.4183 Y-2.9667
N1840 X3.4165 Y-2.9619
N1841 X3.4152 Y-2.9598
N1842 X3.4136 Y-2.9577
N1843 X3.4118 Y-2.9557
N1844 X3.4097 Y-2.9539
N1845 X3.4044 Y-2.9507
N1846 G3 X3.265 Y-2.921 I-0.1394 J-0.3128
N1847 G1 X3.2292 Y-2.9229
N1848 G3 X2.9244 Y-3.2277 I0.0358 J-0.3406
N1849 G1 X2.9225 Y-3.2635
N1850 G3 X3.265 Y-3.606 I0.3425 J0.
N1851 G1 X3.3008 Y-3.6041
N1852 G3 X3.6056 Y-3.2993 I-0.0358 J0.3406
N1853 G1 X3.6075 Y-3.2635
N1854 G3 X3.4886 Y-3.0041 I-0.3425 J0.
N1855 G1 X3.4863 Y-3.0018
N1856 X3.4842 Y-2.9994
N1857 X3.4825 Y-2.9969
N1858 X3.481 Y-2.9943
N1859 X3.4789 Y-2.9889
N1860 X3.4778 Y-2.983
N1861 Y-2.9768
N1862 X3.4785 Y-2.9704
N1863 X3.48 Y-2.9636
N1864 X3.4823 Y-2.9566
N1865 X3.4852 Y-2.9494
N1866 X3.4886 Y-2.942
N1867 X3.4925 Y-2.9345
N1868 X3.4968 Y-2.9268
N1869 X3.5061 Y-2.9112
N1870 X3.5161 Y-2.8955
N1871 X3.5259 Y-2.88
N1872 X3.535 Y-2.8648
N1873 X3.5391 Y-2.8574
N1874 X3.5427 Y-2.8502
N1875 X3.5459 Y-2.8432
N1876 X3.5484 Y-2.8365
N1877 X3.5503 Y-2.83
N1878 X3.5514 Y-2.8239
N1879 X3.5517 Y-2.818
N1880 X3.551 Y-2.8126
N1881 X3.5494 Y-2.8075
N1882 X3.5482 Y-2.8051
N1883 X3.5467 Y-2.8029
N1884 X3.5449 Y-2.8007
N1885 X3.5428 Y-2.7987
N1886 X3.5377 Y-2.795
N1887 X3.5232 Y-2.7864
N1888 G3 X3.3098 Y-2.7229 I-0.2582 J-0.4771
N1889 G1 X3.265 Y-2.721
N1890 G3 X2.7244 Y-3.2187 I0. J-0.5425
N1891 G1 X2.7225 Y-3.2635
N1892 G3 X3.265 Y-3.806 I0.5425 J0.
N1893 G1 X3.3098 Y-3.8041
N1894 G3 X3.8056 Y-3.3083 I-0.0448 J0.5406
N1895 G1 X3.8075 Y-3.2635
N1896 G3 X3.6192 Y-2.8526 I-0.5425 J0.
N1897 G1 X3.6169 Y-2.8503
N1898 X3.6148 Y-2.8479
N1899 X3.613 Y-2.8454
N1900 X3.6115 Y-2.8428
N1901 X3.6094 Y-2.8372
N1902 X3.6083 Y-2.8314
N1903 X3.6082 Y-2.8252
N1904 X3.6089 Y-2.8188
N1905 X3.6104 Y-2.812
N1906 X3.6127 Y-2.8051
N1907 X3.6156 Y-2.7979
N1908 X3.619 Y-2.7906
N1909 X3.6229 Y-2.7831
N1910 X3.6272 Y-2.7754
N1911 X3.6366 Y-2.76
N1912 X3.6466 Y-2.7443
N1913 X3.6565 Y-2.7288
N1914 X3.6657 Y-2.7136
N1915 X3.6699 Y-2.7061
N1916 X3.6736 Y-2.6989
N1917 X3.6768 Y-2.6918
N1918 X3.6794 Y-2.6849
N1919 X3.6814 Y-2.6783
N1920 X3.6826 Y-2.672
N1921 X3.683 Y-2.6659
N1922 X3.6825 Y-2.6602
N1923 X3.681 Y-2.6549
N1924 X3.6799 Y-2.6523
N1925 X3.6785 Y-2.6499
N1926 X3.6768 Y-2.6476
N1927 X3.6748 Y-2.6453
N1928 X3.6698 Y-2.6412
N1929 X3.6664 Y-2.6389
N1930 G3 X3.265 Y-2.521 I-0.4014 J-0.6246
N1931 G1 X3.212 Y-2.5229
N1932 G3 X2.5244 Y-3.2105 I0.053 J-0.7406
N1933 G1 X2.5225 Y-3.2635
N1934 G3 X3.265 Y-4.006 I0.7425 J0.
N1935 G1 X3.318 Y-4.0041
N1936 G3 X4.0075 Y-3.2635 I-0.053 J0.7406
N1937 G1 X4.0056 Y-3.2105
N1938 G3 X3.7498 Y-2.7011 I-0.7406 J-0.053
N1939 G1 X3.7474 Y-2.6989
N1940 X3.7453 Y-2.6965
N1941 X3.7435 Y-2.694
N1942 X3.742 Y-2.6914
N1943 X3.7398 Y-2.6859
N1944 X3.7387 Y-2.68
N1945 X3.7385 Y-2.6739
N1946 X3.7393 Y-2.6674
N1947 X3.7408 Y-2.6606
N1948 X3.7431 Y-2.6536
N1949 X3.746 Y-2.6464
N1950 X3.7494 Y-2.6391
N1951 X3.7534 Y-2.6315
N1952 X3.7577 Y-2.6238
N1953 X3.7673 Y-2.6082
N1954 X3.7774 Y-2.5925
N1955 X3.7875 Y-2.5768
N1956 X3.7968 Y-2.5615
N1957 X3.801 Y-2.554
N1958 X3.8048 Y-2.5466
N1959 X3.8081 Y-2.5395
N1960 X3.8108 Y-2.5326
N1961 X3.8128 Y-2.5259
N1962 X3.814 Y-2.5196
N1963 X3.8144 Y-2.5135
N1964 X3.8139 Y-2.5078
N1965 X3.8124 Y-2.5024
N1966 X3.8113 Y-2.4999
N1967 X3.8099 Y-2.4975
N1968 X3.8081 Y-2.4951
N1969 X3.8061 Y-2.4929
N1970 X3.8038 Y-2.4908
N1971 X3.8011 Y-2.4889
N1972 X3.77 Y-2.4677
N1973 X3.7191 Y-2.4376
N1974 G3 X3.3242 Y-2.3229 I-0.4541 J-0.8259
N1975 G1 X3.265 Y-2.321
N1976 G3 X2.3244 Y-3.2043 I0. J-0.9425
N1977 G1 X2.3225 Y-3.2635
N1978 G3 X3.2058 Y-4.2041 I0.9425 J0.
N1979 G1 X3.265 Y-4.206
N1980 G3 X4.2056 Y-3.3227 I0. J0.9425
N1981 G1 X4.2075 Y-3.2635
N1982 G3 X3.8804 Y-2.5497 I-0.9425 J0.
N1983 G1 X3.878 Y-2.5473
N1984 X3.876 Y-2.5449
N1985 X3.8742 Y-2.5423
N1986 X3.8727 Y-2.5397
N1987 X3.8706 Y-2.5341
N1988 X3.8695 Y-2.5282
N1989 Y-2.522
N1990 X3.8702 Y-2.5154
N1991 X3.8717 Y-2.5087
N1992 X3.874 Y-2.5017
N1993 X3.877 Y-2.4944
N1994 X3.8804 Y-2.487
N1995 X3.8844 Y-2.4795
N1996 X3.8888 Y-2.4718
N1997 X3.8983 Y-2.4563
N1998 X3.9085 Y-2.4405
N1999 X3.9185 Y-2.4249
N2000 X3.9279 Y-2.4096
N2001 X3.9321 Y-2.4021
N2002 X3.9359 Y-2.3948
N2003 X3.9391 Y-2.3876
N2004 X3.9418 Y-2.3807
N2005 X3.9438 Y-2.374
N2006 X3.9451 Y-2.3677
N2007 X3.9455 Y-2.3616
N2008 X3.945 Y-2.3558
N2009 X3.9436 Y-2.3504
N2010 X3.9424 Y-2.3478
N2011 X3.941 Y-2.3454
N2012 X3.9393 Y-2.343
N2013 X3.9373 Y-2.3408
N2014 X3.935 Y-2.3386
N2015 X3.9323 Y-2.3366
N2016 X3.8928 Y-2.309
N2017 G3 X3.265 Y-2.121 I-0.6278 J-0.9545
N2018 G1 X3.1986 Y-2.1229
N2019 G3 X2.1244 Y-3.1971 I0.0664 J-1.1406
N2020 G1 X2.1225 Y-3.2635
N2021 G3 X3.1986 Y-4.4041 I1.1425 J0.
N2022 G1 X3.265 Y-4.406
N2023 G3 X4.4075 Y-3.2635 I0. J1.1425
N2024 G1 X4.4056 Y-3.1971
N2025 G3 X4.011 Y-2.3982 I-1.1406 J-0.0664
N2026 G1 X4.0086 Y-2.3959
N2027 X4.0066 Y-2.3934
N2028 X4.0048 Y-2.3908
N2029 X4.0033 Y-2.3882
N2030 X4.0011 Y-2.3826
N2031 X4. Y-2.3768
N2032 X3.9999 Y-2.3706
N2033 X4.0006 Y-2.3641
N2034 X4.0022 Y-2.3573
N2035 X4.0044 Y-2.3504
N2036 X4.0073 Y-2.3432
N2037 X4.0107 Y-2.3359
N2038 X4.0147 Y-2.3284
N2039 X4.019 Y-2.3208
N2040 X4.0285 Y-2.3054
N2041 X4.0386 Y-2.2897
N2042 X4.0486 Y-2.2742
N2043 X4.058 Y-2.2588
N2044 X4.0622 Y-2.2514
N2045 X4.066 Y-2.244
N2046 X4.0693 Y-2.2368
N2047 X4.0721 Y-2.2299
N2048 X4.0741 Y-2.2231
N2049 X4.0755 Y-2.2166
N2050 X4.076 Y-2.2104
N2051 X4.0756 Y-2.2045
N2052 X4.0742 Y-2.1989
N2053 X4.0718 Y-2.1937
N2054 X4.0702 Y-2.1912
N2055 X4.0682 Y-2.1889
N2056 X4.066 Y-2.1866
N2057 X4.0634 Y-2.1845
N2058 X4.057 Y-2.1795
N2059 X3.9977 Y-2.1386
N2060 X3.9362 Y-2.1009
N2061 X3.8729 Y-2.0665
N2062 X3.8077 Y-2.0356
N2063 X3.7411 Y-2.0082
N2064 X3.673 Y-1.9845
N2065 X3.6038 Y-1.9644
N2066 X3.5335 Y-1.9481
N2067 X3.4625 Y-1.9356
N2068 X3.391 Y-1.9269
N2069 X3.3191 Y-1.9221
N2070 X3.247 Y-1.9211
N2071 X3.1749 Y-1.924
N2072 X3.1032 Y-1.9308
N2073 X3.0319 Y-1.9414
N2074 X2.9612 Y-1.9558
N2075 X2.8915 Y-1.974
N2076 X2.8228 Y-1.9959
N2077 X2.7554 Y-2.0215
N2078 X2.6895 Y-2.0506
N2079 X2.6252 Y-2.0833
N2080 X2.5628 Y-2.1193
N2081 X2.5024 Y-2.1586
N2082 X2.4442 Y-2.2012
N2083 X2.3883 Y-2.2468
N2084 X2.335 Y-2.2953
N2085 X2.2844 Y-2.3466
N2086 X2.2366 Y-2.4006
N2087 X2.1917 Y-2.457
N2088 X2.15 Y-2.5158
N2089 X2.1115 Y-2.5767
N2090 X2.0763 Y-2.6396
N2091 X2.0445 Y-2.7043
N2092 X2.0162 Y-2.7706
N2093 X1.9916 Y-2.8384
N2094 X1.9706 Y-2.9073
N2095 X1.9534 Y-2.9773
N2096 X1.9399 Y-3.0481
N2097 X1.9302 Y-3.1196
N2098 G3 X1.9225 Y-3.2635 I1.3348 J-0.1439
N2099 G1 X1.9244 Y-3.3356
N2100 G3 X4.607 Y-3.2995 I1.3406 J0.0721
N2101 G1 X4.6075 Y-3.2635
N2102 X4.607 Y-3.2275
N2103 G3 X4.1141 Y-2.2236 I-1.342 J-0.036
N2104 G1 X4.0634 Y-2.1845
N2105 G3 X3.9231 Y-2.2025 I-0.0611 J-0.0791
N2106 G0 Z-0.245
N2107 X3.2295 Y-3.232
N2108 G3 X3.2376 Y-3.2334 Z-0.2993 I-0.0132 J-0.0991 F10.
N2109 X3.2384 Y-3.2336 Z-0.3542 I-0.0213 J-0.0977
N2110 X3.2391 Y-3.2338 Z-0.4091 I-0.0221 J-0.0975
N2111 X3.2398 Y-3.234 Z-0.464 I-0.0228 J-0.0973
N2112 X3.2406 Y-3.2341 Z-0.5189 I-0.0235 J-0.0971
N2113 X3.2413 Y-3.2343 Z-0.5738 I-0.0243 J-0.0971
N2114 X3.242 Y-3.2345 Z-0.6287 I-0.025 J-0.0968
N2115 X3.2428 Y-3.2347 Z-0.6836 I-0.0257 J-0.0966
N2116 X3.2435 Y-3.2349 Z-0.7385 I-0.0265 J-0.0964
N2117 X3.2442 Y-3.2351 Z-0.7934 I-0.0272 J-0.0962
N2118 X3.2782 Y-3.2526 Z-0.845 I-0.0279 J-0.096
N2119 G1 X3.2737 Y-3.2491 F24.
N2120 X3.2688 Y-3.2479
N2121 X3.2648 Y-3.2469
N2122 X3.2577 Y-3.2486
N2123 X3.2546 Y-3.2512
N2124 X3.2515 Y-3.2539
N2125 X3.2487 Y-3.2606
N2126 X3.249 Y-3.2647
N2127 X3.2493 Y-3.2688
N2128 X3.253 Y-3.275
N2129 X3.2565 Y-3.2772
N2130 X3.26 Y-3.2794
N2131 X3.2672 Y-3.28
N2132 X3.2709 Y-3.2785
N2133 X3.2748 Y-3.2769
N2134 X3.2794 Y-3.2719
N2135 X3.2804 Y-3.2682
N2136 X3.2816 Y-3.264
N2137 X3.2811 Y-3.2582
N2138 X3.2796 Y-3.2554
N2139 X3.2782 Y-3.2526
N2140 X3.2765 Y-3.2488
N2141 X3.2752 Y-3.2447
N2142 X3.2743 Y-3.2404
N2143 X3.2737 Y-3.2358
N2144 X3.2734 Y-3.2262
N2145 X3.274 Y-3.216
N2146 X3.2754 Y-3.2054
N2147 X3.2771 Y-3.1947
N2148 X3.2811 Y-3.1735
N2149 X3.2828 Y-3.1634
N2150 X3.284 Y-3.1539
N2151 X3.2844 Y-3.1452
N2152 X3.2842 Y-3.1413
N2153 X3.2838 Y-3.1376
N2154 X3.283 Y-3.1342
N2155 X3.2819 Y-3.1312
N2156 X3.2804 Y-3.1285
N2157 X3.2785 Y-3.1261
N2158 X3.2762 Y-3.1242
N2159 X3.2734 Y-3.1227
N2160 X3.2701 Y-3.1217
N2161 X3.2662 Y-3.1211
N2162 X3.265 Y-3.121
N2163 X3.2427 Y-3.1228
N2164 G3 X3.1243 Y-3.2412 I0.0223 J-0.1407
N2165 G1 X3.1225 Y-3.2635
N2166 G3 X3.2427 Y-3.4042 I0.1425 J0.
N2167 G1 X3.265 Y-3.406
N2168 G3 X3.4075 Y-3.2635 I0. J0.1425
N2169 G1 X3.4057 Y-3.2412
N2170 G3 X3.358 Y-3.1556 I-0.1407 J-0.0223
N2171 G1 X3.3558 Y-3.1533
N2172 X3.3538 Y-3.1509
N2173 X3.3522 Y-3.1484
N2174 X3.3508 Y-3.1457
N2175 X3.3488 Y-3.1402
N2176 X3.3478 Y-3.1344
N2177 Y-3.1282
N2178 X3.3486 Y-3.1217
N2179 X3.3502 Y-3.1149
N2180 X3.3524 Y-3.1079
N2181 X3.3552 Y-3.1007
N2182 X3.3586 Y-3.0933
N2183 X3.3666 Y-3.0782
N2184 X3.3757 Y-3.0627
N2185 X3.3854 Y-3.0472
N2186 X3.3949 Y-3.0318
N2187 X3.4036 Y-3.0169
N2188 X3.4075 Y-3.0097
N2189 X3.411 Y-3.0027
N2190 X3.4139 Y-2.9959
N2191 X3.4163 Y-2.9894
N2192 X3.418 Y-2.9832
N2193 X3.4189 Y-2.9773
N2194 X3.419 Y-2.9718
N2195 X3.4183 Y-2.9667
N2196 X3.4165 Y-2.9619
N2197 X3.4152 Y-2.9598
N2198 X3.4136 Y-2.9577
N2199 X3.4118 Y-2.9557
N2200 X3.4097 Y-2.9539
N2201 X3.4044 Y-2.9507
N2202 G3 X3.265 Y-2.921 I-0.1394 J-0.3128
N2203 G1 X3.2292 Y-2.9229
N2204 G3 X2.9244 Y-3.2277 I0.0358 J-0.3406
N2205 G1 X2.9225 Y-3.2635
N2206 G3 X3.265 Y-3.606 I0.3425 J0.
N2207 G1 X3.3008 Y-3.6041
N2208 G3 X3.6056 Y-3.2993 I-0.0358 J0.3406
N2209 G1 X3.6075 Y-3.2635
N2210 G3 X3.4886 Y-3.0041 I-0.3425 J0.
N2211 G1 X3.4863 Y-3.0018
N2212 X3.4842 Y-2.9994
N2213 X3.4825 Y-2.9969
N2214 X3.481 Y-2.9943
N2215 X3.4789 Y-2.9889
N2216 X3.4778 Y-2.983
N2217 Y-2.9768
N2218 X3.4785 Y-2.9704
N2219 X3.48 Y-2.9636
N2220 X3.4823 Y-2.9566
N2221 X3.4852 Y-2.9494
N2222 X3.4886 Y-2.942
N2223 X3.4925 Y-2.9345
N2224 X3.4968 Y-2.9268
N2225 X3.5061 Y-2.9112
N2226 X3.5161 Y-2.8955
N2227 X3.5259 Y-2.88
N2228 X3.535 Y-2.8648
N2229 X3.5391 Y-2.8574
N2230 X3.5427 Y-2.8502
N2231 X3.5459 Y-2.8432
N2232 X3.5484 Y-2.8365
N2233 X3.5503 Y-2.83
N2234 X3.5514 Y-2.8239
N2235 X3.5517 Y-2.818
N2236 X3.551 Y-2.8126
N2237 X3.5494 Y-2.8075
N2238 X3.5482 Y-2.8051
N2239 X3.5467 Y-2.8029
N2240 X3.5449 Y-2.8007
N2241 X3.5428 Y-2.7987
N2242 X3.5377 Y-2.795
N2243 X3.5232 Y-2.7864
N2244 G3 X3.3098 Y-2.7229 I-0.2582 J-0.4771
N2245 G1 X3.265 Y-2.721
N2246 G3 X2.7244 Y-3.2187 I0. J-0.5425
N2247 G1 X2.7225 Y-3.2635
N2248 G3 X3.265 Y-3.806 I0.5425 J0.
N2249 G1 X3.3098 Y-3.8041
N2250 G3 X3.8056 Y-3.3083 I-0.0448 J0.5406
N2251 G1 X3.8075 Y-3.2635
N2252 G3 X3.6192 Y-2.8526 I-0.5425 J0.
N2253 G1 X3.6169 Y-2.8503
N2254 X3.6148 Y-2.8479
N2255 X3.613 Y-2.8454
N2256 X3.6115 Y-2.8428
N2257 X3.6094 Y-2.8372
N2258 X3.6083 Y-2.8314
N2259 X3.6082 Y-2.8252
N2260 X3.6089 Y-2.8188
N2261 X3.6104 Y-2.812
N2262 X3.6127 Y-2.8051
N2263 X3.6156 Y-2.7979
N2264 X3.619 Y-2.7906
N2265 X3.6229 Y-2.7831
N2266 X3.6272 Y-2.7754
N2267 X3.6366 Y-2.76
N2268 X3.6466 Y-2.7443
N2269 X3.6565 Y-2.7288
N2270 X3.6657 Y-2.7136
N2271 X3.6699 Y-2.7061
N2272 X3.6736 Y-2.6989
N2273 X3.6768 Y-2.6918
N2274 X3.6794 Y-2.6849
N2275 X3.6814 Y-2.6783
N2276 X3.6826 Y-2.672
N2277 X3.683 Y-2.6659
N2278 X3.6825 Y-2.6602
N2279 X3.681 Y-2.6549
N2280 X3.6799 Y-2.6523
N2281 X3.6785 Y-2.6499
N2282 X3.6768 Y-2.6476
N2283 X3.6748 Y-2.6453
N2284 X3.6698 Y-2.6412
N2285 X3.6664 Y-2.6389
N2286 G3 X3.265 Y-2.521 I-0.4014 J-0.6246
N2287 G1 X3.212 Y-2.5229
N2288 G3 X2.5244 Y-3.2105 I0.053 J-0.7406
N2289 G1 X2.5225 Y-3.2635
N2290 G3 X3.265 Y-4.006 I0.7425 J0.
N2291 G1 X3.318 Y-4.0041
N2292 G3 X4.0075 Y-3.2635 I-0.053 J0.7406
N2293 G1 X4.0056 Y-3.2105
N2294 G3 X3.7498 Y-2.7011 I-0.7406 J-0.053
N2295 G1 X3.7474 Y-2.6989
N2296 X3.7453 Y-2.6965
N2297 X3.7435 Y-2.694
N2298 X3.742 Y-2.6914
N2299 X3.7398 Y-2.6859
N2300 X3.7387 Y-2.68
N2301 X3.7385 Y-2.6739
N2302 X3.7393 Y-2.6674
N2303 X3.7408 Y-2.6606
N2304 X3.7431 Y-2.6536
N2305 X3.746 Y-2.6464
N2306 X3.7494 Y-2.6391
N2307 X3.7534 Y-2.6315
N2308 X3.7577 Y-2.6238
N2309 X3.7673 Y-2.6082
N2310 X3.7774 Y-2.5925
N2311 X3.7875 Y-2.5768
N2312 X3.7968 Y-2.5615
N2313 X3.801 Y-2.554
N2314 X3.8048 Y-2.5466
N2315 X3.8081 Y-2.5395
N2316 X3.8108 Y-2.5326
N2317 X3.8128 Y-2.5259
N2318 X3.814 Y-2.5196
N2319 X3.8144 Y-2.5135
N2320 X3.8139 Y-2.5078
N2321 X3.8124 Y-2.5024
N2322 X3.8113 Y-2.4999
N2323 X3.8099 Y-2.4975
N2324 X3.8081 Y-2.4951
N2325 X3.8061 Y-2.4929
N2326 X3.8038 Y-2.4908
N2327 X3.8011 Y-2.4889
N2328 X3.77 Y-2.4677
N2329 X3.7191 Y-2.4376
N2330 G3 X3.3242 Y-2.3229 I-0.4541 J-0.8259
N2331 G1 X3.265 Y-2.321
N2332 G3 X2.3244 Y-3.2043 I0. J-0.9425
N2333 G1 X2.3225 Y-3.2635
N2334 G3 X3.2058 Y-4.2041 I0.9425 J0.
N2335 G1 X3.265 Y-4.206
N2336 G3 X4.2056 Y-3.3227 I0. J0.9425
N2337 G1 X4.2075 Y-3.2635
N2338 G3 X3.8804 Y-2.5497 I-0.9425 J0.
N2339 G1 X3.878 Y-2.5473
N2340 X3.876 Y-2.5449
N2341 X3.8742 Y-2.5423
N2342 X3.8727 Y-2.5397
N2343 X3.8706 Y-2.5341
N2344 X3.8695 Y-2.5282
N2345 Y-2.522
N2346 X3.8702 Y-2.5154
N2347 X3.8717 Y-2.5087
N2348 X3.874 Y-2.5017
N2349 X3.877 Y-2.4944
N2350 X3.8804 Y-2.487
N2351 X3.8844 Y-2.4795
N2352 X3.8888 Y-2.4718
N2353 X3.8983 Y-2.4563
N2354 X3.9085 Y-2.4405
N2355 X3.9185 Y-2.4249
N2356 X3.9279 Y-2.4096
N2357 X3.9321 Y-2.4021
N2358 X3.9359 Y-2.3948
N2359 X3.9391 Y-2.3876
N2360 X3.9418 Y-2.3807
N2361 X3.9438 Y-2.374
N2362 X3.9451 Y-2.3677
N2363 X3.9455 Y-2.3616
N2364 X3.945 Y-2.3558
N2365 X3.9436 Y-2.3504
N2366 X3.9424 Y-2.3478
N2367 X3.941 Y-2.3454
N2368 X3.9393 Y-2.343
N2369 X3.9373 Y-2.3408
N2370 X3.935 Y-2.3386
N2371 X3.9323 Y-2.3366
N2372 X3.8928 Y-2.309
N2373 G3 X3.265 Y-2.121 I-0.6278 J-0.9545
N2374 G1 X3.1986 Y-2.1229
N2375 G3 X2.1244 Y-3.1971 I0.0664 J-1.1406
N2376 G1 X2.1225 Y-3.2635
N2377 G3 X3.1986 Y-4.4041 I1.1425 J0.
N2378 G1 X3.265 Y-4.406
N2379 G3 X4.4075 Y-3.2635 I0. J1.1425
N2380 G1 X4.4056 Y-3.1971
N2381 G3 X4.011 Y-2.3982 I-1.1406 J-0.0664
N2382 G1 X4.0086 Y-2.3959
N2383 X4.0066 Y-2.3934
N2384 X4.0048 Y-2.3908
N2385 X4.0033 Y-2.3882
N2386 X4.0011 Y-2.3826
N2387 X4. Y-2.3768
N2388 X3.9999 Y-2.3706
N2389 X4.0006 Y-2.3641
N2390 X4.0022 Y-2.3573
N2391 X4.0044 Y-2.3504
N2392 X4.0073 Y-2.3432
N2393 X4.0107 Y-2.3359
N2394 X4.0147 Y-2.3284
N2395 X4.019 Y-2.3208
N2396 X4.0285 Y-2.3054
N2397 X4.0386 Y-2.2897
N2398 X4.0486 Y-2.2742
N2399 X4.058 Y-2.2588
N2400 X4.0622 Y-2.2514
N2401 X4.066 Y-2.244
N2402 X4.0693 Y-2.2368
N2403 X4.0721 Y-2.2299
N2404 X4.0741 Y-2.2231
N2405 X4.0755 Y-2.2166
N2406 X4.076 Y-2.2104
N2407 X4.0756 Y-2.2045
N2408 X4.0742 Y-2.1989
N2409 X4.0718 Y-2.1937
N2410 X4.0702 Y-2.1912
N2411 X4.0682 Y-2.1889
N2412 X4.066 Y-2.1866
N2413 X4.0634 Y-2.1845
N2414 X4.057 Y-2.1795
N2415 X3.9977 Y-2.1386
N2416 X3.9362 Y-2.1009
N2417 X3.8729 Y-2.0665
N2418 X3.8077 Y-2.0356
N2419 X3.7411 Y-2.0082
N2420 X3.673 Y-1.9845
N2421 X3.6038 Y-1.9644
N2422 X3.5335 Y-1.9481
N2423 X3.4625 Y-1.9356
N2424 X3.391 Y-1.9269
N2425 X3.3191 Y-1.9221
N2426 X3.247 Y-1.9211
N2427 X3.1749 Y-1.924
N2428 X3.1032 Y-1.9308
N2429 X3.0319 Y-1.9414
N2430 X2.9612 Y-1.9558
N2431 X2.8915 Y-1.974
N2432 X2.8228 Y-1.9959
N2433 X2.7554 Y-2.0215
N2434 X2.6895 Y-2.0506
N2435 X2.6252 Y-2.0833
N2436 X2.5628 Y-2.1193
N2437 X2.5024 Y-2.1586
N2438 X2.4442 Y-2.2012
N2439 X2.3883 Y-2.2468
N2440 X2.335 Y-2.2953
N2441 X2.2844 Y-2.3466
N2442 X2.2366 Y-2.4006
N2443 X2.1917 Y-2.457
N2444 X2.15 Y-2.5158
N2445 X2.1115 Y-2.5767
N2446 X2.0763 Y-2.6396
N2447 X2.0445 Y-2.7043
N2448 X2.0162 Y-2.7706
N2449 X1.9916 Y-2.8384
N2450 X1.9706 Y-2.9073
N2451 X1.9534 Y-2.9773
N2452 X1.9399 Y-3.0481
N2453 X1.9302 Y-3.1196
N2454 G3 X1.9225 Y-3.2635 I1.3348 J-0.1439
N2455 G1 X1.9244 Y-3.3356
N2456 G3 X4.607 Y-3.2995 I1.3406 J0.0721
N2457 G1 X4.6075 Y-3.2635
N2458 X4.607 Y-3.2275
N2459 G3 X4.1141 Y-2.2236 I-1.342 J-0.036
N2460 G1 X4.0634 Y-2.1845
N2461 G3 X3.9231 Y-2.2025 I-0.0611 J-0.0791
N2462 G0 Z-0.445
N2463 X3.1328 Y-3.3862
N2464 G3 X3.1273 Y-3.3767 Z-0.499 I0.0835 J0.0551 F10.
N2465 X3.1269 Y-3.3761 Z-0.5539 I0.089 J0.0456
N2466 X3.1266 Y-3.3754 Z-0.6088 I0.0894 J0.045
N2467 X3.1263 Y-3.3747 Z-0.6637 I0.0897 J0.0443
N2468 X3.1259 Y-3.374 Z-0.7186 I0.09 J0.0436
N2469 X3.1256 Y-3.3733 Z-0.7735 I0.0904 J0.0429
N2470 X3.1253 Y-3.3726 Z-0.8284 I0.0907 J0.0422
N2471 X3.125 Y-3.372 Z-0.8833 I0.091 J0.0415
N2472 X3.1247 Y-3.3713 Z-0.9383 I0.0913 J0.0409
N2473 X3.1244 Y-3.3706 Z-0.9932 I0.0916 J0.0402
N2474 X3.2782 Y-3.2526 Z-1.025 I0.0919 J0.0395
N2475 G1 X3.2737 Y-3.2491 F24.
N2476 X3.2688 Y-3.2479
N2477 X3.2648 Y-3.2469
N2478 X3.2577 Y-3.2486
N2479 X3.2546 Y-3.2512
N2480 X3.2515 Y-3.2539
N2481 X3.2487 Y-3.2606
N2482 X3.249 Y-3.2647
N2483 X3.2493 Y-3.2688
N2484 X3.253 Y-3.275
N2485 X3.2565 Y-3.2772
N2486 X3.26 Y-3.2794
N2487 X3.2672 Y-3.28
N2488 X3.2709 Y-3.2785
N2489 X3.2748 Y-3.2769
N2490 X3.2794 Y-3.2719
N2491 X3.2804 Y-3.2682
N2492 X3.2816 Y-3.264
N2493 X3.2811 Y-3.2582
N2494 X3.2796 Y-3.2554
N2495 X3.2782 Y-3.2526
N2496 X3.2765 Y-3.2488
N2497 X3.2752 Y-3.2447
N2498 X3.2743 Y-3.2404
N2499 X3.2737 Y-3.2358
N2500 X3.2734 Y-3.2262
N2501 X3.274 Y-3.216
N2502 X3.2754 Y-3.2054
N2503 X3.2771 Y-3.1947
N2504 X3.2811 Y-3.1735
N2505 X3.2828 Y-3.1634
N2506 X3.284 Y-3.1539
N2507 X3.2844 Y-3.1452
N2508 X3.2842 Y-3.1413
N2509 X3.2838 Y-3.1376
N2510 X3.283 Y-3.1342
N2511 X3.2819 Y-3.1312
N2512 X3.2804 Y-3.1285
N2513 X3.2785 Y-3.1261
N2514 X3.2762 Y-3.1242
N2515 X3.2734 Y-3.1227
N2516 X3.2701 Y-3.1217
N2517 X3.2662 Y-3.1211
N2518 X3.265 Y-3.121
N2519 X3.2427 Y-3.1228
N2520 G3 X3.1243 Y-3.2412 I0.0223 J-0.1407
N2521 G1 X3.1225 Y-3.2635
N2522 G3 X3.2427 Y-3.4042 I0.1425 J0.
N2523 G1 X3.265 Y-3.406
N2524 G3 X3.4075 Y-3.2635 I0. J0.1425
N2525 G1 X3.4057 Y-3.2412
N2526 G3 X3.358 Y-3.1556 I-0.1407 J-0.0223
N2527 G1 X3.3558 Y-3.1533
N2528 X3.3538 Y-3.1509
N2529 X3.3522 Y-3.1484
N2530 X3.3508 Y-3.1457
N2531 X3.3488 Y-3.1402
N2532 X3.3478 Y-3.1344
N2533 Y-3.1282
N2534 X3.3486 Y-3.1217
N2535 X3.3502 Y-3.1149
N2536 X3.3524 Y-3.1079
N2537 X3.3552 Y-3.1007
N2538 X3.3586 Y-3.0933
N2539 X3.3666 Y-3.0782
N2540 X3.3757 Y-3.0627
N2541 X3.3854 Y-3.0472
N2542 X3.3949 Y-3.0318
N2543 X3.4036 Y-3.0169
N2544 X3.4075 Y-3.0097
N2545 X3.411 Y-3.0027
N2546 X3.4139 Y-2.9959
N2547 X3.4163 Y-2.9894
N2548 X3.418 Y-2.9832
N2549 X3.4189 Y-2.9773
N2550 X3.419 Y-2.9718
N2551 X3.4183 Y-2.9667
N2552 X3.4165 Y-2.9619
N2553 X3.4152 Y-2.9598
N2554 X3.4136 Y-2.9577
N2555 X3.4118 Y-2.9557
N2556 X3.4097 Y-2.9539
N2557 X3.4044 Y-2.9507
N2558 G3 X3.265 Y-2.921 I-0.1394 J-0.3128
N2559 G1 X3.2292 Y-2.9229
N2560 G3 X2.9244 Y-3.2277 I0.0358 J-0.3406
N2561 G1 X2.9225 Y-3.2635
N2562 G3 X3.265 Y-3.606 I0.3425 J0.
N2563 G1 X3.3008 Y-3.6041
N2564 G3 X3.6056 Y-3.2993 I-0.0358 J0.3406
N2565 G1 X3.6075 Y-3.2635
N2566 G3 X3.4886 Y-3.0041 I-0.3425 J0.
N2567 G1 X3.4863 Y-3.0018
N2568 X3.4842 Y-2.9994
N2569 X3.4825 Y-2.9969
N2570 X3.481 Y-2.9943
N2571 X3.4789 Y-2.9889
N2572 X3.4778 Y-2.983
N2573 Y-2.9768
N2574 X3.4785 Y-2.9704
N2575 X3.48 Y-2.9636
N2576 X3.4823 Y-2.9566
N2577 X3.4852 Y-2.9494
N2578 X3.4886 Y-2.942
N2579 X3.4925 Y-2.9345
N2580 X3.4968 Y-2.9268
N2581 X3.5061 Y-2.9112
N2582 X3.5161 Y-2.8955
N2583 X3.5259 Y-2.88
N2584 X3.535 Y-2.8648
N2585 X3.5391 Y-2.8574
N2586 X3.5427 Y-2.8502
N2587 X3.5459 Y-2.8432
N2588 X3.5484 Y-2.8365
N2589 X3.5503 Y-2.83
N2590 X3.5514 Y-2.8239
N2591 X3.5517 Y-2.818
N2592 X3.551 Y-2.8126
N2593 X3.5494 Y-2.8075
N2594 X3.5482 Y-2.8051
N2595 X3.5467 Y-2.8029
N2596 X3.5449 Y-2.8007
N2597 X3.5428 Y-2.7987
N2598 X3.5377 Y-2.795
N2599 X3.5232 Y-2.7864
N2600 G3 X3.3098 Y-2.7229 I-0.2582 J-0.4771
N2601 G1 X3.265 Y-2.721
N2602 G3 X2.7244 Y-3.2187 I0. J-0.5425
N2603 G1 X2.7225 Y-3.2635
N2604 G3 X3.265 Y-3.806 I0.5425 J0.
N2605 G1 X3.3098 Y-3.8041
N2606 G3 X3.8056 Y-3.3083 I-0.0448 J0.5406
N2607 G1 X3.8075 Y-3.2635
N2608 G3 X3.6192 Y-2.8526 I-0.5425 J0.
N2609 G1 X3.6169 Y-2.8503
N2610 X3.6148 Y-2.8479
N2611 X3.613 Y-2.8454
N2612 X3.6115 Y-2.8428
N2613 X3.6094 Y-2.8372
N2614 X3.6083 Y-2.8314
N2615 X3.6082 Y-2.8252
N2616 X3.6089 Y-2.8188
N2617 X3.6104 Y-2.812
N2618 X3.6127 Y-2.8051
N2619 X3.6156 Y-2.7979
N2620 X3.619 Y-2.7906
N2621 X3.6229 Y-2.7831
N2622 X3.6272 Y-2.7754
N2623 X3.6366 Y-2.76
N2624 X3.6466 Y-2.7443
N2625 X3.6565 Y-2.7288
N2626 X3.6657 Y-2.7136
N2627 X3.6699 Y-2.7061
N2628 X3.6736 Y-2.6989
N2629 X3.6768 Y-2.6918
N2630 X3.6794 Y-2.6849
N2631 X3.6814 Y-2.6783
N2632 X3.6826 Y-2.672
N2633 X3.683 Y-2.6659
N2634 X3.6825 Y-2.6602
N2635 X3.681 Y-2.6549
N2636 X3.6799 Y-2.6523
N2637 X3.6785 Y-2.6499
N2638 X3.6768 Y-2.6476
N2639 X3.6748 Y-2.6453
N2640 X3.6698 Y-2.6412
N2641 X3.6664 Y-2.6389
N2642 G3 X3.265 Y-2.521 I-0.4014 J-0.6246
N2643 G1 X3.212 Y-2.5229
N2644 G3 X2.5244 Y-3.2105 I0.053 J-0.7406
N2645 G1 X2.5225 Y-3.2635
N2646 G3 X3.265 Y-4.006 I0.7425 J0.
N2647 G1 X3.318 Y-4.0041
N2648 G3 X4.0075 Y-3.2635 I-0.053 J0.7406
N2649 G1 X4.0056 Y-3.2105
N2650 G3 X3.7498 Y-2.7011 I-0.7406 J-0.053
N2651 G1 X3.7474 Y-2.6989
N2652 X3.7453 Y-2.6965
N2653 X3.7435 Y-2.694
N2654 X3.742 Y-2.6914
N2655 X3.7398 Y-2.6859
N2656 X3.7387 Y-2.68
N2657 X3.7385 Y-2.6739
N2658 X3.7393 Y-2.6674
N2659 X3.7408 Y-2.6606
N2660 X3.7431 Y-2.6536
N2661 X3.746 Y-2.6464
N2662 X3.7494 Y-2.6391
N2663 X3.7534 Y-2.6315
N2664 X3.7577 Y-2.6238
N2665 X3.7673 Y-2.6082
N2666 X3.7774 Y-2.5925
N2667 X3.7875 Y-2.5768
N2668 X3.7968 Y-2.5615
N2669 X3.801 Y-2.554
N2670 X3.8048 Y-2.5466
N2671 X3.8081 Y-2.5395
N2672 X3.8108 Y-2.5326
N2673 X3.8128 Y-2.5259
N2674 X3.814 Y-2.5196
N2675 X3.8144 Y-2.5135
N2676 X3.8139 Y-2.5078
N2677 X3.8124 Y-2.5024
N2678 X3.8113 Y-2.4999
N2679 X3.8099 Y-2.4975
N2680 X3.8081 Y-2.4951
N2681 X3.8061 Y-2.4929
N2682 X3.8038 Y-2.4908
N2683 X3.8011 Y-2.4889
N2684 X3.77 Y-2.4677
N2685 X3.7191 Y-2.4376
N2686 G3 X3.3242 Y-2.3229 I-0.4541 J-0.8259
N2687 G1 X3.265 Y-2.321
N2688 G3 X2.3244 Y-3.2043 I0. J-0.9425
N2689 G1 X2.3225 Y-3.2635
N2690 G3 X3.2058 Y-4.2041 I0.9425 J0.
N2691 G1 X3.265 Y-4.206
N2692 G3 X4.2056 Y-3.3227 I0. J0.9425
N2693 G1 X4.2075 Y-3.2635
N2694 G3 X3.8804 Y-2.5497 I-0.9425 J0.
N2695 G1 X3.878 Y-2.5473
N2696 X3.876 Y-2.5449
N2697 X3.8742 Y-2.5423
N2698 X3.8727 Y-2.5397
N2699 X3.8706 Y-2.5341
N2700 X3.8695 Y-2.5282
N2701 Y-2.522
N2702 X3.8702 Y-2.5154
N2703 X3.8717 Y-2.5087
N2704 X3.874 Y-2.5017
N2705 X3.877 Y-2.4944
N2706 X3.8804 Y-2.487
N2707 X3.8844 Y-2.4795
N2708 X3.8888 Y-2.4718
N2709 X3.8983 Y-2.4563
N2710 X3.9085 Y-2.4405
N2711 X3.9185 Y-2.4249
N2712 X3.9279 Y-2.4096
N2713 X3.9321 Y-2.4021
N2714 X3.9359 Y-2.3948
N2715 X3.9391 Y-2.3876
N2716 X3.9418 Y-2.3807
N2717 X3.9438 Y-2.374
N2718 X3.9451 Y-2.3677
N2719 X3.9455 Y-2.3616
N2720 X3.945 Y-2.3558
N2721 X3.9436 Y-2.3504
N2722 X3.9424 Y-2.3478
N2723 X3.941 Y-2.3454
N2724 X3.9393 Y-2.343
N2725 X3.9373 Y-2.3408
N2726 X3.935 Y-2.3386
N2727 X3.9323 Y-2.3366
N2728 X3.8928 Y-2.309
N2729 G3 X3.265 Y-2.121 I-0.6278 J-0.9545
N2730 G1 X3.1986 Y-2.1229
N2731 G3 X2.1244 Y-3.1971 I0.0664 J-1.1406
N2732 G1 X2.1225 Y-3.2635
N2733 G3 X3.1986 Y-4.4041 I1.1425 J0.
N2734 G1 X3.265 Y-4.406
N2735 G3 X4.4075 Y-3.2635 I0. J1.1425
N2736 G1 X4.4056 Y-3.1971
N2737 G3 X4.011 Y-2.3982 I-1.1406 J-0.0664
N2738 G1 X4.0086 Y-2.3959
N2739 X4.0066 Y-2.3934
N2740 X4.0048 Y-2.3908
N2741 X4.0033 Y-2.3882
N2742 X4.0011 Y-2.3826
N2743 X4. Y-2.3768
N2744 X3.9999 Y-2.3706
N2745 X4.0006 Y-2.3641
N2746 X4.0022 Y-2.3573
N2747 X4.0044 Y-2.3504
N2748 X4.0073 Y-2.3432
N2749 X4.0107 Y-2.3359
N2750 X4.0147 Y-2.3284
N2751 X4.019 Y-2.3208
N2752 X4.0285 Y-2.3054
N2753 X4.0386 Y-2.2897
N2754 X4.0486 Y-2.2742
N2755 X4.058 Y-2.2588
N2756 X4.0622 Y-2.2514
N2757 X4.066 Y-2.244
N2758 X4.0693 Y-2.2368
N2759 X4.0721 Y-2.2299
N2760 X4.0741 Y-2.2231
N2761 X4.0755 Y-2.2166
N2762 X4.076 Y-2.2104
N2763 X4.0756 Y-2.2045
N2764 X4.0742 Y-2.1989
N2765 X4.0718 Y-2.1937
N2766 X4.0702 Y-2.1912
N2767 X4.0682 Y-2.1889
N2768 X4.066 Y-2.1866
N2769 X4.0634 Y-2.1845
N2770 X4.057 Y-2.1795
N2771 X3.9977 Y-2.1386
N2772 X3.9362 Y-2.1009
N2773 X3.8729 Y-2.0665
N2774 X3.8077 Y-2.0356
N2775 X3.7411 Y-2.0082
N2776 X3.673 Y-1.9845
N2777 X3.6038 Y-1.9644
N2778 X3.5335 Y-1.9481
N2779 X3.4625 Y-1.9356
N2780 X3.391 Y-1.9269
N2781 X3.3191 Y-1.9221
N2782 X3.247 Y-1.9211
N2783 X3.1749 Y-1.924
N2784 X3.1032 Y-1.9308
N2785 X3.0319 Y-1.9414
N2786 X2.9612 Y-1.9558
N2787 X2.8915 Y-1.974
N2788 X2.8228 Y-1.9959
N2789 X2.7554 Y-2.0215
N2790 X2.6895 Y-2.0506
N2791 X2.6252 Y-2.0833
N2792 X2.5628 Y-2.1193
N2793 X2.5024 Y-2.1586
N2794 X2.4442 Y-2.2012
N2795 X2.3883 Y-2.2468
N2796 X2.335 Y-2.2953
N2797 X2.2844 Y-2.3466
N2798 X2.2366 Y-2.4006
N2799 X2.1917 Y-2.457
N2800 X2.15 Y-2.5158
N2801 X2.1115 Y-2.5767
N2802 X2.0763 Y-2.6396
N2803 X2.0445 Y-2.7043
N2804 X2.0162 Y-2.7706
N2805 X1.9916 Y-2.8384
N2806 X1.9706 Y-2.9073
N2807 X1.9534 Y-2.9773
N2808 X1.9399 Y-3.0481
N2809 X1.9302 Y-3.1196
N2810 G3 X1.9225 Y-3.2635 I1.3348 J-0.1439
N2811 G1 X1.9244 Y-3.3356
N2812 G3 X4.607 Y-3.2995 I1.3406 J0.0721
N2813 G1 X4.6075 Y-3.2635
N2814 X4.607 Y-3.2275
N2815 G3 X4.1141 Y-2.2236 I-1.342 J-0.036
N2816 G1 X4.0634 Y-2.1845
N2817 G3 X3.9231 Y-2.2025 I-0.0611 J-0.0791
N2818 G0 Z-0.625
N2819 Z0.6056
( Operation: Center Finish )
N2820 X4.5567 Y-3.3276 Z0.5956
N2821 Z0.245
N2822 G1 Z-0.155 F10.
N2823 G3 X4.6175 Y-3.2635 I-0.0017 J0.0624 F24.
N2824 X1.9125 I-1.3525 J0.
N2825 X4.6175 I1.3525 J0.
N2826 G1 Z-0.255
N2827 G3 X1.9125 I-1.3525 J0.
N2828 X4.6175 I1.3525 J0.
N2829 G1 Z-0.355
N2830 G3 X1.9125 I-1.3525 J0.
N2831 X4.6175 I1.3525 J0.
N2832 G1 Z-0.455
N2833 G3 X1.9125 I-1.3525 J0.
N2834 X4.6175 I1.3525 J0.
N2835 G1 Z-0.555
N2836 G3 X1.9125 I-1.3525 J0.
N2837 X4.6175 I1.3525 J0.
N2838 G1 Z-0.655
N2839 G3 X1.9125 I-1.3525 J0.
N2840 X4.6175 I1.3525 J0.
N2841 G1 Z-0.755
N2842 G3 X1.9125 I-1.3525 J0.
N2843 X4.6175 I1.3525 J0.
N2844 G1 Z-0.855
N2845 G3 X1.9125 I-1.3525 J0.
N2846 X4.6175 I1.3525 J0.
N2847 G1 Z-0.955
N2848 G3 X1.9125 I-1.3525 J0.
N2849 X4.6175 I1.3525 J0.
N2850 G1 Z-1.025
N2851 G3 X1.9125 I-1.3525 J0.
N2852 X4.6175 I1.3525 J0.
N2853 X4.5567 Y-3.1994 I-0.0625 J0.0017
N2854 G0 Z0.5956
N2855 M9
N2856 G49
N2857 M5
N2858 G91 G28 Z0.
N2859 G28 X0. Y0.
N2860 M30
%
