%
O2822
( POST FILE   : haas_ngc.py )
( POST VERSION: 1.217.722 )
( CAM SYSTEM  : CamStudio, Version 1.217.3100.4d4104d9a )
( CAM FILE    : Job )
( MACHINE     : 3AxGenericVertical-default )
( CREATED ON  : 2026-06-30T16:30:50 )
( CREATED BY  : MW PPFramework v2.15.0 )

( --- TOOL LIST BEGIN --- )
( --- Tooling parameters generated in 'Imperial' unit --- )
( T1 D1 in End mill, TL=4.325, CL=1.75, FL=1.0 )
( T2 D0.25 in End mill, TL=4.325, CL=1.75, FL=1.0 )
( --- TOOL LIST END --- )

N1 G20
N2 G17 G40 G49 G80 G90
( Operation: Face )
N3 T1 M6 (D1 in End mill)
N4 S3060 M3
N5 G0 G90 G54 G94 ( Work plane )
N6 G0 X-6.5 Y0.
N7 G43 Z0.5906 H01
N8 M8
N9 Z0.34
N10 G1 Z-0.06 F10.
N11 X-6.4995 Y0.0157 F24.
N12 X-6.4975 Y0.0354
N13 X-6.4939 Y0.0549
N14 X-6.4888 Y0.0741
N15 X-6.4821 Y0.0928
N16 X-6.4741 Y0.1109
N17 X-6.4646 Y0.1283
N18 X-6.4537 Y0.1449
N19 X-6.4416 Y0.1606
N20 X-6.4282 Y0.1753
N21 X-6.4138 Y0.1889
N22 X-6.3983 Y0.2013
N23 X-6.3819 Y0.2124
N24 X-6.3646 Y0.2222
N25 X-6.3466 Y0.2306
N26 X-6.328 Y0.2375
N27 X-6.309 Y0.2429
N28 X-6.2895 Y0.2469
N29 X-6.2698 Y0.2492
N30 X-6.25 Y0.25
N31 X-0.25
N32 X-0.2385 Y0.2502
N33 X-0.2273 Y0.2507
N34 X-0.2165 Y0.2516
N35 X-0.2061 Y0.2529
N36 X-0.196 Y0.2546
N37 X-0.1863 Y0.2566
N38 X-0.1769 Y0.259
N39 X-0.168 Y0.2617
N40 X-0.1594 Y0.2648
N41 X-0.1511 Y0.2683
N42 X-0.1432 Y0.2722
N43 X-0.1357 Y0.2764
N44 X-0.1286 Y0.2809
N45 X-0.1218 Y0.2859
N46 X-0.1154 Y0.2912
N47 X-0.1094 Y0.2969
N48 X-0.1037 Y0.3029
N49 X-0.0984 Y0.3093
N50 X-0.0934 Y0.3161
N51 X-0.0889 Y0.3232
N52 X-0.0847 Y0.3307
N53 X-0.0808 Y0.3386
N54 X-0.0773 Y0.3469
N55 X-0.0742 Y0.3555
N56 X-0.0715 Y0.3644
N57 X-0.0691 Y0.3738
N58 X-0.0671 Y0.3835
N59 X-0.0654 Y0.3936
N60 X-0.0641 Y0.404
N61 X-0.0632 Y0.4148
N62 X-0.0627 Y0.426
N63 X-0.0625 Y0.4375
N64 X-0.0627 Y0.449
N65 X-0.0632 Y0.4602
N66 X-0.0641 Y0.471
N67 X-0.0654 Y0.4814
N68 X-0.0671 Y0.4915
N69 X-0.0691 Y0.5012
N70 X-0.0715 Y0.5106
N71 X-0.0742 Y0.5195
N72 X-0.0773 Y0.5281
N73 X-0.0808 Y0.5364
N74 X-0.0847 Y0.5443
N75 X-0.0889 Y0.5518
N76 X-0.0934 Y0.5589
N77 X-0.0984 Y0.5657
N78 X-0.1037 Y0.5721
N79 X-0.1094 Y0.5781
N80 X-0.1154 Y0.5838
N81 X-0.1218 Y0.5891
N82 X-0.1286 Y0.5941
N83 X-0.1357 Y0.5986
N84 X-0.1432 Y0.6028
N85 X-0.1511 Y0.6067
N86 X-0.1594 Y0.6102
N87 X-0.168 Y0.6133
N88 X-0.1769 Y0.616
N89 X-0.1863 Y0.6184
N90 X-0.196 Y0.6204
N91 X-0.2061 Y0.6221
N92 X-0.2165 Y0.6234
N93 X-0.2273 Y0.6243
N94 X-0.2385 Y0.6248
N95 X-0.25 Y0.625
N96 X-6.25
N97 X-6.2615 Y0.6252
N98 X-6.2727 Y0.6257
N99 X-6.2835 Y0.6266
N100 X-6.2939 Y0.6279
N101 X-6.304 Y0.6296
N102 X-6.3137 Y0.6316
N103 X-6.3231 Y0.634
N104 X-6.332 Y0.6367
N105 X-6.3406 Y0.6398
N106 X-6.3489 Y0.6433
N107 X-6.3568 Y0.6472
N108 X-6.3643 Y0.6514
N109 X-6.3714 Y0.6559
N110 X-6.3782 Y0.6609
N111 X-6.3846 Y0.6662
N112 X-6.3906 Y0.6719
N113 X-6.3963 Y0.6779
N114 X-6.4016 Y0.6843
N115 X-6.4066 Y0.6911
N116 X-6.4111 Y0.6982
N117 X-6.4153 Y0.7057
N118 X-6.4192 Y0.7136
N119 X-6.4227 Y0.7219
N120 X-6.4258 Y0.7305
N121 X-6.4285 Y0.7394
N122 X-6.4309 Y0.7488
N123 X-6.4329 Y0.7585
N124 X-6.4346 Y0.7686
N125 X-6.4359 Y0.779
N126 X-6.4368 Y0.7898
N127 X-6.4373 Y0.801
N128 X-6.4375 Y0.8125
N129 X-6.4373 Y0.824
N130 X-6.4368 Y0.8352
N131 X-6.4359 Y0.846
N132 X-6.4346 Y0.8564
N133 X-6.4329 Y0.8665
N134 X-6.4309 Y0.8762
N135 X-6.4285 Y0.8856
N136 X-6.4258 Y0.8945
N137 X-6.4227 Y0.9031
N138 X-6.4192 Y0.9114
N139 X-6.4153 Y0.9193
N140 X-6.4111 Y0.9268
N141 X-6.4066 Y0.9339
N142 X-6.4016 Y0.9407
N143 X-6.3963 Y0.9471
N144 X-6.3906 Y0.9531
N145 X-6.3846 Y0.9588
N146 X-6.3782 Y0.9641
N147 X-6.3714 Y0.9691
N148 X-6.3643 Y0.9736
N149 X-6.3568 Y0.9778
N150 X-6.3489 Y0.9817
N151 X-6.3406 Y0.9852
N152 X-6.332 Y0.9883
N153 X-6.3231 Y0.991
N154 X-6.3137 Y0.9934
N155 X-6.304 Y0.9954
N156 X-6.2939 Y0.9971
N157 X-6.2835 Y0.9984
N158 X-6.2727 Y0.9993
N159 X-6.2615 Y0.9998
N160 X-6.25 Y1.
N161 X-0.25
N162 X-0.2385 Y1.0002
N163 X-0.2273 Y1.0007
N164 X-0.2165 Y1.0016
N165 X-0.2061 Y1.0029
N166 X-0.196 Y1.0046
N167 X-0.1863 Y1.0066
N168 X-0.1769 Y1.009
N169 X-0.168 Y1.0117
N170 X-0.1594 Y1.0148
N171 X-0.1511 Y1.0183
N172 X-0.1432 Y1.0222
N173 X-0.1357 Y1.0264
N174 X-0.1286 Y1.0309
N175 X-0.1218 Y1.0359
N176 X-0.1154 Y1.0412
N177 X-0.1094 Y1.0469
N178 X-0.1037 Y1.0529
N179 X-0.0984 Y1.0593
N180 X-0.0934 Y1.0661
N181 X-0.0889 Y1.0732
N182 X-0.0847 Y1.0807
N183 X-0.0808 Y1.0886
N184 X-0.0773 Y1.0969
N185 X-0.0742 Y1.1055
N186 X-0.0715 Y1.1144
N187 X-0.0691 Y1.1238
N188 X-0.0671 Y1.1335
N189 X-0.0654 Y1.1436
N190 X-0.0641 Y1.154
N191 X-0.0632 Y1.1648
N192 X-0.0627 Y1.176
N193 X-0.0625 Y1.1875
N194 X-0.0627 Y1.199
N195 X-0.0632 Y1.2102
N196 X-0.0641 Y1.221
N197 X-0.0654 Y1.2314
N198 X-0.0671 Y1.2415
N199 X-0.0691 Y1.2512
N200 X-0.0715 Y1.2606
N201 X-0.0742 Y1.2695
N202 X-0.0773 Y1.2781
N203 X-0.0808 Y1.2864
N204 X-0.0847 Y1.2943
N205 X-0.0889 Y1.3018
N206 X-0.0934 Y1.3089
N207 X-0.0984 Y1.3157
N208 X-0.1037 Y1.3221
N209 X-0.1094 Y1.3281
N210 X-0.1154 Y1.3338
N211 X-0.1218 Y1.3391
N212 X-0.1286 Y1.3441
N213 X-0.1357 Y1.3486
N214 X-0.1432 Y1.3528
N215 X-0.1511 Y1.3567
N216 X-0.1594 Y1.3602
N217 X-0.168 Y1.3633
N218 X-0.1769 Y1.366
N219 X-0.1863 Y1.3684
N220 X-0.196 Y1.3704
N221 X-0.2061 Y1.3721
N222 X-0.2165 Y1.3734
N223 X-0.2273 Y1.3743
N224 X-0.2385 Y1.3748
N225 X-0.25 Y1.375
N226 X-6.25
N227 X-6.2615 Y1.3752
N228 X-6.2727 Y1.3757
N229 X-6.2835 Y1.3766
N230 X-6.2939 Y1.3779
N231 X-6.304 Y1.3796
N232 X-6.3137 Y1.3816
N233 X-6.3231 Y1.384
N234 X-6.332 Y1.3867
N235 X-6.3406 Y1.3898
N236 X-6.3489 Y1.3933
N237 X-6.3568 Y1.3972
N238 X-6.3643 Y1.4014
N239 X-6.3714 Y1.4059
N240 X-6.3782 Y1.4109
N241 X-6.3846 Y1.4162
N242 X-6.3906 Y1.4219
N243 X-6.3963 Y1.4279
N244 X-6.4016 Y1.4343
N245 X-6.4066 Y1.4411
N246 X-6.4111 Y1.4482
N247 X-6.4153 Y1.4557
N248 X-6.4192 Y1.4636
N249 X-6.4227 Y1.4719
N250 X-6.4258 Y1.4805
N251 X-6.4285 Y1.4894
N252 X-6.4309 Y1.4988
N253 X-6.4329 Y1.5085
N254 X-6.4346 Y1.5186
N255 X-6.4359 Y1.529
N256 X-6.4368 Y1.5398
N257 X-6.4373 Y1.551
N258 X-6.4375 Y1.5625
N259 X-6.4373 Y1.574
N260 X-6.4368 Y1.5852
N261 X-6.4359 Y1.596
N262 X-6.4346 Y1.6064
N263 X-6.4329 Y1.6165
N264 X-6.4309 Y1.6262
N265 X-6.4285 Y1.6356
N266 X-6.4258 Y1.6445
N267 X-6.4227 Y1.6531
N268 X-6.4192 Y1.6614
N269 X-6.4153 Y1.6693
N270 X-6.4111 Y1.6768
N271 X-6.4066 Y1.6839
N272 X-6.4016 Y1.6907
N273 X-6.3963 Y1.6971
N274 X-6.3906 Y1.7031
N275 X-6.3846 Y1.7088
N276 X-6.3782 Y1.7141
N277 X-6.3714 Y1.7191
N278 X-6.3643 Y1.7236
N279 X-6.3568 Y1.7278
N280 X-6.3489 Y1.7317
N281 X-6.3406 Y1.7352
N282 X-6.332 Y1.7383
N283 X-6.3231 Y1.741
N284 X-6.3137 Y1.7434
N285 X-6.304 Y1.7454
N286 X-6.2939 Y1.7471
N287 X-6.2835 Y1.7484
N288 X-6.2727 Y1.7493
N289 X-6.2615 Y1.7498
N290 X-6.25 Y1.75
N291 X-0.25
N292 X-0.2385 Y1.7502
N293 X-0.2273 Y1.7507
N294 X-0.2165 Y1.7516
N295 X-0.2061 Y1.7529
N296 X-0.196 Y1.7546
N297 X-0.1863 Y1.7566
N298 X-0.1769 Y1.759
N299 X-0.168 Y1.7617
N300 X-0.1594 Y1.7648
N301 X-0.1511 Y1.7683
N302 X-0.1432 Y1.7722
N303 X-0.1357 Y1.7764
N304 X-0.1286 Y1.7809
N305 X-0.1218 Y1.7859
N306 X-0.1154 Y1.7912
N307 X-0.1094 Y1.7969
N308 X-0.1037 Y1.8029
N309 X-0.0984 Y1.8093
N310 X-0.0934 Y1.8161
N311 X-0.0889 Y1.8232
N312 X-0.0847 Y1.8307
N313 X-0.0808 Y1.8386
N314 X-0.0773 Y1.8469
N315 X-0.0742 Y1.8555
N316 X-0.0715 Y1.8644
N317 X-0.0691 Y1.8738
N318 X-0.0671 Y1.8835
N319 X-0.0654 Y1.8936
N320 X-0.0641 Y1.904
N321 X-0.0632 Y1.9148
N322 X-0.0627 Y1.926
N323 X-0.0625 Y1.9375
N324 X-0.0627 Y1.949
N325 X-0.0632 Y1.9602
N326 X-0.0641 Y1.971
N327 X-0.0654 Y1.9814
N328 X-0.0671 Y1.9915
N329 X-0.0691 Y2.0012
N330 X-0.0715 Y2.0106
N331 X-0.0742 Y2.0195
N332 X-0.0773 Y2.0281
N333 X-0.0808 Y2.0364
N334 X-0.0847 Y2.0443
N335 X-0.0889 Y2.0518
N336 X-0.0934 Y2.0589
N337 X-0.0984 Y2.0657
N338 X-0.1037 Y2.0721
N339 X-0.1094 Y2.0781
N340 X-0.1154 Y2.0838
N341 X-0.1218 Y2.0891
N342 X-0.1286 Y2.0941
N343 X-0.1357 Y2.0986
N344 X-0.1432 Y2.1028
N345 X-0.1511 Y2.1067
N346 X-0.1594 Y2.1102
N347 X-0.168 Y2.1133
N348 X-0.1769 Y2.116
N349 X-0.1863 Y2.1184
N350 X-0.196 Y2.1204
N351 X-0.2061 Y2.1221
N352 X-0.2165 Y2.1234
N353 X-0.2273 Y2.1243
N354 X-0.2385 Y2.1248
N355 X-0.25 Y2.125
N356 X-6.25
N357 X-6.2615 Y2.1252
N358 X-6.2727 Y2.1257
N359 X-6.2835 Y2.1266
N360 X-6.2939 Y2.1279
N361 X-6.304 Y2.1296
N362 X-6.3137 Y2.1316
N363 X-6.3231 Y2.134
N364 X-6.332 Y2.1367
N365 X-6.3406 Y2.1398
N366 X-6.3489 Y2.1433
N367 X-6.3568 Y2.1472
N368 X-6.3643 Y2.1514
N369 X-6.3714 Y2.1559
N370 X-6.3782 Y2.1609
N371 X-6.3846 Y2.1662
N372 X-6.3906 Y2.1719
N373 X-6.3963 Y2.1779
N374 X-6.4016 Y2.1843
N375 X-6.4066 Y2.1911
N376 X-6.4111 Y2.1982
N377 X-6.4153 Y2.2057
N378 X-6.4192 Y2.2136
N379 X-6.4227 Y2.2219
N380 X-6.4258 Y2.2305
N381 X-6.4285 Y2.2394
N382 X-6.4309 Y2.2488
N383 X-6.4329 Y2.2585
N384 X-6.4346 Y2.2686
N385 X-6.4359 Y2.279
N386 X-6.4368 Y2.2898
N387 X-6.4373 Y2.301
N388 X-6.4375 Y2.3125
N389 X-6.4373 Y2.324
N390 X-6.4368 Y2.3352
N391 X-6.4359 Y2.346
N392 X-6.4346 Y2.3564
N393 X-6.4329 Y2.3665
N394 X-6.4309 Y2.3762
N395 X-6.4285 Y2.3856
N396 X-6.4258 Y2.3945
N397 X-6.4227 Y2.4031
N398 X-6.4192 Y2.4114
N399 X-6.4153 Y2.4193
N400 X-6.4111 Y2.4268
N401 X-6.4066 Y2.4339
N402 X-6.4016 Y2.4407
N403 X-6.3963 Y2.4471
N404 X-6.3906 Y2.4531
N405 X-6.3846 Y2.4588
N406 X-6.3782 Y2.4641
N407 X-6.3714 Y2.4691
N408 X-6.3643 Y2.4736
N409 X-6.3568 Y2.4778
N410 X-6.3489 Y2.4817
N411 X-6.3406 Y2.4852
N412 X-6.332 Y2.4883
N413 X-6.3231 Y2.491
N414 X-6.3137 Y2.4934
N415 X-6.304 Y2.4954
N416 X-6.2939 Y2.4971
N417 X-6.2835 Y2.4984
N418 X-6.2727 Y2.4993
N419 X-6.2615 Y2.4998
N420 X-6.25 Y2.5
N421 X-0.25
N422 X-0.2385 Y2.5002
N423 X-0.2273 Y2.5007
N424 X-0.2165 Y2.5016
N425 X-0.2061 Y2.5029
N426 X-0.196 Y2.5046
N427 X-0.1863 Y2.5066
N428 X-0.1769 Y2.509
N429 X-0.168 Y2.5117
N430 X-0.1594 Y2.5148
N431 X-0.1511 Y2.5183
N432 X-0.1432 Y2.5222
N433 X-0.1357 Y2.5264
N434 X-0.1286 Y2.5309
N435 X-0.1218 Y2.5359
N436 X-0.1154 Y2.5412
N437 X-0.1094 Y2.5469
N438 X-0.1037 Y2.5529
N439 X-0.0984 Y2.5593
N440 X-0.0934 Y2.5661
N441 X-0.0889 Y2.5732
N442 X-0.0847 Y2.5807
N443 X-0.0808 Y2.5886
N444 X-0.0773 Y2.5969
N445 X-0.0742 Y2.6055
N446 X-0.0715 Y2.6144
N447 X-0.0691 Y2.6238
N448 X-0.0671 Y2.6335
N449 X-0.0654 Y2.6436
N450 X-0.0641 Y2.654
N451 X-0.0632 Y2.6648
N452 X-0.0627 Y2.676
N453 X-0.0625 Y2.6875
N454 X-0.0627 Y2.699
N455 X-0.0632 Y2.7102
N456 X-0.0641 Y2.721
N457 X-0.0654 Y2.7314
N458 X-0.0671 Y2.7415
N459 X-0.0691 Y2.7512
N460 X-0.0715 Y2.7606
N461 X-0.0742 Y2.7695
N462 X-0.0773 Y2.7781
N463 X-0.0808 Y2.7864
N464 X-0.0847 Y2.7943
N465 X-0.0889 Y2.8018
N466 X-0.0934 Y2.8089
N467 X-0.0984 Y2.8157
N468 X-0.1037 Y2.8221
N469 X-0.1094 Y2.8281
N470 X-0.1154 Y2.8338
N471 X-0.1218 Y2.8391
N472 X-0.1286 Y2.8441
N473 X-0.1357 Y2.8486
N474 X-0.1432 Y2.8528
N475 X-0.1511 Y2.8567
N476 X-0.1594 Y2.8602
N477 X-0.168 Y2.8633
N478 X-0.1769 Y2.866
N479 X-0.1863 Y2.8684
N480 X-0.196 Y2.8704
N481 X-0.2061 Y2.8721
N482 X-0.2165 Y2.8734
N483 X-0.2273 Y2.8743
N484 X-0.2385 Y2.8748
N485 X-0.25 Y2.875
N486 X-6.25
N487 X-6.2615 Y2.8752
N488 X-6.2727 Y2.8757
N489 X-6.2835 Y2.8766
N490 X-6.2939 Y2.8779
N491 X-6.304 Y2.8796
N492 X-6.3137 Y2.8816
N493 X-6.3231 Y2.884
N494 X-6.332 Y2.8867
N495 X-6.3406 Y2.8898
N496 X-6.3489 Y2.8933
N497 X-6.3568 Y2.8972
N498 X-6.3643 Y2.9014
N499 X-6.3714 Y2.9059
N500 X-6.3782 Y2.9109
N501 X-6.3846 Y2.9162
N502 X-6.3906 Y2.9219
N503 X-6.3963 Y2.9279
N504 X-6.4016 Y2.9343
N505 X-6.4066 Y2.9411
N506 X-6.4111 Y2.9482
N507 X-6.4153 Y2.9557
N508 X-6.4192 Y2.9636
N509 X-6.4227 Y2.9719
N510 X-6.4258 Y2.9805
N511 X-6.4285 Y2.9894
N512 X-6.4309 Y2.9988
N513 X-6.4329 Y3.0085
N514 X-6.4346 Y3.0186
N515 X-6.4359 Y3.029
N516 X-6.4368 Y3.0398
N517 X-6.4373 Y3.051
N518 X-6.4375 Y3.0625
N519 X-6.4373 Y3.074
N520 X-6.4368 Y3.0852
N521 X-6.4359 Y3.096
N522 X-6.4346 Y3.1064
N523 X-6.4329 Y3.1165
N524 X-6.4309 Y3.1262
N525 X-6.4285 Y3.1356
N526 X-6.4258 Y3.1445
N527 X-6.4227 Y3.1531
N528 X-6.4192 Y3.1614
N529 X-6.4153 Y3.1693
N530 X-6.4111 Y3.1768
N531 X-6.4066 Y3.1839
N532 X-6.4016 Y3.1907
N533 X-6.3963 Y3.1971
N534 X-6.3906 Y3.2031
N535 X-6.3846 Y3.2088
N536 X-6.3782 Y3.2141
N537 X-6.3714 Y3.2191
N538 X-6.3643 Y3.2236
N539 X-6.3568 Y3.2278
N540 X-6.3489 Y3.2317
N541 X-6.3406 Y3.2352
N542 X-6.332 Y3.2383
N543 X-6.3231 Y3.241
N544 X-6.3137 Y3.2434
N545 X-6.304 Y3.2454
N546 X-6.2939 Y3.2471
N547 X-6.2835 Y3.2484
N548 X-6.2727 Y3.2493
N549 X-6.2615 Y3.2498
N550 X-6.25 Y3.25
N551 X-0.25
N552 X-0.2385 Y3.2502
N553 X-0.2273 Y3.2507
N554 X-0.2165 Y3.2516
N555 X-0.2061 Y3.2529
N556 X-0.196 Y3.2546
N557 X-0.1863 Y3.2566
N558 X-0.1769 Y3.259
N559 X-0.168 Y3.2617
N560 X-0.1594 Y3.2648
N561 X-0.1511 Y3.2683
N562 X-0.1432 Y3.2722
N563 X-0.1357 Y3.2764
N564 X-0.1286 Y3.2809
N565 X-0.1218 Y3.2859
N566 X-0.1154 Y3.2912
N567 X-0.1094 Y3.2969
N568 X-0.1037 Y3.3029
N569 X-0.0984 Y3.3093
N570 X-0.0934 Y3.3161
N571 X-0.0889 Y3.3232
N572 X-0.0847 Y3.3307
N573 X-0.0808 Y3.3386
N574 X-0.0773 Y3.3469
N575 X-0.0742 Y3.3555
N576 X-0.0715 Y3.3644
N577 X-0.0691 Y3.3738
N578 X-0.0671 Y3.3835
N579 X-0.0654 Y3.3936
N580 X-0.0641 Y3.404
N581 X-0.0632 Y3.4148
N582 X-0.0627 Y3.426
N583 X-0.0625 Y3.4375
N584 X-0.0627 Y3.449
N585 X-0.0632 Y3.4602
N586 X-0.0641 Y3.471
N587 X-0.0654 Y3.4814
N588 X-0.0671 Y3.4915
N589 X-0.0691 Y3.5012
N590 X-0.0715 Y3.5106
N591 X-0.0742 Y3.5195
N592 X-0.0773 Y3.5281
N593 X-0.0808 Y3.5364
N594 X-0.0847 Y3.5443
N595 X-0.0889 Y3.5518
N596 X-0.0934 Y3.5589
N597 X-0.0984 Y3.5657
N598 X-0.1037 Y3.5721
N599 X-0.1094 Y3.5781
N600 X-0.1154 Y3.5838
N601 X-0.1218 Y3.5891
N602 X-0.1286 Y3.5941
N603 X-0.1357 Y3.5986
N604 X-0.1432 Y3.6028
N605 X-0.1511 Y3.6067
N606 X-0.1594 Y3.6102
N607 X-0.168 Y3.6133
N608 X-0.1769 Y3.616
N609 X-0.1863 Y3.6184
N610 X-0.196 Y3.6204
N611 X-0.2061 Y3.6221
N612 X-0.2165 Y3.6234
N613 X-0.2273 Y3.6243
N614 X-0.2385 Y3.6248
N615 X-0.25 Y3.625
N616 X-6.25
N617 X-6.2615 Y3.6252
N618 X-6.2727 Y3.6257
N619 X-6.2835 Y3.6266
N620 X-6.2939 Y3.6279
N621 X-6.304 Y3.6296
N622 X-6.3137 Y3.6316
N623 X-6.3231 Y3.634
N624 X-6.332 Y3.6367
N625 X-6.3406 Y3.6398
N626 X-6.3489 Y3.6433
N627 X-6.3568 Y3.6472
N628 X-6.3643 Y3.6514
N629 X-6.3714 Y3.6559
N630 X-6.3782 Y3.6609
N631 X-6.3846 Y3.6662
N632 X-6.3906 Y3.6719
N633 X-6.3963 Y3.6779
N634 X-6.4016 Y3.6843
N635 X-6.4066 Y3.6911
N636 X-6.4111 Y3.6982
N637 X-6.4153 Y3.7057
N638 X-6.4192 Y3.7136
N639 X-6.4227 Y3.7219
N640 X-6.4258 Y3.7305
N641 X-6.4285 Y3.7394
N642 X-6.4309 Y3.7488
N643 X-6.4329 Y3.7585
N644 X-6.4346 Y3.7686
N645 X-6.4359 Y3.779
N646 X-6.4368 Y3.7898
N647 X-6.4373 Y3.801
N648 X-6.4375 Y3.8125
N649 X-6.4373 Y3.824
N650 X-6.4368 Y3.8352
N651 X-6.4359 Y3.846
N652 X-6.4346 Y3.8564
N653 X-6.4329 Y3.8665
N654 X-6.4309 Y3.8762
N655 X-6.4285 Y3.8856
N656 X-6.4258 Y3.8945
N657 X-6.4227 Y3.9031
N658 X-6.4192 Y3.9114
N659 X-6.4153 Y3.9193
N660 X-6.4111 Y3.9268
N661 X-6.4066 Y3.9339
N662 X-6.4016 Y3.9407
N663 X-6.3963 Y3.9471
N664 X-6.3906 Y3.9531
N665 X-6.3846 Y3.9588
N666 X-6.3782 Y3.9641
N667 X-6.3714 Y3.9691
N668 X-6.3643 Y3.9736
N669 X-6.3568 Y3.9778
N670 X-6.3489 Y3.9817
N671 X-6.3406 Y3.9852
N672 X-6.332 Y3.9883
N673 X-6.3231 Y3.991
N674 X-6.3137 Y3.9934
N675 X-6.304 Y3.9954
N676 X-6.2939 Y3.9971
N677 X-6.2835 Y3.9984
N678 X-6.2727 Y3.9993
N679 X-6.2615 Y3.9998
N680 X-6.25 Y4.
N681 X-0.25
N682 X-0.2385 Y4.0002
N683 X-0.2273 Y4.0007
N684 X-0.2165 Y4.0016
N685 X-0.2061 Y4.0029
N686 X-0.196 Y4.0046
N687 X-0.1863 Y4.0066
N688 X-0.1769 Y4.009
N689 X-0.168 Y4.0117
N690 X-0.1594 Y4.0148
N691 X-0.1511 Y4.0183
N692 X-0.1432 Y4.0222
N693 X-0.1357 Y4.0264
N694 X-0.1286 Y4.0309
N695 X-0.1218 Y4.0359
N696 X-0.1154 Y4.0412
N697 X-0.1094 Y4.0469
N698 X-0.1037 Y4.0529
N699 X-0.0984 Y4.0593
N700 X-0.0934 Y4.0661
N701 X-0.0889 Y4.0732
N702 X-0.0847 Y4.0807
N703 X-0.0808 Y4.0886
N704 X-0.0773 Y4.0969
N705 X-0.0742 Y4.1055
N706 X-0.0715 Y4.1144
N707 X-0.0691 Y4.1238
N708 X-0.0671 Y4.1335
N709 X-0.0654 Y4.1436
N710 X-0.0641 Y4.154
N711 X-0.0632 Y4.1648
N712 X-0.0627 Y4.176
N713 X-0.0625 Y4.1875
N714 X-0.0627 Y4.199
N715 X-0.0632 Y4.2102
N716 X-0.0641 Y4.221
N717 X-0.0654 Y4.2314
N718 X-0.0671 Y4.2415
N719 X-0.0691 Y4.2512
N720 X-0.0715 Y4.2606
N721 X-0.0742 Y4.2695
N722 X-0.0773 Y4.2781
N723 X-0.0808 Y4.2864
N724 X-0.0847 Y4.2943
N725 X-0.0889 Y4.3018
N726 X-0.0934 Y4.3089
N727 X-0.0984 Y4.3157
N728 X-0.1037 Y4.3221
N729 X-0.1094 Y4.3281
N730 X-0.1154 Y4.3338
N731 X-0.1218 Y4.3391
N732 X-0.1286 Y4.3441
N733 X-0.1357 Y4.3486
N734 X-0.1432 Y4.3528
N735 X-0.1511 Y4.3567
N736 X-0.1594 Y4.3602
N737 X-0.168 Y4.3633
N738 X-0.1769 Y4.366
N739 X-0.1863 Y4.3684
N740 X-0.196 Y4.3704
N741 X-0.2061 Y4.3721
N742 X-0.2165 Y4.3734
N743 X-0.2273 Y4.3743
N744 X-0.2385 Y4.3748
N745 X-0.25 Y4.375
N746 X-6.25
N747 X-6.2615 Y4.3752
N748 X-6.2727 Y4.3757
N749 X-6.2835 Y4.3766
N750 X-6.2939 Y4.3779
N751 X-6.304 Y4.3796
N752 X-6.3137 Y4.3816
N753 X-6.3231 Y4.384
N754 X-6.332 Y4.3867
N755 X-6.3406 Y4.3898
N756 X-6.3489 Y4.3933
N757 X-6.3568 Y4.3972
N758 X-6.3643 Y4.4014
N759 X-6.3714 Y4.4059
N760 X-6.3782 Y4.4109
N761 X-6.3846 Y4.4162
N762 X-6.3906 Y4.4219
N763 X-6.3963 Y4.4279
N764 X-6.4016 Y4.4343
N765 X-6.4066 Y4.4411
N766 X-6.4111 Y4.4482
N767 X-6.4153 Y4.4557
N768 X-6.4192 Y4.4636
N769 X-6.4227 Y4.4719
N770 X-6.4258 Y4.4805
N771 X-6.4285 Y4.4894
N772 X-6.4309 Y4.4988
N773 X-6.4329 Y4.5085
N774 X-6.4346 Y4.5186
N775 X-6.4359 Y4.529
N776 X-6.4368 Y4.5398
N777 X-6.4373 Y4.551
N778 X-6.4375 Y4.5625
N779 X-6.4373 Y4.574
N780 X-6.4368 Y4.5852
N781 X-6.4359 Y4.596
N782 X-6.4346 Y4.6064
N783 X-6.4329 Y4.6165
N784 X-6.4309 Y4.6262
N785 X-6.4285 Y4.6356
N786 X-6.4258 Y4.6445
N787 X-6.4227 Y4.6531
N788 X-6.4192 Y4.6614
N789 X-6.4153 Y4.6693
N790 X-6.4111 Y4.6768
N791 X-6.4066 Y4.6839
N792 X-6.4016 Y4.6907
N793 X-6.3963 Y4.6971
N794 X-6.3906 Y4.7031
N795 X-6.3846 Y4.7088
N796 X-6.3782 Y4.7141
N797 X-6.3714 Y4.7191
N798 X-6.3643 Y4.7236
N799 X-6.3568 Y4.7278
N800 X-6.3489 Y4.7317
N801 X-6.3406 Y4.7352
N802 X-6.332 Y4.7383
N803 X-6.3231 Y4.741
N804 X-6.3137 Y4.7434
N805 X-6.304 Y4.7454
N806 X-6.2939 Y4.7471
N807 X-6.2835 Y4.7484
N808 X-6.2727 Y4.7493
N809 X-6.2615 Y4.7498
N810 X-6.25 Y4.75
N811 X-0.25
N812 X-0.2385 Y4.7502
N813 X-0.2273 Y4.7507
N814 X-0.2165 Y4.7516
N815 X-0.2061 Y4.7529
N816 X-0.196 Y4.7546
N817 X-0.1863 Y4.7566
N818 X-0.1769 Y4.759
N819 X-0.168 Y4.7617
N820 X-0.1594 Y4.7648
N821 X-0.1511 Y4.7683
N822 X-0.1432 Y4.7722
N823 X-0.1357 Y4.7764
N824 X-0.1286 Y4.7809
N825 X-0.1218 Y4.7859
N826 X-0.1154 Y4.7912
N827 X-0.1094 Y4.7969
N828 X-0.1037 Y4.8029
N829 X-0.0984 Y4.8093
N830 X-0.0934 Y4.8161
N831 X-0.0889 Y4.8232
N832 X-0.0847 Y4.8307
N833 X-0.0808 Y4.8386
N834 X-0.0773 Y4.8469
N835 X-0.0742 Y4.8555
N836 X-0.0715 Y4.8644
N837 X-0.0691 Y4.8738
N838 X-0.0671 Y4.8835
N839 X-0.0654 Y4.8936
N840 X-0.0641 Y4.904
N841 X-0.0632 Y4.9148
N842 X-0.0627 Y4.926
N843 X-0.0625 Y4.9375
N844 X-0.0627 Y4.949
N845 X-0.0632 Y4.9602
N846 X-0.0641 Y4.971
N847 X-0.0654 Y4.9814
N848 X-0.0671 Y4.9915
N849 X-0.0691 Y5.0012
N850 X-0.0715 Y5.0106
N851 X-0.0742 Y5.0195
N852 X-0.0773 Y5.0281
N853 X-0.0808 Y5.0364
N854 X-0.0847 Y5.0443
N855 X-0.0889 Y5.0518
N856 X-0.0934 Y5.0589
N857 X-0.0984 Y5.0657
N858 X-0.1037 Y5.0721
N859 X-0.1094 Y5.0781
N860 X-0.1154 Y5.0838
N861 X-0.1218 Y5.0891
N862 X-0.1286 Y5.0941
N863 X-0.1357 Y5.0986
N864 X-0.1432 Y5.1028
N865 X-0.1511 Y5.1067
N866 X-0.1594 Y5.1102
N867 X-0.168 Y5.1133
N868 X-0.1769 Y5.116
N869 X-0.1863 Y5.1184
N870 X-0.196 Y5.1204
N871 X-0.2061 Y5.1221
N872 X-0.2165 Y5.1234
N873 X-0.2273 Y5.1243
N874 X-0.2385 Y5.1248
N875 X-0.25 Y5.125
N876 X-6.25
N877 X-6.2615 Y5.1252
N878 X-6.2727 Y5.1257
N879 X-6.2835 Y5.1266
N880 X-6.2939 Y5.1279
N881 X-6.304 Y5.1296
N882 X-6.3137 Y5.1316
N883 X-6.3231 Y5.134
N884 X-6.332 Y5.1367
N885 X-6.3406 Y5.1398
N886 X-6.3489 Y5.1433
N887 X-6.3568 Y5.1472
N888 X-6.3643 Y5.1514
N889 X-6.3714 Y5.1559
N890 X-6.3782 Y5.1609
N891 X-6.3846 Y5.1662
N892 X-6.3906 Y5.1719
N893 X-6.3963 Y5.1779
N894 X-6.4016 Y5.1843
N895 X-6.4066 Y5.1911
N896 X-6.4111 Y5.1982
N897 X-6.4153 Y5.2057
N898 X-6.4192 Y5.2136
N899 X-6.4227 Y5.2219
N900 X-6.4258 Y5.2305
N901 X-6.4285 Y5.2394
N902 X-6.4309 Y5.2488
N903 X-6.4329 Y5.2585
N904 X-6.4346 Y5.2686
N905 X-6.4359 Y5.279
N906 X-6.4368 Y5.2898
N907 X-6.4373 Y5.301
N908 X-6.4375 Y5.3125
N909 X-6.4373 Y5.324
N910 X-6.4368 Y5.3352
N911 X-6.4359 Y5.346
N912 X-6.4346 Y5.3564
N913 X-6.4329 Y5.3665
N914 X-6.4309 Y5.3762
N915 X-6.4285 Y5.3856
N916 X-6.4258 Y5.3945
N917 X-6.4227 Y5.4031
N918 X-6.4192 Y5.4114
N919 X-6.4153 Y5.4193
N920 X-6.4111 Y5.4268
N921 X-6.4066 Y5.4339
N922 X-6.4016 Y5.4407
N923 X-6.3963 Y5.4471
N924 X-6.3906 Y5.4531
N925 X-6.3846 Y5.4588
N926 X-6.3782 Y5.4641
N927 X-6.3714 Y5.4691
N928 X-6.3643 Y5.4736
N929 X-6.3568 Y5.4778
N930 X-6.3489 Y5.4817
N931 X-6.3406 Y5.4852
N932 X-6.332 Y5.4883
N933 X-6.3231 Y5.491
N934 X-6.3137 Y5.4934
N935 X-6.304 Y5.4954
N936 X-6.2939 Y5.4971
N937 X-6.2835 Y5.4984
N938 X-6.2727 Y5.4993
N939 X-6.2615 Y5.4998
N940 X-6.25 Y5.5
N941 X-0.25
N942 X-0.2385 Y5.5002
N943 X-0.2273 Y5.5007
N944 X-0.2165 Y5.5016
N945 X-0.2061 Y5.5029
N946 X-0.196 Y5.5046
N947 X-0.1863 Y5.5066
N948 X-0.1769 Y5.509
N949 X-0.168 Y5.5117
N950 X-0.1594 Y5.5148
N951 X-0.1511 Y5.5183
N952 X-0.1432 Y5.5222
N953 X-0.1357 Y5.5264
N954 X-0.1286 Y5.5309
N955 X-0.1218 Y5.5359
N956 X-0.1154 Y5.5412
N957 X-0.1094 Y5.5469
N958 X-0.1037 Y5.5529
N959 X-0.0984 Y5.5593
N960 X-0.0934 Y5.5661
N961 X-0.0889 Y5.5732
N962 X-0.0847 Y5.5807
N963 X-0.0808 Y5.5886
N964 X-0.0773 Y5.5969
N965 X-0.0742 Y5.6055
N966 X-0.0715 Y5.6144
N967 X-0.0691 Y5.6238
N968 X-0.0671 Y5.6335
N969 X-0.0654 Y5.6436
N970 X-0.0641 Y5.654
N971 X-0.0632 Y5.6648
N972 X-0.0627 Y5.676
N973 X-0.0625 Y5.6875
N974 X-0.0627 Y5.699
N975 X-0.0632 Y5.7102
N976 X-0.0641 Y5.721
N977 X-0.0654 Y5.7314
N978 X-0.0671 Y5.7415
N979 X-0.0691 Y5.7512
N980 X-0.0715 Y5.7606
N981 X-0.0742 Y5.7695
N982 X-0.0773 Y5.7781
N983 X-0.0808 Y5.7864
N984 X-0.0847 Y5.7943
N985 X-0.0889 Y5.8018
N986 X-0.0934 Y5.8089
N987 X-0.0984 Y5.8157
N988 X-0.1037 Y5.8221
N989 X-0.1094 Y5.8281
N990 X-0.1154 Y5.8338
N991 X-0.1218 Y5.8391
N992 X-0.1286 Y5.8441
N993 X-0.1357 Y5.8486
N994 X-0.1432 Y5.8528
N995 X-0.1511 Y5.8567
N996 X-0.1594 Y5.8602
N997 X-0.168 Y5.8633
N998 X-0.1769 Y5.866
N999 X-0.1863 Y5.8684
N1000 X-0.196 Y5.8704
N1001 X-0.2061 Y5.8721
N1002 X-0.2165 Y5.8734
N1003 X-0.2273 Y5.8743
N1004 X-0.2385 Y5.8748
N1005 X-0.25 Y5.875
N1006 X-6.25
N1007 X-6.2698 Y5.8742
N1008 X-6.2895 Y5.8719
N1009 X-6.309 Y5.8679
N1010 X-6.328 Y5.8625
N1011 X-6.3466 Y5.8556
N1012 X-6.3646 Y5.8472
N1013 X-6.3819 Y5.8374
N1014 X-6.3983 Y5.8263
N1015 X-6.4138 Y5.8139
N1016 X-6.4282 Y5.8003
N1017 X-6.4416 Y5.7856
N1018 X-6.4537 Y5.7699
N1019 X-6.4646 Y5.7533
N1020 X-6.4741 Y5.7359
N1021 X-6.4821 Y5.7178
N1022 X-6.4888 Y5.6991
N1023 X-6.4939 Y5.6799
N1024 X-6.4975 Y5.6604
N1025 X-6.4995 Y5.6407
N1026 X-6.5 Y5.625
N1027 G0 Z0.5906
N1028 M9
N1029 G49
N1030 M5
N1031 G91 G28 Z0.
N1032 G28 X0. Y0.
( Operation: Engrave )
N1033 T2 M6 (D0.25 in End mill)
N1034 S6000 M3
N1035 G0 G90 G54 G94 ( Work plane )
N1036 G0 X-3.3125 Y0.4375
N1037 G43 Z0.5906 H02
N1038 Z0.34
N1039 G1 Z-0.06 F59.06
N1040 X-3.3119 Y0.4287
N1041 X-3.3097 Y0.419
N1042 X-3.306 Y0.4098
N1043 X-3.3009 Y0.4013
N1044 X-3.2946 Y0.3937
N1045 X-3.2871 Y0.3872
N1046 X-3.2787 Y0.382
N1047 X-3.2695 Y0.3781
N1048 X-3.2599 Y0.3758
N1049 X-3.25 Y0.375
N1050 X-0.375
N1051 Y6.125
N1052 X-6.125
N1053 Y0.375
N1054 X-3.25
N1055 X-3.2401 Y0.3758
N1056 X-3.2305 Y0.3781
N1057 X-3.2213 Y0.382
N1058 X-3.2129 Y0.3872
N1059 X-3.2054 Y0.3937
N1060 X-3.1991 Y0.4013
N1061 X-3.194 Y0.4098
N1062 X-3.1903 Y0.419
N1063 X-3.1881 Y0.4287
N1064 X-3.1875 Y0.4375
N1065 G0 Z0.5906
N1066 G49
N1067 M5
N1068 G91 G28 Z0.
N1069 G28 X0. Y0.
N1070 M30
%
