%
O2822
( POST FILE   : haas_ngc.py )
( POST VERSION: 1.217.722 )
( CAM SYSTEM  : CamStudio, Version 1.217.3100.4d4104d9a )
( CAM FILE    : Job )
( MACHINE     : 3AxHaasVF-2-default )
( CREATED ON  : 2026-06-30T16:31:51 )
( CREATED BY  : MW PPFramework v2.15.0 )

( --- TOOL LIST BEGIN --- )
( --- Tooling parameters generated in 'Imperial' unit --- )
( T1 D0.5 in End mill, TL=4.575, CL=2.0, FL=1.0 )
( --- TOOL LIST END --- )

N1 G20
N2 G17 G40 G49 G80 G90
( Operation: Face )
N3 T1 M6 (D0.5 in End mill)
N4 S3060 M3
N5 G0 G90 G54 G94 ( Work plane )
N6 G0 X0.1295 Y-6.3795
N7 G43 Z0.5906 H01
N8 M8
N9 Z0.325
N10 G1 Z-0.075 F10.
N11 G2 X0.2545 Y-6.2545 I0.125 J0. F24.
N12 G1 X6.2545
N13 X6.2666 Y-6.2541
N14 X6.2779 Y-6.2529
N15 X6.2885 Y-6.251
N16 X6.2983 Y-6.2483
N17 X6.3072 Y-6.2447
N18 X6.3154 Y-6.2404
N19 X6.3229 Y-6.2354
N20 X6.3295 Y-6.2295
N21 X6.3354 Y-6.2229
N22 X6.3404 Y-6.2154
N23 X6.3447 Y-6.2072
N24 X6.3483 Y-6.1983
N25 X6.351 Y-6.1885
N26 X6.3529 Y-6.1779
N27 X6.3541 Y-6.1666
N28 X6.3545 Y-6.1545
N29 X6.3541 Y-6.1424
N30 X6.3529 Y-6.1311
N31 X6.351 Y-6.1205
N32 X6.3483 Y-6.1108
N33 X6.3447 Y-6.1018
N34 X6.3404 Y-6.0936
N35 X6.3354 Y-6.0861
N36 X6.3295 Y-6.0795
N37 X6.3229 Y-6.0736
N38 X6.3154 Y-6.0686
N39 X6.3072 Y-6.0643
N40 X6.2983 Y-6.0608
N41 X6.2885 Y-6.058
N42 X6.2779 Y-6.0561
N43 X6.2666 Y-6.0549
N44 X6.2545 Y-6.0545
N45 X0.2545
N46 X0.2424 Y-6.0541
N47 X0.2311 Y-6.0529
N48 X0.2205 Y-6.051
N49 X0.2108 Y-6.0483
N50 X0.2018 Y-6.0447
N51 X0.1936 Y-6.0404
N52 X0.1861 Y-6.0354
N53 X0.1795 Y-6.0295
N54 X0.1736 Y-6.0229
N55 X0.1686 Y-6.0154
N56 X0.1643 Y-6.0072
N57 X0.1608 Y-5.9983
N58 X0.158 Y-5.9885
N59 X0.1561 Y-5.9779
N60 X0.1549 Y-5.9666
N61 X0.1545 Y-5.9545
N62 X0.1549 Y-5.9424
N63 X0.1561 Y-5.9311
N64 X0.158 Y-5.9205
N65 X0.1608 Y-5.9108
N66 X0.1643 Y-5.9018
N67 X0.1686 Y-5.8936
N68 X0.1736 Y-5.8861
N69 X0.1795 Y-5.8795
N70 X0.1861 Y-5.8736
N71 X0.1936 Y-5.8686
N72 X0.2018 Y-5.8643
N73 X0.2108 Y-5.8608
N74 X0.2205 Y-5.858
N75 X0.2311 Y-5.8561
N76 X0.2424 Y-5.8549
N77 X0.2545 Y-5.8545
N78 X6.2545
N79 X6.2666 Y-5.8541
N80 X6.2779 Y-5.8529
N81 X6.2885 Y-5.851
N82 X6.2983 Y-5.8483
N83 X6.3072 Y-5.8447
N84 X6.3154 Y-5.8404
N85 X6.3229 Y-5.8354
N86 X6.3295 Y-5.8295
N87 X6.3354 Y-5.8229
N88 X6.3404 Y-5.8154
N89 X6.3447 Y-5.8072
N90 X6.3483 Y-5.7983
N91 X6.351 Y-5.7885
N92 X6.3529 Y-5.7779
N93 X6.3541 Y-5.7666
N94 X6.3545 Y-5.7545
N95 X6.3541 Y-5.7424
N96 X6.3529 Y-5.7311
N97 X6.351 Y-5.7205
N98 X6.3483 Y-5.7108
N99 X6.3447 Y-5.7018
N100 X6.3404 Y-5.6936
N101 X6.3354 Y-5.6861
N102 X6.3295 Y-5.6795
N103 X6.3229 Y-5.6736
N104 X6.3154 Y-5.6686
N105 X6.3072 Y-5.6643
N106 X6.2983 Y-5.6608
N107 X6.2885 Y-5.658
N108 X6.2779 Y-5.6561
N109 X6.2666 Y-5.6549
N110 X6.2545 Y-5.6545
N111 X0.2545
N112 X0.2424 Y-5.6541
N113 X0.2311 Y-5.6529
N114 X0.2205 Y-5.651
N115 X0.2108 Y-5.6483
N116 X0.2018 Y-5.6447
N117 X0.1936 Y-5.6404
N118 X0.1861 Y-5.6354
N119 X0.1795 Y-5.6295
N120 X0.1736 Y-5.6229
N121 X0.1686 Y-5.6154
N122 X0.1643 Y-5.6072
N123 X0.1608 Y-5.5983
N124 X0.158 Y-5.5885
N125 X0.1561 Y-5.5779
N126 X0.1549 Y-5.5666
N127 X0.1545 Y-5.5545
N128 X0.1549 Y-5.5424
N129 X0.1561 Y-5.5311
N130 X0.158 Y-5.5205
N131 X0.1608 Y-5.5108
N132 X0.1643 Y-5.5018
N133 X0.1686 Y-5.4936
N134 X0.1736 Y-5.4861
N135 X0.1795 Y-5.4795
N136 X0.1861 Y-5.4736
N137 X0.1936 Y-5.4686
N138 X0.2018 Y-5.4643
N139 X0.2108 Y-5.4608
N140 X0.2205 Y-5.458
N141 X0.2311 Y-5.4561
N142 X0.2424 Y-5.4549
N143 X0.2545 Y-5.4545
N144 X6.2545
N145 X6.2666 Y-5.4541
N146 X6.2779 Y-5.4529
N147 X6.2885 Y-5.451
N148 X6.2983 Y-5.4483
N149 X6.3072 Y-5.4447
N150 X6.3154 Y-5.4404
N151 X6.3229 Y-5.4354
N152 X6.3295 Y-5.4295
N153 X6.3354 Y-5.4229
N154 X6.3404 Y-5.4154
N155 X6.3447 Y-5.4072
N156 X6.3483 Y-5.3983
N157 X6.351 Y-5.3885
N158 X6.3529 Y-5.3779
N159 X6.3541 Y-5.3666
N160 X6.3545 Y-5.3545
N161 X6.3541 Y-5.3424
N162 X6.3529 Y-5.3311
N163 X6.351 Y-5.3205
N164 X6.3483 Y-5.3108
N165 X6.3447 Y-5.3018
N166 X6.3404 Y-5.2936
N167 X6.3354 Y-5.2861
N168 X6.3295 Y-5.2795
N169 X6.3229 Y-5.2736
N170 X6.3154 Y-5.2686
N171 X6.3072 Y-5.2643
N172 X6.2983 Y-5.2608
N173 X6.2885 Y-5.258
N174 X6.2779 Y-5.2561
N175 X6.2666 Y-5.2549
N176 X6.2545 Y-5.2545
N177 X0.2545
N178 X0.2424 Y-5.2541
N179 X0.2311 Y-5.2529
N180 X0.2205 Y-5.251
N181 X0.2108 Y-5.2483
N182 X0.2018 Y-5.2447
N183 X0.1936 Y-5.2404
N184 X0.1861 Y-5.2354
N185 X0.1795 Y-5.2295
N186 X0.1736 Y-5.2229
N187 X0.1686 Y-5.2154
N188 X0.1643 Y-5.2072
N189 X0.1608 Y-5.1983
N190 X0.158 Y-5.1885
N191 X0.1561 Y-5.1779
N192 X0.1549 Y-5.1666
N193 X0.1545 Y-5.1545
N194 X0.1549 Y-5.1424
N195 X0.1561 Y-5.1311
N196 X0.158 Y-5.1205
N197 X0.1608 Y-5.1108
N198 X0.1643 Y-5.1018
N199 X0.1686 Y-5.0936
N200 X0.1736 Y-5.0861
N201 X0.1795 Y-5.0795
N202 X0.1861 Y-5.0736
N203 X0.1936 Y-5.0686
N204 X0.2018 Y-5.0643
N205 X0.2108 Y-5.0608
N206 X0.2205 Y-5.058
N207 X0.2311 Y-5.0561
N208 X0.2424 Y-5.0549
N209 X0.2545 Y-5.0545
N210 X6.2545
N211 X6.2666 Y-5.0541
N212 X6.2779 Y-5.0529
N213 X6.2885 Y-5.051
N214 X6.2983 Y-5.0483
N215 X6.3072 Y-5.0447
N216 X6.3154 Y-5.0404
N217 X6.3229 Y-5.0354
N218 X6.3295 Y-5.0295
N219 X6.3354 Y-5.0229
N220 X6.3404 Y-5.0154
N221 X6.3447 Y-5.0072
N222 X6.3483 Y-4.9983
N223 X6.351 Y-4.9885
N224 X6.3529 Y-4.9779
N225 X6.3541 Y-4.9666
N226 X6.3545 Y-4.9545
N227 X6.3541 Y-4.9424
N228 X6.3529 Y-4.9311
N229 X6.351 Y-4.9205
N230 X6.3483 Y-4.9108
N231 X6.3447 Y-4.9018
N232 X6.3404 Y-4.8936
N233 X6.3354 Y-4.8861
N234 X6.3295 Y-4.8795
N235 X6.3229 Y-4.8736
N236 X6.3154 Y-4.8686
N237 X6.3072 Y-4.8643
N238 X6.2983 Y-4.8608
N239 X6.2885 Y-4.858
N240 X6.2779 Y-4.8561
N241 X6.2666 Y-4.8549
N242 X6.2545 Y-4.8545
N243 X0.2545
N244 X0.2424 Y-4.8541
N245 X0.2311 Y-4.8529
N246 X0.2205 Y-4.851
N247 X0.2108 Y-4.8483
N248 X0.2018 Y-4.8447
N249 X0.1936 Y-4.8404
N250 X0.1861 Y-4.8354
N251 X0.1795 Y-4.8295
N252 X0.1736 Y-4.8229
N253 X0.1686 Y-4.8154
N254 X0.1643 Y-4.8072
N255 X0.1608 Y-4.7983
N256 X0.158 Y-4.7885
N257 X0.1561 Y-4.7779
N258 X0.1549 Y-4.7666
N259 X0.1545 Y-4.7545
N260 X0.1549 Y-4.7424
N261 X0.1561 Y-4.7311
N262 X0.158 Y-4.7205
N263 X0.1608 Y-4.7108
N264 X0.1643 Y-4.7018
N265 X0.1686 Y-4.6936
N266 X0.1736 Y-4.6861
N267 X0.1795 Y-4.6795
N268 X0.1861 Y-4.6736
N269 X0.1936 Y-4.6686
N270 X0.2018 Y-4.6643
N271 X0.2108 Y-4.6608
N272 X0.2205 Y-4.658
N273 X0.2311 Y-4.6561
N274 X0.2424 Y-4.6549
N275 X0.2545 Y-4.6545
N276 X6.2545
N277 X6.2666 Y-4.6541
N278 X6.2779 Y-4.6529
N279 X6.2885 Y-4.651
N280 X6.2983 Y-4.6483
N281 X6.3072 Y-4.6447
N282 X6.3154 Y-4.6404
N283 X6.3229 Y-4.6354
N284 X6.3295 Y-4.6295
N285 X6.3354 Y-4.6229
N286 X6.3404 Y-4.6154
N287 X6.3447 Y-4.6072
N288 X6.3483 Y-4.5983
N289 X6.351 Y-4.5885
N290 X6.3529 Y-4.5779
N291 X6.3541 Y-4.5666
N292 X6.3545 Y-4.5545
N293 X6.3541 Y-4.5424
N294 X6.3529 Y-4.5311
N295 X6.351 Y-4.5205
N296 X6.3483 Y-4.5108
N297 X6.3447 Y-4.5018
N298 X6.3404 Y-4.4936
N299 X6.3354 Y-4.4861
N300 X6.3295 Y-4.4795
N301 X6.3229 Y-4.4736
N302 X6.3154 Y-4.4686
N303 X6.3072 Y-4.4643
N304 X6.2983 Y-4.4608
N305 X6.2885 Y-4.458
N306 X6.2779 Y-4.4561
N307 X6.2666 Y-4.4549
N308 X6.2545 Y-4.4545
N309 X0.2545
N310 X0.2424 Y-4.4541
N311 X0.2311 Y-4.4529
N312 X0.2205 Y-4.451
N313 X0.2108 Y-4.4483
N314 X0.2018 Y-4.4447
N315 X0.1936 Y-4.4404
N316 X0.1861 Y-4.4354
N317 X0.1795 Y-4.4295
N318 X0.1736 Y-4.4229
N319 X0.1686 Y-4.4154
N320 X0.1643 Y-4.4072
N321 X0.1608 Y-4.3983
N322 X0.158 Y-4.3885
N323 X0.1561 Y-4.3779
N324 X0.1549 Y-4.3666
N325 X0.1545 Y-4.3545
N326 X0.1549 Y-4.3424
N327 X0.1561 Y-4.3311
N328 X0.158 Y-4.3205
N329 X0.1608 Y-4.3108
N330 X0.1643 Y-4.3018
N331 X0.1686 Y-4.2936
N332 X0.1736 Y-4.2861
N333 X0.1795 Y-4.2795
N334 X0.1861 Y-4.2736
N335 X0.1936 Y-4.2686
N336 X0.2018 Y-4.2643
N337 X0.2108 Y-4.2608
N338 X0.2205 Y-4.258
N339 X0.2311 Y-4.2561
N340 X0.2424 Y-4.2549
N341 X0.2545 Y-4.2545
N342 X6.2545
N343 X6.2666 Y-4.2541
N344 X6.2779 Y-4.2529
N345 X6.2885 Y-4.251
N346 X6.2983 Y-4.2483
N347 X6.3072 Y-4.2447
N348 X6.3154 Y-4.2404
N349 X6.3229 Y-4.2354
N350 X6.3295 Y-4.2295
N351 X6.3354 Y-4.2229
N352 X6.3404 Y-4.2154
N353 X6.3447 Y-4.2072
N354 X6.3483 Y-4.1983
N355 X6.351 Y-4.1885
N356 X6.3529 Y-4.1779
N357 X6.3541 Y-4.1666
N358 X6.3545 Y-4.1545
N359 X6.3541 Y-4.1424
N360 X6.3529 Y-4.1311
N361 X6.351 Y-4.1205
N362 X6.3483 Y-4.1108
N363 X6.3447 Y-4.1018
N364 X6.3404 Y-4.0936
N365 X6.3354 Y-4.0861
N366 X6.3295 Y-4.0795
N367 X6.3229 Y-4.0736
N368 X6.3154 Y-4.0686
N369 X6.3072 Y-4.0643
N370 X6.2983 Y-4.0608
N371 X6.2885 Y-4.058
N372 X6.2779 Y-4.0561
N373 X6.2666 Y-4.0549
N374 X6.2545 Y-4.0545
N375 X0.2545
N376 X0.2424 Y-4.0541
N377 X0.2311 Y-4.0529
N378 X0.2205 Y-4.051
N379 X0.2108 Y-4.0483
N380 X0.2018 Y-4.0447
N381 X0.1936 Y-4.0404
N382 X0.1861 Y-4.0354
N383 X0.1795 Y-4.0295
N384 X0.1736 Y-4.0229
N385 X0.1686 Y-4.0154
N386 X0.1643 Y-4.0072
N387 X0.1608 Y-3.9983
N388 X0.158 Y-3.9885
N389 X0.1561 Y-3.9779
N390 X0.1549 Y-3.9666
N391 X0.1545 Y-3.9545
N392 X0.1549 Y-3.9424
N393 X0.1561 Y-3.9311
N394 X0.158 Y-3.9205
N395 X0.1608 Y-3.9108
N396 X0.1643 Y-3.9018
N397 X0.1686 Y-3.8936
N398 X0.1736 Y-3.8861
N399 X0.1795 Y-3.8795
N400 X0.1861 Y-3.8736
N401 X0.1936 Y-3.8686
N402 X0.2018 Y-3.8643
N403 X0.2108 Y-3.8608
N404 X0.2205 Y-3.858
N405 X0.2311 Y-3.8561
N406 X0.2424 Y-3.8549
N407 X0.2545 Y-3.8545
N408 X6.2545
N409 X6.2666 Y-3.8541
N410 X6.2779 Y-3.8529
N411 X6.2885 Y-3.851
N412 X6.2983 Y-3.8483
N413 X6.3072 Y-3.8447
N414 X6.3154 Y-3.8404
N415 X6.3229 Y-3.8354
N416 X6.3295 Y-3.8295
N417 X6.3354 Y-3.8229
N418 X6.3404 Y-3.8154
N419 X6.3447 Y-3.8072
N420 X6.3483 Y-3.7983
N421 X6.351 Y-3.7885
N422 X6.3529 Y-3.7779
N423 X6.3541 Y-3.7666
N424 X6.3545 Y-3.7545
N425 X6.3541 Y-3.7424
N426 X6.3529 Y-3.7311
N427 X6.351 Y-3.7205
N428 X6.3483 Y-3.7108
N429 X6.3447 Y-3.7018
N430 X6.3404 Y-3.6936
N431 X6.3354 Y-3.6861
N432 X6.3295 Y-3.6795
N433 X6.3229 Y-3.6736
N434 X6.3154 Y-3.6686
N435 X6.3072 Y-3.6643
N436 X6.2983 Y-3.6608
N437 X6.2885 Y-3.658
N438 X6.2779 Y-3.6561
N439 X6.2666 Y-3.6549
N440 X6.2545 Y-3.6545
N441 X0.2545
N442 X0.2424 Y-3.6541
N443 X0.2311 Y-3.6529
N444 X0.2205 Y-3.651
N445 X0.2108 Y-3.6483
N446 X0.2018 Y-3.6447
N447 X0.1936 Y-3.6404
N448 X0.1861 Y-3.6354
N449 X0.1795 Y-3.6295
N450 X0.1736 Y-3.6229
N451 X0.1686 Y-3.6154
N452 X0.1643 Y-3.6072
N453 X0.1608 Y-3.5983
N454 X0.158 Y-3.5885
N455 X0.1561 Y-3.5779
N456 X0.1549 Y-3.5666
N457 X0.1545 Y-3.5545
N458 X0.1549 Y-3.5424
N459 X0.1561 Y-3.5311
N460 X0.158 Y-3.5205
N461 X0.1608 Y-3.5108
N462 X0.1643 Y-3.5018
N463 X0.1686 Y-3.4936
N464 X0.1736 Y-3.4861
N465 X0.1795 Y-3.4795
N466 X0.1861 Y-3.4736
N467 X0.1936 Y-3.4686
N468 X0.2018 Y-3.4643
N469 X0.2108 Y-3.4608
N470 X0.2205 Y-3.458
N471 X0.2311 Y-3.4561
N472 X0.2424 Y-3.4549
N473 X0.2545 Y-3.4545
N474 X6.2545
N475 X6.2666 Y-3.4541
N476 X6.2779 Y-3.4529
N477 X6.2885 Y-3.451
N478 X6.2983 Y-3.4483
N479 X6.3072 Y-3.4447
N480 X6.3154 Y-3.4404
N481 X6.3229 Y-3.4354
N482 X6.3295 Y-3.4295
N483 X6.3354 Y-3.4229
N484 X6.3404 Y-3.4154
N485 X6.3447 Y-3.4072
N486 X6.3483 Y-3.3983
N487 X6.351 Y-3.3885
N488 X6.3529 Y-3.3779
N489 X6.3541 Y-3.3666
N490 X6.3545 Y-3.3545
N491 X6.3541 Y-3.3424
N492 X6.3529 Y-3.3311
N493 X6.351 Y-3.3205
N494 X6.3483 Y-3.3108
N495 X6.3447 Y-3.3018
N496 X6.3404 Y-3.2936
N497 X6.3354 Y-3.2861
N498 X6.3295 Y-3.2795
N499 X6.3229 Y-3.2736
N500 X6.3154 Y-3.2686
N501 X6.3072 Y-3.2643
N502 X6.2983 Y-3.2608
N503 X6.2885 Y-3.258
N504 X6.2779 Y-3.2561
N505 X6.2666 Y-3.2549
N506 X6.2545 Y-3.2545
N507 X0.2545
N508 X0.2424 Y-3.2541
N509 X0.2311 Y-3.2529
N510 X0.2205 Y-3.251
N511 X0.2108 Y-3.2483
N512 X0.2018 Y-3.2447
N513 X0.1936 Y-3.2404
N514 X0.1861 Y-3.2354
N515 X0.1795 Y-3.2295
N516 X0.1736 Y-3.2229
N517 X0.1686 Y-3.2154
N518 X0.1643 Y-3.2072
N519 X0.1608 Y-3.1983
N520 X0.158 Y-3.1885
N521 X0.1561 Y-3.1779
N522 X0.1549 Y-3.1666
N523 X0.1545 Y-3.1545
N524 X0.1549 Y-3.1424
N525 X0.1561 Y-3.1311
N526 X0.158 Y-3.1205
N527 X0.1608 Y-3.1108
N528 X0.1643 Y-3.1018
N529 X0.1686 Y-3.0936
N530 X0.1736 Y-3.0861
N531 X0.1795 Y-3.0795
N532 X0.1861 Y-3.0736
N533 X0.1936 Y-3.0686
N534 X0.2018 Y-3.0643
N535 X0.2108 Y-3.0608
N536 X0.2205 Y-3.058
N537 X0.2311 Y-3.0561
N538 X0.2424 Y-3.0549
N539 X0.2545 Y-3.0545
N540 X6.2545
N541 X6.2666 Y-3.0541
N542 X6.2779 Y-3.0529
N543 X6.2885 Y-3.051
N544 X6.2983 Y-3.0483
N545 X6.3072 Y-3.0447
N546 X6.3154 Y-3.0404
N547 X6.3229 Y-3.0354
N548 X6.3295 Y-3.0295
N549 X6.3354 Y-3.0229
N550 X6.3404 Y-3.0154
N551 X6.3447 Y-3.0072
N552 X6.3483 Y-2.9983
N553 X6.351 Y-2.9885
N554 X6.3529 Y-2.9779
N555 X6.3541 Y-2.9666
N556 X6.3545 Y-2.9545
N557 X6.3541 Y-2.9424
N558 X6.3529 Y-2.9311
N559 X6.351 Y-2.9205
N560 X6.3483 Y-2.9108
N561 X6.3447 Y-2.9018
N562 X6.3404 Y-2.8936
N563 X6.3354 Y-2.8861
N564 X6.3295 Y-2.8795
N565 X6.3229 Y-2.8736
N566 X6.3154 Y-2.8686
N567 X6.3072 Y-2.8643
N568 X6.2983 Y-2.8608
N569 X6.2885 Y-2.858
N570 X6.2779 Y-2.8561
N571 X6.2666 Y-2.8549
N572 X6.2545 Y-2.8545
N573 X0.2545
N574 X0.2424 Y-2.8541
N575 X0.2311 Y-2.8529
N576 X0.2205 Y-2.851
N577 X0.2108 Y-2.8483
N578 X0.2018 Y-2.8447
N579 X0.1936 Y-2.8404
N580 X0.1861 Y-2.8354
N581 X0.1795 Y-2.8295
N582 X0.1736 Y-2.8229
N583 X0.1686 Y-2.8154
N584 X0.1643 Y-2.8072
N585 X0.1608 Y-2.7983
N586 X0.158 Y-2.7885
N587 X0.1561 Y-2.7779
N588 X0.1549 Y-2.7666
N589 X0.1545 Y-2.7545
N590 X0.1549 Y-2.7424
N591 X0.1561 Y-2.7311
N592 X0.158 Y-2.7205
N593 X0.1608 Y-2.7108
N594 X0.1643 Y-2.7018
N595 X0.1686 Y-2.6936
N596 X0.1736 Y-2.6861
N597 X0.1795 Y-2.6795
N598 X0.1861 Y-2.6736
N599 X0.1936 Y-2.6686
N600 X0.2018 Y-2.6643
N601 X0.2108 Y-2.6608
N602 X0.2205 Y-2.658
N603 X0.2311 Y-2.6561
N604 X0.2424 Y-2.6549
N605 X0.2545 Y-2.6545
N606 X6.2545
N607 X6.2666 Y-2.6541
N608 X6.2779 Y-2.6529
N609 X6.2885 Y-2.651
N610 X6.2983 Y-2.6483
N611 X6.3072 Y-2.6447
N612 X6.3154 Y-2.6404
N613 X6.3229 Y-2.6354
N614 X6.3295 Y-2.6295
N615 X6.3354 Y-2.6229
N616 X6.3404 Y-2.6154
N617 X6.3447 Y-2.6072
N618 X6.3483 Y-2.5983
N619 X6.351 Y-2.5885
N620 X6.3529 Y-2.5779
N621 X6.3541 Y-2.5666
N622 X6.3545 Y-2.5545
N623 X6.3541 Y-2.5424
N624 X6.3529 Y-2.5311
N625 X6.351 Y-2.5205
N626 X6.3483 Y-2.5108
N627 X6.3447 Y-2.5018
N628 X6.3404 Y-2.4936
N629 X6.3354 Y-2.4861
N630 X6.3295 Y-2.4795
N631 X6.3229 Y-2.4736
N632 X6.3154 Y-2.4686
N633 X6.3072 Y-2.4643
N634 X6.2983 Y-2.4608
N635 X6.2885 Y-2.458
N636 X6.2779 Y-2.4561
N637 X6.2666 Y-2.4549
N638 X6.2545 Y-2.4545
N639 X0.2545
N640 X0.2424 Y-2.4541
N641 X0.2311 Y-2.4529
N642 X0.2205 Y-2.451
N643 X0.2108 Y-2.4483
N644 X0.2018 Y-2.4447
N645 X0.1936 Y-2.4404
N646 X0.1861 Y-2.4354
N647 X0.1795 Y-2.4295
N648 X0.1736 Y-2.4229
N649 X0.1686 Y-2.4154
N650 X0.1643 Y-2.4072
N651 X0.1608 Y-2.3983
N652 X0.158 Y-2.3885
N653 X0.1561 Y-2.3779
N654 X0.1549 Y-2.3666
N655 X0.1545 Y-2.3545
N656 X0.1549 Y-2.3424
N657 X0.1561 Y-2.3311
N658 X0.158 Y-2.3205
N659 X0.1608 Y-2.3108
N660 X0.1643 Y-2.3018
N661 X0.1686 Y-2.2936
N662 X0.1736 Y-2.2861
N663 X0.1795 Y-2.2795
N664 X0.1861 Y-2.2736
N665 X0.1936 Y-2.2686
N666 X0.2018 Y-2.2643
N667 X0.2108 Y-2.2608
N668 X0.2205 Y-2.258
N669 X0.2311 Y-2.2561
N670 X0.2424 Y-2.2549
N671 X0.2545 Y-2.2545
N672 X6.2545
N673 X6.2666 Y-2.2541
N674 X6.2779 Y-2.2529
N675 X6.2885 Y-2.251
N676 X6.2983 Y-2.2483
N677 X6.3072 Y-2.2447
N678 X6.3154 Y-2.2404
N679 X6.3229 Y-2.2354
N680 X6.3295 Y-2.2295
N681 X6.3354 Y-2.2229
N682 X6.3404 Y-2.2154
N683 X6.3447 Y-2.2072
N684 X6.3483 Y-2.1983
N685 X6.351 Y-2.1885
N686 X6.3529 Y-2.1779
N687 X6.3541 Y-2.1666
N688 X6.3545 Y-2.1545
N689 X6.3541 Y-2.1424
N690 X6.3529 Y-2.1311
N691 X6.351 Y-2.1205
N692 X6.3483 Y-2.1108
N693 X6.3447 Y-2.1018
N694 X6.3404 Y-2.0936
N695 X6.3354 Y-2.0861
N696 X6.3295 Y-2.0795
N697 X6.3229 Y-2.0736
N698 X6.3154 Y-2.0686
N699 X6.3072 Y-2.0643
N700 X6.2983 Y-2.0608
N701 X6.2885 Y-2.058
N702 X6.2779 Y-2.0561
N703 X6.2666 Y-2.0549
N704 X6.2545 Y-2.0545
N705 X0.2545
N706 X0.2424 Y-2.0541
N707 X0.2311 Y-2.0529
N708 X0.2205 Y-2.051
N709 X0.2108 Y-2.0483
N710 X0.2018 Y-2.0447
N711 X0.1936 Y-2.0404
N712 X0.1861 Y-2.0354
N713 X0.1795 Y-2.0295
N714 X0.1736 Y-2.0229
N715 X0.1686 Y-2.0154
N716 X0.1643 Y-2.0072
N717 X0.1608 Y-1.9983
N718 X0.158 Y-1.9885
N719 X0.1561 Y-1.9779
N720 X0.1549 Y-1.9666
N721 X0.1545 Y-1.9545
N722 X0.1549 Y-1.9424
N723 X0.1561 Y-1.9311
N724 X0.158 Y-1.9205
N725 X0.1608 Y-1.9108
N726 X0.1643 Y-1.9018
N727 X0.1686 Y-1.8936
N728 X0.1736 Y-1.8861
N729 X0.1795 Y-1.8795
N730 X0.1861 Y-1.8736
N731 X0.1936 Y-1.8686
N732 X0.2018 Y-1.8643
N733 X0.2108 Y-1.8608
N734 X0.2205 Y-1.858
N735 X0.2311 Y-1.8561
N736 X0.2424 Y-1.8549
N737 X0.2545 Y-1.8545
N738 X6.2545
N739 X6.2666 Y-1.8541
N740 X6.2779 Y-1.8529
N741 X6.2885 Y-1.851
N742 X6.2983 Y-1.8483
N743 X6.3072 Y-1.8447
N744 X6.3154 Y-1.8404
N745 X6.3229 Y-1.8354
N746 X6.3295 Y-1.8295
N747 X6.3354 Y-1.8229
N748 X6.3404 Y-1.8154
N749 X6.3447 Y-1.8072
N750 X6.3483 Y-1.7983
N751 X6.351 Y-1.7885
N752 X6.3529 Y-1.7779
N753 X6.3541 Y-1.7666
N754 X6.3545 Y-1.7545
N755 X6.3541 Y-1.7424
N756 X6.3529 Y-1.7311
N757 X6.351 Y-1.7205
N758 X6.3483 Y-1.7108
N759 X6.3447 Y-1.7018
N760 X6.3404 Y-1.6936
N761 X6.3354 Y-1.6861
N762 X6.3295 Y-1.6795
N763 X6.3229 Y-1.6736
N764 X6.3154 Y-1.6686
N765 X6.3072 Y-1.6643
N766 X6.2983 Y-1.6608
N767 X6.2885 Y-1.658
N768 X6.2779 Y-1.6561
N769 X6.2666 Y-1.6549
N770 X6.2545 Y-1.6545
N771 X0.2545
N772 X0.2424 Y-1.6541
N773 X0.2311 Y-1.6529
N774 X0.2205 Y-1.651
N775 X0.2108 Y-1.6483
N776 X0.2018 Y-1.6447
N777 X0.1936 Y-1.6404
N778 X0.1861 Y-1.6354
N779 X0.1795 Y-1.6295
N780 X0.1736 Y-1.6229
N781 X0.1686 Y-1.6154
N782 X0.1643 Y-1.6072
N783 X0.1608 Y-1.5983
N784 X0.158 Y-1.5885
N785 X0.1561 Y-1.5779
N786 X0.1549 Y-1.5666
N787 X0.1545 Y-1.5545
N788 X0.1549 Y-1.5424
N789 X0.1561 Y-1.5311
N790 X0.158 Y-1.5205
N791 X0.1608 Y-1.5108
N792 X0.1643 Y-1.5018
N793 X0.1686 Y-1.4936
N794 X0.1736 Y-1.4861
N795 X0.1795 Y-1.4795
N796 X0.1861 Y-1.4736
N797 X0.1936 Y-1.4686
N798 X0.2018 Y-1.4643
N799 X0.2108 Y-1.4608
N800 X0.2205 Y-1.458
N801 X0.2311 Y-1.4561
N802 X0.2424 Y-1.4549
N803 X0.2545 Y-1.4545
N804 X6.2545
N805 X6.2666 Y-1.4541
N806 X6.2779 Y-1.4529
N807 X6.2885 Y-1.451
N808 X6.2983 Y-1.4483
N809 X6.3072 Y-1.4447
N810 X6.3154 Y-1.4404
N811 X6.3229 Y-1.4354
N812 X6.3295 Y-1.4295
N813 X6.3354 Y-1.4229
N814 X6.3404 Y-1.4154
N815 X6.3447 Y-1.4072
N816 X6.3483 Y-1.3983
N817 X6.351 Y-1.3885
N818 X6.3529 Y-1.3779
N819 X6.3541 Y-1.3666
N820 X6.3545 Y-1.3545
N821 X6.3541 Y-1.3424
N822 X6.3529 Y-1.3311
N823 X6.351 Y-1.3205
N824 X6.3483 Y-1.3108
N825 X6.3447 Y-1.3018
N826 X6.3404 Y-1.2936
N827 X6.3354 Y-1.2861
N828 X6.3295 Y-1.2795
N829 X6.3229 Y-1.2736
N830 X6.3154 Y-1.2686
N831 X6.3072 Y-1.2643
N832 X6.2983 Y-1.2608
N833 X6.2885 Y-1.258
N834 X6.2779 Y-1.2561
N835 X6.2666 Y-1.2549
N836 X6.2545 Y-1.2545
N837 X0.2545
N838 X0.2424 Y-1.2541
N839 X0.2311 Y-1.2529
N840 X0.2205 Y-1.251
N841 X0.2108 Y-1.2483
N842 X0.2018 Y-1.2447
N843 X0.1936 Y-1.2404
N844 X0.1861 Y-1.2354
N845 X0.1795 Y-1.2295
N846 X0.1736 Y-1.2229
N847 X0.1686 Y-1.2154
N848 X0.1643 Y-1.2072
N849 X0.1608 Y-1.1983
N850 X0.158 Y-1.1885
N851 X0.1561 Y-1.1779
N852 X0.1549 Y-1.1666
N853 X0.1545 Y-1.1545
N854 X0.1549 Y-1.1424
N855 X0.1561 Y-1.1311
N856 X0.158 Y-1.1205
N857 X0.1608 Y-1.1108
N858 X0.1643 Y-1.1018
N859 X0.1686 Y-1.0936
N860 X0.1736 Y-1.0861
N861 X0.1795 Y-1.0795
N862 X0.1861 Y-1.0736
N863 X0.1936 Y-1.0686
N864 X0.2018 Y-1.0643
N865 X0.2108 Y-1.0608
N866 X0.2205 Y-1.058
N867 X0.2311 Y-1.0561
N868 X0.2424 Y-1.0549
N869 X0.2545 Y-1.0545
N870 X6.2545
N871 X6.2666 Y-1.0541
N872 X6.2779 Y-1.0529
N873 X6.2885 Y-1.051
N874 X6.2983 Y-1.0483
N875 X6.3072 Y-1.0447
N876 X6.3154 Y-1.0404
N877 X6.3229 Y-1.0354
N878 X6.3295 Y-1.0295
N879 X6.3354 Y-1.0229
N880 X6.3404 Y-1.0154
N881 X6.3447 Y-1.0072
N882 X6.3483 Y-0.9983
N883 X6.351 Y-0.9885
N884 X6.3529 Y-0.9779
N885 X6.3541 Y-0.9666
N886 X6.3545 Y-0.9545
N887 X6.3541 Y-0.9424
N888 X6.3529 Y-0.9311
N889 X6.351 Y-0.9205
N890 X6.3483 Y-0.9108
N891 X6.3447 Y-0.9018
N892 X6.3404 Y-0.8936
N893 X6.3354 Y-0.8861
N894 X6.3295 Y-0.8795
N895 X6.3229 Y-0.8736
N896 X6.3154 Y-0.8686
N897 X6.3072 Y-0.8643
N898 X6.2983 Y-0.8608
N899 X6.2885 Y-0.858
N900 X6.2779 Y-0.8561
N901 X6.2666 Y-0.8549
N902 X6.2545 Y-0.8545
N903 X0.2545
N904 X0.2424 Y-0.8541
N905 X0.2311 Y-0.8529
N906 X0.2205 Y-0.851
N907 X0.2108 Y-0.8483
N908 X0.2018 Y-0.8447
N909 X0.1936 Y-0.8404
N910 X0.1861 Y-0.8354
N911 X0.1795 Y-0.8295
N912 X0.1736 Y-0.8229
N913 X0.1686 Y-0.8154
N914 X0.1643 Y-0.8072
N915 X0.1608 Y-0.7983
N916 X0.158 Y-0.7885
N917 X0.1561 Y-0.7779
N918 X0.1549 Y-0.7666
N919 X0.1545 Y-0.7545
N920 X0.1549 Y-0.7424
N921 X0.1561 Y-0.7311
N922 X0.158 Y-0.7205
N923 X0.1608 Y-0.7108
N924 X0.1643 Y-0.7018
N925 X0.1686 Y-0.6936
N926 X0.1736 Y-0.6861
N927 X0.1795 Y-0.6795
N928 X0.1861 Y-0.6736
N929 X0.1936 Y-0.6686
N930 X0.2018 Y-0.6643
N931 X0.2108 Y-0.6608
N932 X0.2205 Y-0.658
N933 X0.2311 Y-0.6561
N934 X0.2424 Y-0.6549
N935 X0.2545 Y-0.6545
N936 X6.2545
N937 X6.2666 Y-0.6541
N938 X6.2779 Y-0.6529
N939 X6.2885 Y-0.651
N940 X6.2983 Y-0.6483
N941 X6.3072 Y-0.6447
N942 X6.3154 Y-0.6404
N943 X6.3229 Y-0.6354
N944 X6.3295 Y-0.6295
N945 X6.3354 Y-0.6229
N946 X6.3404 Y-0.6154
N947 X6.3447 Y-0.6072
N948 X6.3483 Y-0.5983
N949 X6.351 Y-0.5885
N950 X6.3529 Y-0.5779
N951 X6.3541 Y-0.5666
N952 X6.3545 Y-0.5545
N953 X6.3541 Y-0.5424
N954 X6.3529 Y-0.5311
N955 X6.351 Y-0.5205
N956 X6.3483 Y-0.5108
N957 X6.3447 Y-0.5018
N958 X6.3404 Y-0.4936
N959 X6.3354 Y-0.4861
N960 X6.3295 Y-0.4795
N961 X6.3229 Y-0.4736
N962 X6.3154 Y-0.4686
N963 X6.3072 Y-0.4643
N964 X6.2983 Y-0.4608
N965 X6.2885 Y-0.458
N966 X6.2779 Y-0.4561
N967 X6.2666 Y-0.4549
N968 X6.2545 Y-0.4545
N969 X0.2545
N970 G3 X0.1295 Y-0.5795 I0. J-0.125
N971 G0 Z0.5906
N972 M9
N973 G49
N974 M5
N975 G91 G28 Z0.
N976 G28 X0. Y0.
N977 M30
%
